( Made using CamBam - http://www.cambam.co.uk )
( attenuator_panel 10/24/2014 8:11:40 PM )
( T3 : 3.175 )
( T10 : 0.0 )
G21 G90 G61 G40
G0 Z3.0
( T10 : 0.0 )
T10 M6
( lettering )
G17
M3 S1000
G0 X5.6039 Y112.1807
G0 Z0.4
G1 F1000.0 Z-0.01
G1 F2000.0 Y115.3527
G1 Y112.1807
G0 Z3.0
G0 X7.4509
G0 Z0.4
G1 F1000.0 Z-0.01
G1 F2000.0 Y114.091
G2 X7.53 Y114.5815 I1.5898 J-0.0048
G2 X7.7792 Y115.0244 I1.2447 J-0.4086
G2 X8.1866 Y115.3408 I0.9936 J-0.8588
G2 X8.7561 Y115.4635 I0.5433 J-1.1398
G2 X9.3177 Y115.3408 I0.0261 J-1.2282
G2 X9.7251 Y115.0244 I-0.5499 J-1.1284
G2 X9.9703 Y114.5815 I-1.0349 J-0.8623
G2 X10.0573 Y114.091 I-1.3719 J-0.4963
G1 Y112.1807
G1 Y114.091
G3 X9.9703 Y114.5815 I-1.4589 J-0.0059
G3 X9.7251 Y115.0244 I-1.28 J-0.4192
G3 X9.3177 Y115.3408 I-0.9572 J-0.812
G3 X8.7561 Y115.4635 I-0.5356 J-1.1056
G3 X8.1866 Y115.3408 I-0.0262 J-1.2623
G3 X7.7792 Y115.0244 I0.5862 J-1.1751
G3 X7.53 Y114.5815 I0.9956 J-0.8516
G3 X7.4509 Y114.091 I1.5111 J-0.4953
G1 Y112.1807
G0 Z3.0
G0 X5.6342 Y116.5122
G0 Z0.4
G1 F1000.0 Z-0.01
G3 F2000.0 X5.6593 Y116.5313 I-0.0243 J0.0578
G3 X5.679 Y116.5788 I-0.0552 J0.0509
G3 X5.6039 Y116.6539 I-0.0658 J0.0094
G3 X5.5327 Y116.5788 I-0.0073 J-0.0644
G3 X5.5485 Y116.5313 I0.0854 J0.0021
G3 X5.6039 Y116.5076 I0.0493 J0.0387
G3 X5.6342 Y116.5122 I0.006 J0.0624
G3 X5.6593 Y116.5313 I-0.0243 J0.0578
G3 X5.679 Y116.5788 I-0.0552 J0.0509
G3 X5.6039 Y116.6539 I-0.0658 J0.0094
G3 X5.5327 Y116.5788 I-0.0073 J-0.0644
G3 X5.5485 Y116.5313 I0.0854 J0.0021
G3 X5.6039 Y116.5076 I0.0493 J0.0387
G3 X5.6342 Y116.5122 I0.006 J0.0624
G2 X5.6039 Y116.5076 I-0.0243 J0.0578
G2 X5.5485 Y116.5313 I-0.006 J0.0624
G2 X5.5327 Y116.5788 I0.0696 J0.0496
G2 X5.6039 Y116.6539 I0.0639 J0.0108
G2 X5.679 Y116.5788 I0.0094 J-0.0658
G2 X5.6593 Y116.5313 I-0.075 J0.0034
G2 X5.6342 Y116.5122 I-0.0493 J0.0387
G2 X5.6039 Y116.5076 I-0.0243 J0.0578
G2 X5.5485 Y116.5313 I-0.006 J0.0624
G2 X5.5327 Y116.5788 I0.0696 J0.0496
G2 X5.6039 Y116.6539 I0.0639 J0.0108
G2 X5.679 Y116.5788 I0.0094 J-0.0658
G2 X5.6593 Y116.5313 I-0.075 J0.0034
G2 X5.6342 Y116.5122 I-0.0493 J0.0387
G0 Z3.0
G0 X16.1661 Y28.5419
G0 Z0.4
G1 F1000.0 Z-0.01
G1 F2000.0 Y25.2513
G3 X16.2084 Y24.8952 I1.3443 J-0.0206
G3 X16.3915 Y24.5868 I0.5957 J0.1451
G3 X16.6827 Y24.4348 I0.4968 J0.5966
G3 X17.0085 Y24.393 I0.3124 J1.1447
G1 X17.5622
G1 X17.0085
G2 X16.6827 Y24.4348 I-0.0135 J1.1864
G2 X16.3915 Y24.5868 I0.2056 J0.7487
G2 X16.2084 Y24.8952 I0.4126 J0.4535
G2 X16.1661 Y25.2513 I1.3022 J0.3356
G1 Y28.5419
G0 Z3.0
G0 Y27.5848
G0 Z0.4
G1 F1000.0 Z-0.01
G1 F2000.0 X17.5622
G1 X16.1661
G0 Z3.0
G0 X14.6117 Y27.569
G0 Z0.4
G1 F1000.0 Z-0.01
G1 F2000.0 Y25.6547
G2 X14.5247 Y25.1682 I-1.4484 J0.008
G2 X14.2795 Y24.7332 I-1.2906 J0.4408
G2 X13.8721 Y24.4168 I-0.9572 J0.812
G2 X13.3065 Y24.2942 I-0.5379 J1.1155
G2 X12.737 Y24.4168 I-0.0262 J1.2623
G2 X12.3296 Y24.7332 I0.5862 J1.1751
G2 X12.0844 Y25.1682 I0.9628 J0.8293
G2 X12.0053 Y25.6547 I1.4993 J0.4935
G1 Y27.569
G1 Y25.6547
G3 X12.0844 Y25.1682 I1.5786 J0.007
G3 X12.3296 Y24.7332 I1.208 J0.3942
G3 X12.737 Y24.4168 I0.9936 J0.8588
G3 X13.3065 Y24.2942 I0.5433 J1.1398
G3 X13.8721 Y24.4168 I0.0277 J1.2382
G3 X14.2795 Y24.7332 I-0.5499 J1.1284
G3 X14.5247 Y25.1682 I-1.0455 J0.8759
G3 X14.6117 Y25.6547 I-1.3616 J0.4946
G1 Y27.569
G0 Z3.0
G0 X10.6127 Y26.4836
G0 Z0.4
G1 F1000.0 Z-0.01
G3 F2000.0 X10.5538 Y26.6633 I-1.7655 J-0.4792
G3 X10.2137 Y27.1972 I-1.4679 J-0.5598
G3 X9.6916 Y27.5452 I-1.0678 J-1.0361
G3 X9.0311 Y27.6678 I-0.6444 J-1.6309
G3 X8.3706 Y27.5452 I-0.0161 J-1.7536
G3 X7.8485 Y27.1972 I0.5457 J-1.3841
G3 X7.5084 Y26.6633 I1.1277 J-1.0937
G3 X7.3858 Y25.983 I1.7067 J-0.6588
G3 X7.5084 Y25.2948 I1.8716 J-0.0216
G3 X7.8485 Y24.7609 I1.5128 J0.5884
G3 X8.3706 Y24.4168 I1.077 J1.0659
G3 X9.0311 Y24.2981 I0.6439 J1.6866
G3 X9.6916 Y24.4168 I0.0166 J1.8055
G3 X10.2137 Y24.7609 I-0.5548 J1.4099
G3 X10.5538 Y25.2948 I-1.1726 J1.1223
G3 X10.6764 Y25.983 I-1.7488 J0.6666
G3 X10.6127 Y26.4836 I-1.8293 J0.0215
G3 X10.5538 Y26.6633 I-1.7655 J-0.4792
G3 X10.2137 Y27.1972 I-1.4679 J-0.5598
G3 X9.6916 Y27.5452 I-1.0678 J-1.0361
G3 X9.0311 Y27.6678 I-0.6444 J-1.6309
G3 X8.3706 Y27.5452 I-0.0161 J-1.7536
G3 X7.8485 Y27.1972 I0.5457 J-1.3841
G3 X7.5084 Y26.6633 I1.1277 J-1.0937
G3 X7.3858 Y25.983 I1.7067 J-0.6588
G3 X7.5084 Y25.2948 I1.8716 J-0.0216
G3 X7.8485 Y24.7609 I1.5128 J0.5884
G3 X8.3706 Y24.4168 I1.077 J1.0659
G3 X9.0311 Y24.2981 I0.6439 J1.6866
G3 X9.6916 Y24.4168 I0.0166 J1.8055
G3 X10.2137 Y24.7609 I-0.5548 J1.4099
G3 X10.5538 Y25.2948 I-1.1726 J1.1223
G3 X10.6764 Y25.983 I-1.7488 J0.6666
G3 X10.6127 Y26.4836 I-1.8293 J0.0215
G2 X10.6764 Y25.983 I-1.7656 J-0.4792
G2 X10.5538 Y25.2948 I-1.8716 J-0.0216
G2 X10.2137 Y24.7609 I-1.5128 J0.5884
G2 X9.6916 Y24.4168 I-1.077 J1.0659
G2 X9.0311 Y24.2981 I-0.6439 J1.6866
G2 X8.3706 Y24.4168 I-0.0166 J1.8055
G2 X7.8485 Y24.7609 I0.5548 J1.4099
G2 X7.5084 Y25.2948 I1.1726 J1.1223
G2 X7.3858 Y25.983 I1.7488 J0.6666
G2 X7.5084 Y26.6633 I1.8293 J0.0215
G2 X7.8485 Y27.1972 I1.4679 J-0.5598
G2 X8.3706 Y27.5452 I1.0678 J-1.0361
G2 X9.0311 Y27.6678 I0.6444 J-1.6309
G2 X9.6916 Y27.5452 I0.0161 J-1.7536
G2 X10.2137 Y27.1972 I-0.5457 J-1.3841
G2 X10.5538 Y26.6633 I-1.1277 J-1.0937
G2 X10.6127 Y26.4836 I-1.7067 J-0.6588
G2 X10.6764 Y25.983 I-1.7656 J-0.4792
G2 X10.5538 Y25.2948 I-1.8716 J-0.0216
G2 X10.2137 Y24.7609 I-1.5128 J0.5884
G2 X9.6916 Y24.4168 I-1.077 J1.0659
G2 X9.0311 Y24.2981 I-0.6439 J1.6866
G2 X8.3706 Y24.4168 I-0.0166 J1.8055
G2 X7.8485 Y24.7609 I0.5548 J1.4099
G2 X7.5084 Y25.2948 I1.1726 J1.1223
G2 X7.3858 Y25.983 I1.7488 J0.6666
G2 X7.5084 Y26.6633 I1.8293 J0.0215
G2 X7.8485 Y27.1972 I1.4679 J-0.5598
G2 X8.3706 Y27.5452 I1.0678 J-1.0361
G2 X9.0311 Y27.6678 I0.6444 J-1.6309
G2 X9.6916 Y27.5452 I0.0161 J-1.7536
G2 X10.2137 Y27.1972 I-0.5457 J-1.3841
G2 X10.5538 Y26.6633 I-1.1277 J-1.0937
G2 X10.6127 Y26.4836 I-1.7067 J-0.6588
( input )
G0 Z3.0
( T3 : 3.175 )
T3 M6
M3 S1000
G0 X17.75 Y114.3
G0 Z3.0
G0 X19.4125 Y114.3
G0 Z0.01
G1 F1000.0 Z0.0
G2 F2000.0 X16.9188 Y112.8602 Z-0.0333 I-1.6625 J0.0
G2 Y115.7398 Z-0.0667 I0.8313 J1.4398
G2 X19.4125 Y114.3 Z-0.1 I0.8313 J-1.4398
G2 X16.9188 Y112.8602 Z-0.1333 I-1.6625 J0.0
G2 Y115.7398 Z-0.1667 I0.8312 J1.4398
G2 X19.4125 Y114.3 Z-0.2 I0.8313 J-1.4398
G2 X16.9188 Y112.8602 Z-0.2333 I-1.6625 J0.0
G2 Y115.7398 Z-0.2667 I0.8312 J1.4398
G2 X19.4125 Y114.3 Z-0.3 I0.8313 J-1.4398
G2 X16.9188 Y112.8602 Z-0.3333 I-1.6625 J0.0
G2 Y115.7398 Z-0.3667 I0.8313 J1.4398
G2 X19.4125 Y114.3 Z-0.4 I0.8313 J-1.4398
G2 X16.9188 Y112.8602 Z-0.4333 I-1.6625 J0.0
G2 Y115.7398 Z-0.4667 I0.8313 J1.4398
G2 X19.4125 Y114.3 Z-0.5 I0.8312 J-1.4398
G2 X16.9188 Y112.8602 Z-0.5333 I-1.6625 J0.0
G2 Y115.7398 Z-0.5667 I0.8313 J1.4398
G2 X19.4125 Y114.3 Z-0.6 I0.8313 J-1.4398
G2 X16.9188 Y112.8602 Z-0.6333 I-1.6625 J0.0
G2 Y115.7398 Z-0.6667 I0.8312 J1.4398
G2 X19.4125 Y114.3 Z-0.7 I0.8313 J-1.4398
G2 X16.9188 Y112.8602 Z-0.7333 I-1.6625 J0.0
G2 Y115.7398 Z-0.7667 I0.8312 J1.4398
G2 X19.4125 Y114.3 Z-0.8 I0.8313 J-1.4398
G2 X16.9188 Y112.8602 Z-0.8333 I-1.6625 J0.0
G2 Y115.7398 Z-0.8667 I0.8312 J1.4398
G2 X19.4125 Y114.3 Z-0.9 I0.8313 J-1.4398
G2 X16.9188 Y112.8602 Z-0.9333 I-1.6625 J0.0
G2 Y115.7398 Z-0.9667 I0.8312 J1.4398
G2 X19.4125 Y114.3 Z-1.0 I0.8313 J-1.4398
G2 X16.9188 Y112.8602 Z-1.0333 I-1.6625 J0.0
G2 Y115.7398 Z-1.0667 I0.8312 J1.4398
G2 X19.4125 Y114.3 Z-1.1 I0.8313 J-1.4398
G2 X16.9188 Y112.8602 Z-1.1333 I-1.6625 J0.0
G2 Y115.7398 Z-1.1667 I0.8312 J1.4398
G2 X19.4125 Y114.3 Z-1.2 I0.8313 J-1.4398
G2 X16.9188 Y112.8602 Z-1.2333 I-1.6625 J0.0
G2 Y115.7398 Z-1.2667 I0.8312 J1.4398
G2 X19.4125 Y114.3 Z-1.3 I0.8313 J-1.4398
G2 X16.9188 Y112.8602 Z-1.3333 I-1.6625 J0.0
G2 X16.9187 Y115.7398 Z-1.3667 I0.8312 J1.4398
G2 X19.4125 Y114.3 Z-1.4 I0.8313 J-1.4398
G2 X16.9188 Y112.8602 Z-1.4333 I-1.6625 J0.0
G2 X16.9187 Y115.7398 Z-1.4667 I0.8312 J1.4398
G2 X19.4125 Y114.3 Z-1.5 I0.8313 J-1.4398
G2 X16.9188 Y112.8602 Z-1.5333 I-1.6625 J0.0
G2 X16.9187 Y115.7398 Z-1.5667 I0.8312 J1.4398
G2 X19.4125 Y114.3 Z-1.6 I0.8313 J-1.4398
G2 X16.9188 Y112.8602 Z-1.6333 I-1.6625 J0.0
G2 X16.9187 Y115.7398 Z-1.6667 I0.8312 J1.4398
G2 X19.4125 Y114.3 Z-1.7 I0.8313 J-1.4398
G2 X16.9188 Y112.8602 Z-1.7333 I-1.6625 J0.0
G2 X16.9187 Y115.7398 Z-1.7667 I0.8312 J1.4398
G2 X19.4125 Y114.3 Z-1.8 I0.8313 J-1.4398
G2 X16.9188 Y112.8602 Z-1.8333 I-1.6625 J0.0
G2 X16.9187 Y115.7398 Z-1.8667 I0.8312 J1.4398
G2 X19.4125 Y114.3 Z-1.9 I0.8313 J-1.4398
G2 X16.9188 Y112.8602 Z-1.9333 I-1.6625 J0.0
G2 X16.9187 Y115.7398 Z-1.9667 I0.8312 J1.4398
G2 X19.4125 Y114.3 Z-2.0 I0.8313 J-1.4398
G2 X16.9188 Y112.8602 Z-2.0333 I-1.6625 J0.0
G2 X16.9187 Y115.7398 Z-2.0667 I0.8312 J1.4398
G2 X19.4125 Y114.3 Z-2.1 I0.8313 J-1.4398
G2 X16.9188 Y112.8602 Z-2.1333 I-1.6625 J0.0
G2 X16.9187 Y115.7398 Z-2.1667 I0.8312 J1.4398
G2 X19.4125 Y114.3 Z-2.2 I0.8313 J-1.4398
G2 X16.9188 Y112.8602 Z-2.2333 I-1.6625 J0.0
G2 Y115.7398 Z-2.2667 I0.8312 J1.4398
G2 X19.4125 Y114.3 Z-2.3 I0.8313 J-1.4398
G2 X16.9188 Y112.8602 Z-2.3333 I-1.6625 J0.0
G2 Y115.7398 Z-2.3667 I0.8313 J1.4398
G2 X19.4125 Y114.3 Z-2.4 I0.8312 J-1.4398
G2 X16.9188 Y112.8602 Z-2.4333 I-1.6625 J0.0
G2 Y115.7398 Z-2.4667 I0.8313 J1.4398
G2 X19.4125 Y114.3 Z-2.5 I0.8312 J-1.4398
G2 X16.9187 Y112.8602 Z-2.5333 I-1.6625 J0.0
G2 X16.9188 Y115.7398 Z-2.5667 I0.8313 J1.4398
G2 X19.4125 Y114.3 Z-2.6 I0.8312 J-1.4398
G2 X16.9187 Y112.8602 Z-2.6333 I-1.6625 J0.0
G2 X16.9188 Y115.7398 Z-2.6667 I0.8313 J1.4398
G2 X19.4125 Y114.3 Z-2.7 I0.8312 J-1.4398
G2 X16.9187 Y112.8602 Z-2.7333 I-1.6625 J0.0
G2 X16.9188 Y115.7398 Z-2.7667 I0.8313 J1.4398
G2 X19.4125 Y114.3 Z-2.8 I0.8312 J-1.4398
G2 X16.9187 Y112.8602 Z-2.8333 I-1.6625 J0.0
G2 X16.9188 Y115.7398 Z-2.8667 I0.8313 J1.4398
G2 X19.4125 Y114.3 Z-2.9 I0.8312 J-1.4398
G2 X16.9187 Y112.8602 Z-2.9333 I-1.6625 J0.0
G2 X16.9188 Y115.7398 Z-2.9667 I0.8313 J1.4398
G2 X19.4125 Y114.3 Z-3.0 I0.8312 J-1.4398
G2 X16.9187 Y112.8602 Z-3.0333 I-1.6625 J0.0
G2 X16.9188 Y115.7398 Z-3.0667 I0.8313 J1.4398
G2 X19.4125 Y114.3 Z-3.1 I0.8312 J-1.4398
G2 X16.9187 Y112.8602 Z-3.1333 I-1.6625 J0.0
G2 X16.9188 Y115.7398 Z-3.1667 I0.8313 J1.4398
G2 X19.4125 Y114.3 Z-3.2 I0.8312 J-1.4398
G2 X16.9187 Y112.8602 I-1.6625 J0.0
G2 X16.9188 Y115.7398 I0.8313 J1.4398
G2 X19.4125 Y114.3 I0.8312 J-1.4398
( ledS )
S1000
G0 Z3.0
G0 X14.82 Y104.88
G0 Z3.0
G0 X14.8325 Y104.88
G0 Z0.01
G1 F1000.0 Z0.0
G2 F2000.0 X14.8138 Y104.8692 Z-0.0333 I-0.0125 J0.0
G2 Y104.8908 Z-0.0667 I0.0062 J0.0108
G2 X14.8325 Y104.88 Z-0.1 I0.0063 J-0.0108
G2 X14.8138 Y104.8692 Z-0.1333 I-0.0125 J0.0
G2 Y104.8908 Z-0.1667 I0.0062 J0.0108
G2 X14.8325 Y104.88 Z-0.2 I0.0063 J-0.0108
G2 X14.8138 Y104.8692 Z-0.2333 I-0.0125 J0.0
G2 Y104.8908 Z-0.2667 I0.0062 J0.0108
G2 X14.8325 Y104.88 Z-0.3 I0.0063 J-0.0108
G2 X14.8138 Y104.8692 Z-0.3333 I-0.0125 J0.0
G2 Y104.8908 Z-0.3667 I0.0062 J0.0108
G2 X14.8325 Y104.88 Z-0.4 I0.0063 J-0.0108
G2 X14.8138 Y104.8692 Z-0.4333 I-0.0125 J0.0
G2 Y104.8908 Z-0.4667 I0.0062 J0.0108
G2 X14.8325 Y104.88 Z-0.5 I0.0063 J-0.0108
G2 X14.8138 Y104.8692 Z-0.5333 I-0.0125 J0.0
G2 Y104.8908 Z-0.5667 I0.0062 J0.0108
G2 X14.8325 Y104.88 Z-0.6 I0.0063 J-0.0108
G2 X14.8138 Y104.8692 Z-0.6333 I-0.0125 J0.0
G2 Y104.8908 Z-0.6667 I0.0062 J0.0108
G2 X14.8325 Y104.88 Z-0.7 I0.0063 J-0.0108
G2 X14.8138 Y104.8692 Z-0.7333 I-0.0125 J0.0
G2 Y104.8908 Z-0.7667 I0.0062 J0.0108
G2 X14.8325 Y104.88 Z-0.8 I0.0063 J-0.0108
G2 X14.8138 Y104.8692 Z-0.8333 I-0.0125 J0.0
G2 Y104.8908 Z-0.8667 I0.0062 J0.0108
G2 X14.8325 Y104.88 Z-0.9 I0.0063 J-0.0108
G2 X14.8138 Y104.8692 Z-0.9333 I-0.0125 J0.0
G2 Y104.8908 Z-0.9667 I0.0062 J0.0108
G2 X14.8325 Y104.88 Z-1.0 I0.0063 J-0.0108
G2 X14.8138 Y104.8692 Z-1.0333 I-0.0125 J0.0
G2 Y104.8908 Z-1.0667 I0.0062 J0.0108
G2 X14.8325 Y104.88 Z-1.1 I0.0063 J-0.0108
G2 X14.8138 Y104.8692 Z-1.1333 I-0.0125 J0.0
G2 Y104.8908 Z-1.1667 I0.0062 J0.0108
G2 X14.8325 Y104.88 Z-1.2 I0.0063 J-0.0108
G2 X14.8138 Y104.8692 Z-1.2333 I-0.0125 J0.0
G2 Y104.8908 Z-1.2667 I0.0062 J0.0108
G2 X14.8325 Y104.88 Z-1.3 I0.0063 J-0.0108
G2 X14.8138 Y104.8692 Z-1.3333 I-0.0125 J0.0
G2 Y104.8908 Z-1.3667 I0.0062 J0.0108
G2 X14.8325 Y104.88 Z-1.4 I0.0063 J-0.0108
G2 X14.8138 Y104.8692 Z-1.4333 I-0.0125 J0.0
G2 Y104.8908 Z-1.4667 I0.0062 J0.0108
G2 X14.8325 Y104.88 Z-1.5 I0.0063 J-0.0108
G2 X14.8138 Y104.8692 Z-1.5333 I-0.0125 J0.0
G2 Y104.8908 Z-1.5667 I0.0062 J0.0108
G2 X14.8325 Y104.88 Z-1.6 I0.0063 J-0.0108
G2 X14.8138 Y104.8692 Z-1.6333 I-0.0125 J0.0
G2 Y104.8908 Z-1.6667 I0.0062 J0.0108
G2 X14.8325 Y104.88 Z-1.7 I0.0063 J-0.0108
G2 X14.8138 Y104.8692 Z-1.7333 I-0.0125 J0.0
G2 Y104.8908 Z-1.7667 I0.0062 J0.0108
G2 X14.8325 Y104.88 Z-1.8 I0.0063 J-0.0108
G2 X14.8138 Y104.8692 Z-1.8333 I-0.0125 J0.0
G2 Y104.8908 Z-1.8667 I0.0062 J0.0108
G2 X14.8325 Y104.88 Z-1.9 I0.0063 J-0.0108
G2 X14.8138 Y104.8692 Z-1.9333 I-0.0125 J0.0
G2 Y104.8908 Z-1.9667 I0.0062 J0.0108
G2 X14.8325 Y104.88 Z-2.0 I0.0063 J-0.0108
G2 X14.8138 Y104.8692 Z-2.0333 I-0.0125 J0.0
G2 Y104.8908 Z-2.0667 I0.0062 J0.0108
G2 X14.8325 Y104.88 Z-2.1 I0.0063 J-0.0108
G2 X14.8138 Y104.8692 Z-2.1333 I-0.0125 J0.0
G2 Y104.8908 Z-2.1667 I0.0062 J0.0108
G2 X14.8325 Y104.88 Z-2.2 I0.0063 J-0.0108
G2 X14.8138 Y104.8692 Z-2.2333 I-0.0125 J0.0
G2 Y104.8908 Z-2.2667 I0.0062 J0.0108
G2 X14.8325 Y104.88 Z-2.3 I0.0063 J-0.0108
G2 X14.8138 Y104.8692 Z-2.3333 I-0.0125 J0.0
G2 Y104.8908 Z-2.3667 I0.0062 J0.0108
G2 X14.8325 Y104.88 Z-2.4 I0.0063 J-0.0108
G2 X14.8138 Y104.8692 Z-2.4333 I-0.0125 J0.0
G2 Y104.8908 Z-2.4667 I0.0062 J0.0108
G2 X14.8325 Y104.88 Z-2.5 I0.0063 J-0.0108
G2 X14.8138 Y104.8692 Z-2.5333 I-0.0125 J0.0
G2 Y104.8908 Z-2.5667 I0.0062 J0.0108
G2 X14.8325 Y104.88 Z-2.6 I0.0063 J-0.0108
G2 X14.8138 Y104.8692 Z-2.6333 I-0.0125 J0.0
G2 Y104.8908 Z-2.6667 I0.0062 J0.0108
G2 X14.8325 Y104.88 Z-2.7 I0.0063 J-0.0108
G2 X14.8138 Y104.8692 Z-2.7333 I-0.0125 J0.0
G2 Y104.8908 Z-2.7667 I0.0062 J0.0108
G2 X14.8325 Y104.88 Z-2.8 I0.0063 J-0.0108
G2 X14.8138 Y104.8692 Z-2.8333 I-0.0125 J0.0
G2 Y104.8908 Z-2.8667 I0.0062 J0.0108
G2 X14.8325 Y104.88 Z-2.9 I0.0063 J-0.0108
G2 X14.8138 Y104.8692 Z-2.9333 I-0.0125 J0.0
G2 Y104.8908 Z-2.9667 I0.0062 J0.0108
G2 X14.8325 Y104.88 Z-3.0 I0.0063 J-0.0108
G2 X14.8138 Y104.8692 Z-3.0333 I-0.0125 J0.0
G2 Y104.8908 Z-3.0667 I0.0062 J0.0108
G2 X14.8325 Y104.88 Z-3.1 I0.0063 J-0.0108
G2 X14.8138 Y104.8692 Z-3.1333 I-0.0125 J0.0
G2 Y104.8908 Z-3.1667 I0.0063 J0.0108
G2 X14.8325 Y104.88 Z-3.2 I0.0062 J-0.0108
G2 X14.8138 Y104.8692 I-0.0125 J0.0
G2 Y104.8908 I0.0063 J0.0108
G2 X14.8325 Y104.88 I0.0062 J-0.0108
G0 Z3.0
G0 Y98.5467
G0 Z0.01
G1 F1000.0 Z0.0
G2 F2000.0 X14.8138 Y98.5358 Z-0.0333 I-0.0125 J0.0
G2 Y98.5575 Z-0.0667 I0.0062 J0.0108
G2 X14.8325 Y98.5467 Z-0.1 I0.0063 J-0.0108
G2 X14.8138 Y98.5358 Z-0.1333 I-0.0125 J0.0
G2 Y98.5575 Z-0.1667 I0.0062 J0.0108
G2 X14.8325 Y98.5467 Z-0.2 I0.0063 J-0.0108
G2 X14.8138 Y98.5358 Z-0.2333 I-0.0125 J0.0
G2 Y98.5575 Z-0.2667 I0.0062 J0.0108
G2 X14.8325 Y98.5467 Z-0.3 I0.0063 J-0.0108
G2 X14.8138 Y98.5358 Z-0.3333 I-0.0125 J0.0
G2 Y98.5575 Z-0.3667 I0.0062 J0.0108
G2 X14.8325 Y98.5467 Z-0.4 I0.0063 J-0.0108
G2 X14.8138 Y98.5358 Z-0.4333 I-0.0125 J0.0
G2 Y98.5575 Z-0.4667 I0.0062 J0.0108
G2 X14.8325 Y98.5467 Z-0.5 I0.0063 J-0.0108
G2 X14.8138 Y98.5358 Z-0.5333 I-0.0125 J0.0
G2 Y98.5575 Z-0.5667 I0.0062 J0.0108
G2 X14.8325 Y98.5467 Z-0.6 I0.0063 J-0.0108
G2 X14.8138 Y98.5358 Z-0.6333 I-0.0125 J0.0
G2 Y98.5575 Z-0.6667 I0.0062 J0.0108
G2 X14.8325 Y98.5467 Z-0.7 I0.0063 J-0.0108
G2 X14.8138 Y98.5358 Z-0.7333 I-0.0125 J0.0
G2 Y98.5575 Z-0.7667 I0.0062 J0.0108
G2 X14.8325 Y98.5467 Z-0.8 I0.0063 J-0.0108
G2 X14.8138 Y98.5358 Z-0.8333 I-0.0125 J0.0
G2 Y98.5575 Z-0.8667 I0.0062 J0.0108
G2 X14.8325 Y98.5467 Z-0.9 I0.0063 J-0.0108
G2 X14.8138 Y98.5358 Z-0.9333 I-0.0125 J0.0
G2 Y98.5575 Z-0.9667 I0.0062 J0.0108
G2 X14.8325 Y98.5467 Z-1.0 I0.0063 J-0.0108
G2 X14.8138 Y98.5358 Z-1.0333 I-0.0125 J0.0
G2 Y98.5575 Z-1.0667 I0.0062 J0.0108
G2 X14.8325 Y98.5467 Z-1.1 I0.0063 J-0.0108
G2 X14.8138 Y98.5358 Z-1.1333 I-0.0125 J0.0
G2 Y98.5575 Z-1.1667 I0.0062 J0.0108
G2 X14.8325 Y98.5467 Z-1.2 I0.0063 J-0.0108
G2 X14.8138 Y98.5358 Z-1.2333 I-0.0125 J0.0
G2 Y98.5575 Z-1.2667 I0.0062 J0.0108
G2 X14.8325 Y98.5467 Z-1.3 I0.0063 J-0.0108
G2 X14.8138 Y98.5358 Z-1.3333 I-0.0125 J0.0
G2 Y98.5575 Z-1.3667 I0.0062 J0.0108
G2 X14.8325 Y98.5467 Z-1.4 I0.0063 J-0.0108
G2 X14.8138 Y98.5358 Z-1.4333 I-0.0125 J0.0
G2 Y98.5575 Z-1.4667 I0.0062 J0.0108
G2 X14.8325 Y98.5467 Z-1.5 I0.0063 J-0.0108
G2 X14.8138 Y98.5358 Z-1.5333 I-0.0125 J0.0
G2 Y98.5575 Z-1.5667 I0.0062 J0.0108
G2 X14.8325 Y98.5467 Z-1.6 I0.0063 J-0.0108
G2 X14.8138 Y98.5358 Z-1.6333 I-0.0125 J0.0
G2 Y98.5575 Z-1.6667 I0.0062 J0.0108
G2 X14.8325 Y98.5467 Z-1.7 I0.0063 J-0.0108
G2 X14.8138 Y98.5358 Z-1.7333 I-0.0125 J0.0
G2 Y98.5575 Z-1.7667 I0.0062 J0.0108
G2 X14.8325 Y98.5467 Z-1.8 I0.0063 J-0.0108
G2 X14.8138 Y98.5358 Z-1.8333 I-0.0125 J0.0
G2 Y98.5575 Z-1.8667 I0.0062 J0.0108
G2 X14.8325 Y98.5467 Z-1.9 I0.0063 J-0.0108
G2 X14.8138 Y98.5358 Z-1.9333 I-0.0125 J0.0
G2 Y98.5575 Z-1.9667 I0.0062 J0.0108
G2 X14.8325 Y98.5467 Z-2.0 I0.0063 J-0.0108
G2 X14.8138 Y98.5358 Z-2.0333 I-0.0125 J0.0
G2 Y98.5575 Z-2.0667 I0.0062 J0.0108
G2 X14.8325 Y98.5467 Z-2.1 I0.0063 J-0.0108
G2 X14.8138 Y98.5358 Z-2.1333 I-0.0125 J0.0
G2 Y98.5575 Z-2.1667 I0.0062 J0.0108
G2 X14.8325 Y98.5467 Z-2.2 I0.0063 J-0.0108
G2 X14.8138 Y98.5358 Z-2.2333 I-0.0125 J0.0
G2 Y98.5575 Z-2.2667 I0.0062 J0.0108
G2 X14.8325 Y98.5467 Z-2.3 I0.0063 J-0.0108
G2 X14.8138 Y98.5358 Z-2.3333 I-0.0125 J0.0
G2 Y98.5575 Z-2.3667 I0.0062 J0.0108
G2 X14.8325 Y98.5467 Z-2.4 I0.0063 J-0.0108
G2 X14.8138 Y98.5358 Z-2.4333 I-0.0125 J0.0
G2 Y98.5575 Z-2.4667 I0.0062 J0.0108
G2 X14.8325 Y98.5467 Z-2.5 I0.0063 J-0.0108
G2 X14.8138 Y98.5358 Z-2.5333 I-0.0125 J0.0
G2 Y98.5575 Z-2.5667 I0.0062 J0.0108
G2 X14.8325 Y98.5467 Z-2.6 I0.0063 J-0.0108
G2 X14.8138 Y98.5358 Z-2.6333 I-0.0125 J0.0
G2 Y98.5575 Z-2.6667 I0.0062 J0.0108
G2 X14.8325 Y98.5467 Z-2.7 I0.0063 J-0.0108
G2 X14.8138 Y98.5358 Z-2.7333 I-0.0125 J0.0
G2 Y98.5575 Z-2.7667 I0.0062 J0.0108
G2 X14.8325 Y98.5467 Z-2.8 I0.0063 J-0.0108
G2 X14.8138 Y98.5358 Z-2.8333 I-0.0125 J0.0
G2 Y98.5575 Z-2.8667 I0.0062 J0.0108
G2 X14.8325 Y98.5467 Z-2.9 I0.0063 J-0.0108
G2 X14.8138 Y98.5358 Z-2.9333 I-0.0125 J0.0
G2 Y98.5575 Z-2.9667 I0.0062 J0.0108
G2 X14.8325 Y98.5467 Z-3.0 I0.0063 J-0.0108
G2 X14.8138 Y98.5358 Z-3.0333 I-0.0125 J0.0
G2 Y98.5575 Z-3.0667 I0.0062 J0.0108
G2 X14.8325 Y98.5467 Z-3.1 I0.0063 J-0.0108
G2 X14.8138 Y98.5358 Z-3.1333 I-0.0125 J0.0
G2 Y98.5575 Z-3.1667 I0.0063 J0.0108
G2 X14.8325 Y98.5467 Z-3.2 I0.0062 J-0.0108
G2 X14.8138 Y98.5358 I-0.0125 J0.0
G2 Y98.5575 I0.0063 J0.0108
G2 X14.8325 Y98.5467 I0.0062 J-0.0108
G0 Z3.0
G0 Y92.2133
G0 Z0.01
G1 F1000.0 Z0.0
G2 F2000.0 X14.8138 Y92.2025 Z-0.0333 I-0.0125 J0.0
G2 Y92.2242 Z-0.0667 I0.0062 J0.0108
G2 X14.8325 Y92.2133 Z-0.1 I0.0063 J-0.0108
G2 X14.8138 Y92.2025 Z-0.1333 I-0.0125 J0.0
G2 Y92.2242 Z-0.1667 I0.0062 J0.0108
G2 X14.8325 Y92.2133 Z-0.2 I0.0063 J-0.0108
G2 X14.8138 Y92.2025 Z-0.2333 I-0.0125 J0.0
G2 Y92.2242 Z-0.2667 I0.0062 J0.0108
G2 X14.8325 Y92.2133 Z-0.3 I0.0063 J-0.0108
G2 X14.8138 Y92.2025 Z-0.3333 I-0.0125 J0.0
G2 Y92.2242 Z-0.3667 I0.0062 J0.0108
G2 X14.8325 Y92.2133 Z-0.4 I0.0063 J-0.0108
G2 X14.8138 Y92.2025 Z-0.4333 I-0.0125 J0.0
G2 Y92.2242 Z-0.4667 I0.0062 J0.0108
G2 X14.8325 Y92.2133 Z-0.5 I0.0063 J-0.0108
G2 X14.8138 Y92.2025 Z-0.5333 I-0.0125 J0.0
G2 Y92.2242 Z-0.5667 I0.0062 J0.0108
G2 X14.8325 Y92.2133 Z-0.6 I0.0063 J-0.0108
G2 X14.8138 Y92.2025 Z-0.6333 I-0.0125 J0.0
G2 Y92.2242 Z-0.6667 I0.0062 J0.0108
G2 X14.8325 Y92.2133 Z-0.7 I0.0063 J-0.0108
G2 X14.8138 Y92.2025 Z-0.7333 I-0.0125 J0.0
G2 Y92.2242 Z-0.7667 I0.0062 J0.0108
G2 X14.8325 Y92.2133 Z-0.8 I0.0063 J-0.0108
G2 X14.8138 Y92.2025 Z-0.8333 I-0.0125 J0.0
G2 Y92.2242 Z-0.8667 I0.0062 J0.0108
G2 X14.8325 Y92.2133 Z-0.9 I0.0063 J-0.0108
G2 X14.8138 Y92.2025 Z-0.9333 I-0.0125 J0.0
G2 Y92.2242 Z-0.9667 I0.0062 J0.0108
G2 X14.8325 Y92.2133 Z-1.0 I0.0063 J-0.0108
G2 X14.8138 Y92.2025 Z-1.0333 I-0.0125 J0.0
G2 Y92.2242 Z-1.0667 I0.0062 J0.0108
G2 X14.8325 Y92.2133 Z-1.1 I0.0063 J-0.0108
G2 X14.8138 Y92.2025 Z-1.1333 I-0.0125 J0.0
G2 Y92.2242 Z-1.1667 I0.0062 J0.0108
G2 X14.8325 Y92.2133 Z-1.2 I0.0063 J-0.0108
G2 X14.8138 Y92.2025 Z-1.2333 I-0.0125 J0.0
G2 Y92.2242 Z-1.2667 I0.0062 J0.0108
G2 X14.8325 Y92.2133 Z-1.3 I0.0063 J-0.0108
G2 X14.8138 Y92.2025 Z-1.3333 I-0.0125 J0.0
G2 Y92.2242 Z-1.3667 I0.0062 J0.0108
G2 X14.8325 Y92.2133 Z-1.4 I0.0063 J-0.0108
G2 X14.8138 Y92.2025 Z-1.4333 I-0.0125 J0.0
G2 Y92.2242 Z-1.4667 I0.0062 J0.0108
G2 X14.8325 Y92.2133 Z-1.5 I0.0063 J-0.0108
G2 X14.8138 Y92.2025 Z-1.5333 I-0.0125 J0.0
G2 Y92.2242 Z-1.5667 I0.0062 J0.0108
G2 X14.8325 Y92.2133 Z-1.6 I0.0063 J-0.0108
G2 X14.8138 Y92.2025 Z-1.6333 I-0.0125 J0.0
G2 Y92.2242 Z-1.6667 I0.0062 J0.0108
G2 X14.8325 Y92.2133 Z-1.7 I0.0063 J-0.0108
G2 X14.8138 Y92.2025 Z-1.7333 I-0.0125 J0.0
G2 Y92.2242 Z-1.7667 I0.0062 J0.0108
G2 X14.8325 Y92.2133 Z-1.8 I0.0063 J-0.0108
G2 X14.8138 Y92.2025 Z-1.8333 I-0.0125 J0.0
G2 Y92.2242 Z-1.8667 I0.0062 J0.0108
G2 X14.8325 Y92.2133 Z-1.9 I0.0063 J-0.0108
G2 X14.8138 Y92.2025 Z-1.9333 I-0.0125 J0.0
G2 Y92.2242 Z-1.9667 I0.0062 J0.0108
G2 X14.8325 Y92.2133 Z-2.0 I0.0063 J-0.0108
G2 X14.8138 Y92.2025 Z-2.0333 I-0.0125 J0.0
G2 Y92.2242 Z-2.0667 I0.0062 J0.0108
G2 X14.8325 Y92.2133 Z-2.1 I0.0063 J-0.0108
G2 X14.8138 Y92.2025 Z-2.1333 I-0.0125 J0.0
G2 Y92.2242 Z-2.1667 I0.0062 J0.0108
G2 X14.8325 Y92.2133 Z-2.2 I0.0063 J-0.0108
G2 X14.8138 Y92.2025 Z-2.2333 I-0.0125 J0.0
G2 Y92.2242 Z-2.2667 I0.0062 J0.0108
G2 X14.8325 Y92.2133 Z-2.3 I0.0063 J-0.0108
G2 X14.8138 Y92.2025 Z-2.3333 I-0.0125 J0.0
G2 Y92.2242 Z-2.3667 I0.0062 J0.0108
G2 X14.8325 Y92.2133 Z-2.4 I0.0063 J-0.0108
G2 X14.8138 Y92.2025 Z-2.4333 I-0.0125 J0.0
G2 Y92.2242 Z-2.4667 I0.0062 J0.0108
G2 X14.8325 Y92.2133 Z-2.5 I0.0063 J-0.0108
G2 X14.8138 Y92.2025 Z-2.5333 I-0.0125 J0.0
G2 Y92.2242 Z-2.5667 I0.0062 J0.0108
G2 X14.8325 Y92.2133 Z-2.6 I0.0063 J-0.0108
G2 X14.8138 Y92.2025 Z-2.6333 I-0.0125 J0.0
G2 Y92.2242 Z-2.6667 I0.0062 J0.0108
G2 X14.8325 Y92.2133 Z-2.7 I0.0063 J-0.0108
G2 X14.8138 Y92.2025 Z-2.7333 I-0.0125 J0.0
G2 Y92.2242 Z-2.7667 I0.0062 J0.0108
G2 X14.8325 Y92.2133 Z-2.8 I0.0063 J-0.0108
G2 X14.8138 Y92.2025 Z-2.8333 I-0.0125 J0.0
G2 Y92.2242 Z-2.8667 I0.0062 J0.0108
G2 X14.8325 Y92.2133 Z-2.9 I0.0063 J-0.0108
G2 X14.8138 Y92.2025 Z-2.9333 I-0.0125 J0.0
G2 Y92.2242 Z-2.9667 I0.0062 J0.0108
G2 X14.8325 Y92.2133 Z-3.0 I0.0063 J-0.0108
G2 X14.8138 Y92.2025 Z-3.0333 I-0.0125 J0.0
G2 Y92.2242 Z-3.0667 I0.0062 J0.0108
G2 X14.8325 Y92.2133 Z-3.1 I0.0063 J-0.0108
G2 X14.8138 Y92.2025 Z-3.1333 I-0.0125 J0.0
G2 Y92.2242 Z-3.1667 I0.0063 J0.0108
G2 X14.8325 Y92.2133 Z-3.2 I0.0062 J-0.0108
G2 X14.8138 Y92.2025 I-0.0125 J0.0
G2 Y92.2242 I0.0063 J0.0108
G2 X14.8325 Y92.2133 I0.0062 J-0.0108
G0 Z3.0
G0 Y85.88
G0 Z0.01
G1 F1000.0 Z0.0
G2 F2000.0 X14.8138 Y85.8692 Z-0.0333 I-0.0125 J0.0
G2 Y85.8908 Z-0.0667 I0.0062 J0.0108
G2 X14.8325 Y85.88 Z-0.1 I0.0063 J-0.0108
G2 X14.8138 Y85.8692 Z-0.1333 I-0.0125 J0.0
G2 Y85.8908 Z-0.1667 I0.0062 J0.0108
G2 X14.8325 Y85.88 Z-0.2 I0.0063 J-0.0108
G2 X14.8138 Y85.8692 Z-0.2333 I-0.0125 J0.0
G2 Y85.8908 Z-0.2667 I0.0062 J0.0108
G2 X14.8325 Y85.88 Z-0.3 I0.0063 J-0.0108
G2 X14.8138 Y85.8692 Z-0.3333 I-0.0125 J0.0
G2 Y85.8908 Z-0.3667 I0.0062 J0.0108
G2 X14.8325 Y85.88 Z-0.4 I0.0063 J-0.0108
G2 X14.8138 Y85.8692 Z-0.4333 I-0.0125 J0.0
G2 Y85.8908 Z-0.4667 I0.0062 J0.0108
G2 X14.8325 Y85.88 Z-0.5 I0.0063 J-0.0108
G2 X14.8138 Y85.8692 Z-0.5333 I-0.0125 J0.0
G2 Y85.8908 Z-0.5667 I0.0062 J0.0108
G2 X14.8325 Y85.88 Z-0.6 I0.0063 J-0.0108
G2 X14.8138 Y85.8692 Z-0.6333 I-0.0125 J0.0
G2 Y85.8908 Z-0.6667 I0.0062 J0.0108
G2 X14.8325 Y85.88 Z-0.7 I0.0063 J-0.0108
G2 X14.8138 Y85.8692 Z-0.7333 I-0.0125 J0.0
G2 Y85.8908 Z-0.7667 I0.0062 J0.0108
G2 X14.8325 Y85.88 Z-0.8 I0.0063 J-0.0108
G2 X14.8138 Y85.8692 Z-0.8333 I-0.0125 J0.0
G2 Y85.8908 Z-0.8667 I0.0062 J0.0108
G2 X14.8325 Y85.88 Z-0.9 I0.0063 J-0.0108
G2 X14.8138 Y85.8692 Z-0.9333 I-0.0125 J0.0
G2 Y85.8908 Z-0.9667 I0.0062 J0.0108
G2 X14.8325 Y85.88 Z-1.0 I0.0063 J-0.0108
G2 X14.8138 Y85.8692 Z-1.0333 I-0.0125 J0.0
G2 Y85.8908 Z-1.0667 I0.0062 J0.0108
G2 X14.8325 Y85.88 Z-1.1 I0.0063 J-0.0108
G2 X14.8138 Y85.8692 Z-1.1333 I-0.0125 J0.0
G2 Y85.8908 Z-1.1667 I0.0062 J0.0108
G2 X14.8325 Y85.88 Z-1.2 I0.0063 J-0.0108
G2 X14.8138 Y85.8692 Z-1.2333 I-0.0125 J0.0
G2 Y85.8908 Z-1.2667 I0.0062 J0.0108
G2 X14.8325 Y85.88 Z-1.3 I0.0063 J-0.0108
G2 X14.8138 Y85.8692 Z-1.3333 I-0.0125 J0.0
G2 Y85.8908 Z-1.3667 I0.0062 J0.0108
G2 X14.8325 Y85.88 Z-1.4 I0.0063 J-0.0108
G2 X14.8138 Y85.8692 Z-1.4333 I-0.0125 J0.0
G2 Y85.8908 Z-1.4667 I0.0062 J0.0108
G2 X14.8325 Y85.88 Z-1.5 I0.0063 J-0.0108
G2 X14.8138 Y85.8692 Z-1.5333 I-0.0125 J0.0
G2 Y85.8908 Z-1.5667 I0.0062 J0.0108
G2 X14.8325 Y85.88 Z-1.6 I0.0063 J-0.0108
G2 X14.8138 Y85.8692 Z-1.6333 I-0.0125 J0.0
G2 Y85.8908 Z-1.6667 I0.0062 J0.0108
G2 X14.8325 Y85.88 Z-1.7 I0.0063 J-0.0108
G2 X14.8138 Y85.8692 Z-1.7333 I-0.0125 J0.0
G2 Y85.8908 Z-1.7667 I0.0062 J0.0108
G2 X14.8325 Y85.88 Z-1.8 I0.0063 J-0.0108
G2 X14.8138 Y85.8692 Z-1.8333 I-0.0125 J0.0
G2 Y85.8908 Z-1.8667 I0.0062 J0.0108
G2 X14.8325 Y85.88 Z-1.9 I0.0063 J-0.0108
G2 X14.8138 Y85.8692 Z-1.9333 I-0.0125 J0.0
G2 Y85.8908 Z-1.9667 I0.0062 J0.0108
G2 X14.8325 Y85.88 Z-2.0 I0.0063 J-0.0108
G2 X14.8138 Y85.8692 Z-2.0333 I-0.0125 J0.0
G2 Y85.8908 Z-2.0667 I0.0062 J0.0108
G2 X14.8325 Y85.88 Z-2.1 I0.0063 J-0.0108
G2 X14.8138 Y85.8692 Z-2.1333 I-0.0125 J0.0
G2 Y85.8908 Z-2.1667 I0.0062 J0.0108
G2 X14.8325 Y85.88 Z-2.2 I0.0063 J-0.0108
G2 X14.8138 Y85.8692 Z-2.2333 I-0.0125 J0.0
G2 Y85.8908 Z-2.2667 I0.0062 J0.0108
G2 X14.8325 Y85.88 Z-2.3 I0.0063 J-0.0108
G2 X14.8138 Y85.8692 Z-2.3333 I-0.0125 J0.0
G2 Y85.8908 Z-2.3667 I0.0062 J0.0108
G2 X14.8325 Y85.88 Z-2.4 I0.0063 J-0.0108
G2 X14.8138 Y85.8692 Z-2.4333 I-0.0125 J0.0
G2 Y85.8908 Z-2.4667 I0.0062 J0.0108
G2 X14.8325 Y85.88 Z-2.5 I0.0063 J-0.0108
G2 X14.8138 Y85.8692 Z-2.5333 I-0.0125 J0.0
G2 Y85.8908 Z-2.5667 I0.0062 J0.0108
G2 X14.8325 Y85.88 Z-2.6 I0.0063 J-0.0108
G2 X14.8138 Y85.8692 Z-2.6333 I-0.0125 J0.0
G2 Y85.8908 Z-2.6667 I0.0062 J0.0108
G2 X14.8325 Y85.88 Z-2.7 I0.0063 J-0.0108
G2 X14.8138 Y85.8692 Z-2.7333 I-0.0125 J0.0
G2 Y85.8908 Z-2.7667 I0.0062 J0.0108
G2 X14.8325 Y85.88 Z-2.8 I0.0063 J-0.0108
G2 X14.8138 Y85.8692 Z-2.8333 I-0.0125 J0.0
G2 Y85.8908 Z-2.8667 I0.0062 J0.0108
G2 X14.8325 Y85.88 Z-2.9 I0.0063 J-0.0108
G2 X14.8138 Y85.8692 Z-2.9333 I-0.0125 J0.0
G2 Y85.8908 Z-2.9667 I0.0062 J0.0108
G2 X14.8325 Y85.88 Z-3.0 I0.0063 J-0.0108
G2 X14.8138 Y85.8692 Z-3.0333 I-0.0125 J0.0
G2 Y85.8908 Z-3.0667 I0.0062 J0.0108
G2 X14.8325 Y85.88 Z-3.1 I0.0063 J-0.0108
G2 X14.8138 Y85.8692 Z-3.1333 I-0.0125 J0.0
G2 Y85.8908 Z-3.1667 I0.0063 J0.0108
G2 X14.8325 Y85.88 Z-3.2 I0.0062 J-0.0108
G2 X14.8138 Y85.8692 I-0.0125 J0.0
G2 Y85.8908 I0.0063 J0.0108
G2 X14.8325 Y85.88 I0.0062 J-0.0108
G0 Z3.0
G0 Y79.5467
G0 Z0.01
G1 F1000.0 Z0.0
G2 F2000.0 X14.8138 Y79.5358 Z-0.0333 I-0.0125 J0.0
G2 Y79.5575 Z-0.0667 I0.0062 J0.0108
G2 X14.8325 Y79.5467 Z-0.1 I0.0063 J-0.0108
G2 X14.8138 Y79.5358 Z-0.1333 I-0.0125 J0.0
G2 Y79.5575 Z-0.1667 I0.0062 J0.0108
G2 X14.8325 Y79.5467 Z-0.2 I0.0063 J-0.0108
G2 X14.8138 Y79.5358 Z-0.2333 I-0.0125 J0.0
G2 Y79.5575 Z-0.2667 I0.0062 J0.0108
G2 X14.8325 Y79.5467 Z-0.3 I0.0063 J-0.0108
G2 X14.8138 Y79.5358 Z-0.3333 I-0.0125 J0.0
G2 Y79.5575 Z-0.3667 I0.0062 J0.0108
G2 X14.8325 Y79.5467 Z-0.4 I0.0063 J-0.0108
G2 X14.8138 Y79.5358 Z-0.4333 I-0.0125 J0.0
G2 Y79.5575 Z-0.4667 I0.0062 J0.0108
G2 X14.8325 Y79.5467 Z-0.5 I0.0063 J-0.0108
G2 X14.8138 Y79.5358 Z-0.5333 I-0.0125 J0.0
G2 Y79.5575 Z-0.5667 I0.0062 J0.0108
G2 X14.8325 Y79.5467 Z-0.6 I0.0063 J-0.0108
G2 X14.8138 Y79.5358 Z-0.6333 I-0.0125 J0.0
G2 Y79.5575 Z-0.6667 I0.0062 J0.0108
G2 X14.8325 Y79.5467 Z-0.7 I0.0063 J-0.0108
G2 X14.8138 Y79.5358 Z-0.7333 I-0.0125 J0.0
G2 Y79.5575 Z-0.7667 I0.0062 J0.0108
G2 X14.8325 Y79.5467 Z-0.8 I0.0063 J-0.0108
G2 X14.8138 Y79.5358 Z-0.8333 I-0.0125 J0.0
G2 Y79.5575 Z-0.8667 I0.0062 J0.0108
G2 X14.8325 Y79.5467 Z-0.9 I0.0063 J-0.0108
G2 X14.8138 Y79.5358 Z-0.9333 I-0.0125 J0.0
G2 Y79.5575 Z-0.9667 I0.0062 J0.0108
G2 X14.8325 Y79.5467 Z-1.0 I0.0063 J-0.0108
G2 X14.8138 Y79.5358 Z-1.0333 I-0.0125 J0.0
G2 Y79.5575 Z-1.0667 I0.0062 J0.0108
G2 X14.8325 Y79.5467 Z-1.1 I0.0063 J-0.0108
G2 X14.8138 Y79.5358 Z-1.1333 I-0.0125 J0.0
G2 Y79.5575 Z-1.1667 I0.0062 J0.0108
G2 X14.8325 Y79.5467 Z-1.2 I0.0063 J-0.0108
G2 X14.8138 Y79.5358 Z-1.2333 I-0.0125 J0.0
G2 Y79.5575 Z-1.2667 I0.0062 J0.0108
G2 X14.8325 Y79.5467 Z-1.3 I0.0063 J-0.0108
G2 X14.8138 Y79.5358 Z-1.3333 I-0.0125 J0.0
G2 Y79.5575 Z-1.3667 I0.0062 J0.0108
G2 X14.8325 Y79.5467 Z-1.4 I0.0063 J-0.0108
G2 X14.8138 Y79.5358 Z-1.4333 I-0.0125 J0.0
G2 Y79.5575 Z-1.4667 I0.0062 J0.0108
G2 X14.8325 Y79.5467 Z-1.5 I0.0063 J-0.0108
G2 X14.8138 Y79.5358 Z-1.5333 I-0.0125 J0.0
G2 Y79.5575 Z-1.5667 I0.0062 J0.0108
G2 X14.8325 Y79.5467 Z-1.6 I0.0063 J-0.0108
G2 X14.8138 Y79.5358 Z-1.6333 I-0.0125 J0.0
G2 Y79.5575 Z-1.6667 I0.0062 J0.0108
G2 X14.8325 Y79.5467 Z-1.7 I0.0063 J-0.0108
G2 X14.8138 Y79.5358 Z-1.7333 I-0.0125 J0.0
G2 Y79.5575 Z-1.7667 I0.0062 J0.0108
G2 X14.8325 Y79.5467 Z-1.8 I0.0063 J-0.0108
G2 X14.8138 Y79.5358 Z-1.8333 I-0.0125 J0.0
G2 Y79.5575 Z-1.8667 I0.0062 J0.0108
G2 X14.8325 Y79.5467 Z-1.9 I0.0063 J-0.0108
G2 X14.8138 Y79.5358 Z-1.9333 I-0.0125 J0.0
G2 Y79.5575 Z-1.9667 I0.0062 J0.0108
G2 X14.8325 Y79.5467 Z-2.0 I0.0063 J-0.0108
G2 X14.8138 Y79.5358 Z-2.0333 I-0.0125 J0.0
G2 Y79.5575 Z-2.0667 I0.0062 J0.0108
G2 X14.8325 Y79.5467 Z-2.1 I0.0063 J-0.0108
G2 X14.8138 Y79.5358 Z-2.1333 I-0.0125 J0.0
G2 Y79.5575 Z-2.1667 I0.0062 J0.0108
G2 X14.8325 Y79.5467 Z-2.2 I0.0063 J-0.0108
G2 X14.8138 Y79.5358 Z-2.2333 I-0.0125 J0.0
G2 Y79.5575 Z-2.2667 I0.0062 J0.0108
G2 X14.8325 Y79.5467 Z-2.3 I0.0063 J-0.0108
G2 X14.8138 Y79.5358 Z-2.3333 I-0.0125 J0.0
G2 Y79.5575 Z-2.3667 I0.0062 J0.0108
G2 X14.8325 Y79.5467 Z-2.4 I0.0063 J-0.0108
G2 X14.8138 Y79.5358 Z-2.4333 I-0.0125 J0.0
G2 Y79.5575 Z-2.4667 I0.0062 J0.0108
G2 X14.8325 Y79.5467 Z-2.5 I0.0063 J-0.0108
G2 X14.8138 Y79.5358 Z-2.5333 I-0.0125 J0.0
G2 Y79.5575 Z-2.5667 I0.0062 J0.0108
G2 X14.8325 Y79.5467 Z-2.6 I0.0063 J-0.0108
G2 X14.8138 Y79.5358 Z-2.6333 I-0.0125 J0.0
G2 Y79.5575 Z-2.6667 I0.0062 J0.0108
G2 X14.8325 Y79.5467 Z-2.7 I0.0063 J-0.0108
G2 X14.8138 Y79.5358 Z-2.7333 I-0.0125 J0.0
G2 Y79.5575 Z-2.7667 I0.0062 J0.0108
G2 X14.8325 Y79.5467 Z-2.8 I0.0063 J-0.0108
G2 X14.8138 Y79.5358 Z-2.8333 I-0.0125 J0.0
G2 Y79.5575 Z-2.8667 I0.0062 J0.0108
G2 X14.8325 Y79.5467 Z-2.9 I0.0063 J-0.0108
G2 X14.8138 Y79.5358 Z-2.9333 I-0.0125 J0.0
G2 Y79.5575 Z-2.9667 I0.0062 J0.0108
G2 X14.8325 Y79.5467 Z-3.0 I0.0063 J-0.0108
G2 X14.8138 Y79.5358 Z-3.0333 I-0.0125 J0.0
G2 Y79.5575 Z-3.0667 I0.0062 J0.0108
G2 X14.8325 Y79.5467 Z-3.1 I0.0063 J-0.0108
G2 X14.8138 Y79.5358 Z-3.1333 I-0.0125 J0.0
G2 Y79.5575 Z-3.1667 I0.0063 J0.0108
G2 X14.8325 Y79.5467 Z-3.2 I0.0062 J-0.0108
G2 X14.8138 Y79.5358 I-0.0125 J0.0
G2 Y79.5575 I0.0063 J0.0108
G2 X14.8325 Y79.5467 I0.0062 J-0.0108
G0 Z3.0
G0 Y73.2133
G0 Z0.01
G1 F1000.0 Z0.0
G2 F2000.0 X14.8138 Y73.2025 Z-0.0333 I-0.0125 J0.0
G2 Y73.2242 Z-0.0667 I0.0062 J0.0108
G2 X14.8325 Y73.2133 Z-0.1 I0.0063 J-0.0108
G2 X14.8138 Y73.2025 Z-0.1333 I-0.0125 J0.0
G2 Y73.2242 Z-0.1667 I0.0062 J0.0108
G2 X14.8325 Y73.2133 Z-0.2 I0.0063 J-0.0108
G2 X14.8138 Y73.2025 Z-0.2333 I-0.0125 J0.0
G2 Y73.2242 Z-0.2667 I0.0062 J0.0108
G2 X14.8325 Y73.2133 Z-0.3 I0.0063 J-0.0108
G2 X14.8138 Y73.2025 Z-0.3333 I-0.0125 J0.0
G2 Y73.2242 Z-0.3667 I0.0062 J0.0108
G2 X14.8325 Y73.2133 Z-0.4 I0.0063 J-0.0108
G2 X14.8138 Y73.2025 Z-0.4333 I-0.0125 J0.0
G2 Y73.2242 Z-0.4667 I0.0062 J0.0108
G2 X14.8325 Y73.2133 Z-0.5 I0.0063 J-0.0108
G2 X14.8138 Y73.2025 Z-0.5333 I-0.0125 J0.0
G2 Y73.2242 Z-0.5667 I0.0062 J0.0108
G2 X14.8325 Y73.2133 Z-0.6 I0.0063 J-0.0108
G2 X14.8138 Y73.2025 Z-0.6333 I-0.0125 J0.0
G2 Y73.2242 Z-0.6667 I0.0062 J0.0108
G2 X14.8325 Y73.2133 Z-0.7 I0.0063 J-0.0108
G2 X14.8138 Y73.2025 Z-0.7333 I-0.0125 J0.0
G2 Y73.2242 Z-0.7667 I0.0062 J0.0108
G2 X14.8325 Y73.2133 Z-0.8 I0.0063 J-0.0108
G2 X14.8138 Y73.2025 Z-0.8333 I-0.0125 J0.0
G2 Y73.2242 Z-0.8667 I0.0062 J0.0108
G2 X14.8325 Y73.2133 Z-0.9 I0.0063 J-0.0108
G2 X14.8138 Y73.2025 Z-0.9333 I-0.0125 J0.0
G2 Y73.2242 Z-0.9667 I0.0062 J0.0108
G2 X14.8325 Y73.2133 Z-1.0 I0.0063 J-0.0108
G2 X14.8138 Y73.2025 Z-1.0333 I-0.0125 J0.0
G2 Y73.2242 Z-1.0667 I0.0062 J0.0108
G2 X14.8325 Y73.2133 Z-1.1 I0.0063 J-0.0108
G2 X14.8138 Y73.2025 Z-1.1333 I-0.0125 J0.0
G2 Y73.2242 Z-1.1667 I0.0062 J0.0108
G2 X14.8325 Y73.2133 Z-1.2 I0.0063 J-0.0108
G2 X14.8138 Y73.2025 Z-1.2333 I-0.0125 J0.0
G2 Y73.2242 Z-1.2667 I0.0062 J0.0108
G2 X14.8325 Y73.2133 Z-1.3 I0.0063 J-0.0108
G2 X14.8138 Y73.2025 Z-1.3333 I-0.0125 J0.0
G2 Y73.2242 Z-1.3667 I0.0062 J0.0108
G2 X14.8325 Y73.2133 Z-1.4 I0.0063 J-0.0108
G2 X14.8138 Y73.2025 Z-1.4333 I-0.0125 J0.0
G2 Y73.2242 Z-1.4667 I0.0062 J0.0108
G2 X14.8325 Y73.2133 Z-1.5 I0.0063 J-0.0108
G2 X14.8138 Y73.2025 Z-1.5333 I-0.0125 J0.0
G2 Y73.2242 Z-1.5667 I0.0062 J0.0108
G2 X14.8325 Y73.2133 Z-1.6 I0.0063 J-0.0108
G2 X14.8138 Y73.2025 Z-1.6333 I-0.0125 J0.0
G2 Y73.2242 Z-1.6667 I0.0062 J0.0108
G2 X14.8325 Y73.2133 Z-1.7 I0.0063 J-0.0108
G2 X14.8138 Y73.2025 Z-1.7333 I-0.0125 J0.0
G2 Y73.2242 Z-1.7667 I0.0062 J0.0108
G2 X14.8325 Y73.2133 Z-1.8 I0.0063 J-0.0108
G2 X14.8138 Y73.2025 Z-1.8333 I-0.0125 J0.0
G2 Y73.2242 Z-1.8667 I0.0062 J0.0108
G2 X14.8325 Y73.2133 Z-1.9 I0.0063 J-0.0108
G2 X14.8138 Y73.2025 Z-1.9333 I-0.0125 J0.0
G2 Y73.2242 Z-1.9667 I0.0062 J0.0108
G2 X14.8325 Y73.2133 Z-2.0 I0.0063 J-0.0108
G2 X14.8138 Y73.2025 Z-2.0333 I-0.0125 J0.0
G2 Y73.2242 Z-2.0667 I0.0062 J0.0108
G2 X14.8325 Y73.2133 Z-2.1 I0.0063 J-0.0108
G2 X14.8138 Y73.2025 Z-2.1333 I-0.0125 J0.0
G2 Y73.2242 Z-2.1667 I0.0062 J0.0108
G2 X14.8325 Y73.2133 Z-2.2 I0.0063 J-0.0108
G2 X14.8138 Y73.2025 Z-2.2333 I-0.0125 J0.0
G2 Y73.2242 Z-2.2667 I0.0062 J0.0108
G2 X14.8325 Y73.2133 Z-2.3 I0.0063 J-0.0108
G2 X14.8138 Y73.2025 Z-2.3333 I-0.0125 J0.0
G2 Y73.2242 Z-2.3667 I0.0062 J0.0108
G2 X14.8325 Y73.2133 Z-2.4 I0.0063 J-0.0108
G2 X14.8138 Y73.2025 Z-2.4333 I-0.0125 J0.0
G2 Y73.2242 Z-2.4667 I0.0062 J0.0108
G2 X14.8325 Y73.2133 Z-2.5 I0.0063 J-0.0108
G2 X14.8138 Y73.2025 Z-2.5333 I-0.0125 J0.0
G2 Y73.2242 Z-2.5667 I0.0062 J0.0108
G2 X14.8325 Y73.2133 Z-2.6 I0.0063 J-0.0108
G2 X14.8138 Y73.2025 Z-2.6333 I-0.0125 J0.0
G2 Y73.2242 Z-2.6667 I0.0062 J0.0108
G2 X14.8325 Y73.2133 Z-2.7 I0.0063 J-0.0108
G2 X14.8138 Y73.2025 Z-2.7333 I-0.0125 J0.0
G2 Y73.2242 Z-2.7667 I0.0062 J0.0108
G2 X14.8325 Y73.2133 Z-2.8 I0.0063 J-0.0108
G2 X14.8138 Y73.2025 Z-2.8333 I-0.0125 J0.0
G2 Y73.2242 Z-2.8667 I0.0062 J0.0108
G2 X14.8325 Y73.2133 Z-2.9 I0.0063 J-0.0108
G2 X14.8138 Y73.2025 Z-2.9333 I-0.0125 J0.0
G2 Y73.2242 Z-2.9667 I0.0062 J0.0108
G2 X14.8325 Y73.2133 Z-3.0 I0.0063 J-0.0108
G2 X14.8138 Y73.2025 Z-3.0333 I-0.0125 J0.0
G2 Y73.2242 Z-3.0667 I0.0062 J0.0108
G2 X14.8325 Y73.2133 Z-3.1 I0.0063 J-0.0108
G2 X14.8138 Y73.2025 Z-3.1333 I-0.0125 J0.0
G2 Y73.2242 Z-3.1667 I0.0063 J0.0108
G2 X14.8325 Y73.2133 Z-3.2 I0.0062 J-0.0108
G2 X14.8138 Y73.2025 I-0.0125 J0.0
G2 Y73.2242 I0.0063 J0.0108
G2 X14.8325 Y73.2133 I0.0062 J-0.0108
G0 Z3.0
G0 Y66.88
G0 Z0.01
G1 F1000.0 Z0.0
G2 F2000.0 X14.8138 Y66.8692 Z-0.0333 I-0.0125 J0.0
G2 Y66.8908 Z-0.0667 I0.0062 J0.0108
G2 X14.8325 Y66.88 Z-0.1 I0.0063 J-0.0108
G2 X14.8138 Y66.8692 Z-0.1333 I-0.0125 J0.0
G2 Y66.8908 Z-0.1667 I0.0062 J0.0108
G2 X14.8325 Y66.88 Z-0.2 I0.0063 J-0.0108
G2 X14.8138 Y66.8692 Z-0.2333 I-0.0125 J0.0
G2 Y66.8908 Z-0.2667 I0.0062 J0.0108
G2 X14.8325 Y66.88 Z-0.3 I0.0063 J-0.0108
G2 X14.8138 Y66.8692 Z-0.3333 I-0.0125 J0.0
G2 Y66.8908 Z-0.3667 I0.0062 J0.0108
G2 X14.8325 Y66.88 Z-0.4 I0.0063 J-0.0108
G2 X14.8138 Y66.8692 Z-0.4333 I-0.0125 J0.0
G2 Y66.8908 Z-0.4667 I0.0062 J0.0108
G2 X14.8325 Y66.88 Z-0.5 I0.0063 J-0.0108
G2 X14.8138 Y66.8692 Z-0.5333 I-0.0125 J0.0
G2 Y66.8908 Z-0.5667 I0.0062 J0.0108
G2 X14.8325 Y66.88 Z-0.6 I0.0063 J-0.0108
G2 X14.8138 Y66.8692 Z-0.6333 I-0.0125 J0.0
G2 Y66.8908 Z-0.6667 I0.0062 J0.0108
G2 X14.8325 Y66.88 Z-0.7 I0.0063 J-0.0108
G2 X14.8138 Y66.8692 Z-0.7333 I-0.0125 J0.0
G2 Y66.8908 Z-0.7667 I0.0062 J0.0108
G2 X14.8325 Y66.88 Z-0.8 I0.0063 J-0.0108
G2 X14.8138 Y66.8692 Z-0.8333 I-0.0125 J0.0
G2 Y66.8908 Z-0.8667 I0.0062 J0.0108
G2 X14.8325 Y66.88 Z-0.9 I0.0063 J-0.0108
G2 X14.8138 Y66.8692 Z-0.9333 I-0.0125 J0.0
G2 Y66.8908 Z-0.9667 I0.0062 J0.0108
G2 X14.8325 Y66.88 Z-1.0 I0.0063 J-0.0108
G2 X14.8138 Y66.8692 Z-1.0333 I-0.0125 J0.0
G2 Y66.8908 Z-1.0667 I0.0062 J0.0108
G2 X14.8325 Y66.88 Z-1.1 I0.0063 J-0.0108
G2 X14.8138 Y66.8692 Z-1.1333 I-0.0125 J0.0
G2 Y66.8908 Z-1.1667 I0.0062 J0.0108
G2 X14.8325 Y66.88 Z-1.2 I0.0063 J-0.0108
G2 X14.8138 Y66.8692 Z-1.2333 I-0.0125 J0.0
G2 Y66.8908 Z-1.2667 I0.0062 J0.0108
G2 X14.8325 Y66.88 Z-1.3 I0.0063 J-0.0108
G2 X14.8138 Y66.8692 Z-1.3333 I-0.0125 J0.0
G2 Y66.8908 Z-1.3667 I0.0062 J0.0108
G2 X14.8325 Y66.88 Z-1.4 I0.0063 J-0.0108
G2 X14.8138 Y66.8692 Z-1.4333 I-0.0125 J0.0
G2 Y66.8908 Z-1.4667 I0.0062 J0.0108
G2 X14.8325 Y66.88 Z-1.5 I0.0063 J-0.0108
G2 X14.8138 Y66.8692 Z-1.5333 I-0.0125 J0.0
G2 Y66.8908 Z-1.5667 I0.0062 J0.0108
G2 X14.8325 Y66.88 Z-1.6 I0.0063 J-0.0108
G2 X14.8138 Y66.8692 Z-1.6333 I-0.0125 J0.0
G2 Y66.8908 Z-1.6667 I0.0062 J0.0108
G2 X14.8325 Y66.88 Z-1.7 I0.0063 J-0.0108
G2 X14.8138 Y66.8692 Z-1.7333 I-0.0125 J0.0
G2 Y66.8908 Z-1.7667 I0.0062 J0.0108
G2 X14.8325 Y66.88 Z-1.8 I0.0063 J-0.0108
G2 X14.8138 Y66.8692 Z-1.8333 I-0.0125 J0.0
G2 Y66.8908 Z-1.8667 I0.0062 J0.0108
G2 X14.8325 Y66.88 Z-1.9 I0.0063 J-0.0108
G2 X14.8138 Y66.8692 Z-1.9333 I-0.0125 J0.0
G2 Y66.8908 Z-1.9667 I0.0062 J0.0108
G2 X14.8325 Y66.88 Z-2.0 I0.0063 J-0.0108
G2 X14.8138 Y66.8692 Z-2.0333 I-0.0125 J0.0
G2 Y66.8908 Z-2.0667 I0.0062 J0.0108
G2 X14.8325 Y66.88 Z-2.1 I0.0063 J-0.0108
G2 X14.8138 Y66.8692 Z-2.1333 I-0.0125 J0.0
G2 Y66.8908 Z-2.1667 I0.0062 J0.0108
G2 X14.8325 Y66.88 Z-2.2 I0.0063 J-0.0108
G2 X14.8138 Y66.8692 Z-2.2333 I-0.0125 J0.0
G2 Y66.8908 Z-2.2667 I0.0062 J0.0108
G2 X14.8325 Y66.88 Z-2.3 I0.0063 J-0.0108
G2 X14.8138 Y66.8692 Z-2.3333 I-0.0125 J0.0
G2 Y66.8908 Z-2.3667 I0.0062 J0.0108
G2 X14.8325 Y66.88 Z-2.4 I0.0063 J-0.0108
G2 X14.8138 Y66.8692 Z-2.4333 I-0.0125 J0.0
G2 Y66.8908 Z-2.4667 I0.0062 J0.0108
G2 X14.8325 Y66.88 Z-2.5 I0.0063 J-0.0108
G2 X14.8138 Y66.8692 Z-2.5333 I-0.0125 J0.0
G2 Y66.8908 Z-2.5667 I0.0062 J0.0108
G2 X14.8325 Y66.88 Z-2.6 I0.0063 J-0.0108
G2 X14.8138 Y66.8692 Z-2.6333 I-0.0125 J0.0
G2 Y66.8908 Z-2.6667 I0.0062 J0.0108
G2 X14.8325 Y66.88 Z-2.7 I0.0063 J-0.0108
G2 X14.8138 Y66.8692 Z-2.7333 I-0.0125 J0.0
G2 Y66.8908 Z-2.7667 I0.0062 J0.0108
G2 X14.8325 Y66.88 Z-2.8 I0.0063 J-0.0108
G2 X14.8138 Y66.8692 Z-2.8333 I-0.0125 J0.0
G2 Y66.8908 Z-2.8667 I0.0062 J0.0108
G2 X14.8325 Y66.88 Z-2.9 I0.0063 J-0.0108
G2 X14.8138 Y66.8692 Z-2.9333 I-0.0125 J0.0
G2 Y66.8908 Z-2.9667 I0.0062 J0.0108
G2 X14.8325 Y66.88 Z-3.0 I0.0063 J-0.0108
G2 X14.8138 Y66.8692 Z-3.0333 I-0.0125 J0.0
G2 Y66.8908 Z-3.0667 I0.0062 J0.0108
G2 X14.8325 Y66.88 Z-3.1 I0.0063 J-0.0108
G2 X14.8138 Y66.8692 Z-3.1333 I-0.0125 J0.0
G2 Y66.8908 Z-3.1667 I0.0063 J0.0108
G2 X14.8325 Y66.88 Z-3.2 I0.0062 J-0.0108
G2 X14.8138 Y66.8692 I-0.0125 J0.0
G2 Y66.8908 I0.0063 J0.0108
G2 X14.8325 Y66.88 I0.0062 J-0.0108
G0 Z3.0
G0 Y60.5467
G0 Z0.01
G1 F1000.0 Z0.0
G2 F2000.0 X14.8138 Y60.5358 Z-0.0333 I-0.0125 J0.0
G2 Y60.5575 Z-0.0667 I0.0063 J0.0108
G2 X14.8325 Y60.5467 Z-0.1 I0.0062 J-0.0108
G2 X14.8138 Y60.5358 Z-0.1333 I-0.0125 J0.0
G2 Y60.5575 Z-0.1667 I0.0063 J0.0108
G2 X14.8325 Y60.5467 Z-0.2 I0.0062 J-0.0108
G2 X14.8138 Y60.5358 Z-0.2333 I-0.0125 J0.0
G2 Y60.5575 Z-0.2667 I0.0063 J0.0108
G2 X14.8325 Y60.5467 Z-0.3 I0.0062 J-0.0108
G2 X14.8138 Y60.5358 Z-0.3333 I-0.0125 J0.0
G2 Y60.5575 Z-0.3667 I0.0063 J0.0108
G2 X14.8325 Y60.5467 Z-0.4 I0.0062 J-0.0108
G2 X14.8138 Y60.5358 Z-0.4333 I-0.0125 J0.0
G2 Y60.5575 Z-0.4667 I0.0063 J0.0108
G2 X14.8325 Y60.5467 Z-0.5 I0.0062 J-0.0108
G2 X14.8138 Y60.5358 Z-0.5333 I-0.0125 J0.0
G2 Y60.5575 Z-0.5667 I0.0063 J0.0108
G2 X14.8325 Y60.5467 Z-0.6 I0.0062 J-0.0108
G2 X14.8138 Y60.5358 Z-0.6333 I-0.0125 J0.0
G2 Y60.5575 Z-0.6667 I0.0063 J0.0108
G2 X14.8325 Y60.5467 Z-0.7 I0.0062 J-0.0108
G2 X14.8138 Y60.5358 Z-0.7333 I-0.0125 J0.0
G2 Y60.5575 Z-0.7667 I0.0063 J0.0108
G2 X14.8325 Y60.5467 Z-0.8 I0.0062 J-0.0108
G2 X14.8138 Y60.5358 Z-0.8333 I-0.0125 J0.0
G2 Y60.5575 Z-0.8667 I0.0063 J0.0108
G2 X14.8325 Y60.5467 Z-0.9 I0.0062 J-0.0108
G2 X14.8138 Y60.5358 Z-0.9333 I-0.0125 J0.0
G2 Y60.5575 Z-0.9667 I0.0063 J0.0108
G2 X14.8325 Y60.5467 Z-1.0 I0.0062 J-0.0108
G2 X14.8138 Y60.5358 Z-1.0333 I-0.0125 J0.0
G2 Y60.5575 Z-1.0667 I0.0063 J0.0108
G2 X14.8325 Y60.5467 Z-1.1 I0.0062 J-0.0108
G2 X14.8138 Y60.5358 Z-1.1333 I-0.0125 J0.0
G2 Y60.5575 Z-1.1667 I0.0063 J0.0108
G2 X14.8325 Y60.5467 Z-1.2 I0.0062 J-0.0108
G2 X14.8138 Y60.5358 Z-1.2333 I-0.0125 J0.0
G2 Y60.5575 Z-1.2667 I0.0063 J0.0108
G2 X14.8325 Y60.5467 Z-1.3 I0.0062 J-0.0108
G2 X14.8138 Y60.5358 Z-1.3333 I-0.0125 J0.0
G2 Y60.5575 Z-1.3667 I0.0063 J0.0108
G2 X14.8325 Y60.5467 Z-1.4 I0.0062 J-0.0108
G2 X14.8138 Y60.5358 Z-1.4333 I-0.0125 J0.0
G2 Y60.5575 Z-1.4667 I0.0063 J0.0108
G2 X14.8325 Y60.5467 Z-1.5 I0.0062 J-0.0108
G2 X14.8138 Y60.5358 Z-1.5333 I-0.0125 J0.0
G2 Y60.5575 Z-1.5667 I0.0063 J0.0108
G2 X14.8325 Y60.5467 Z-1.6 I0.0062 J-0.0108
G2 X14.8138 Y60.5358 Z-1.6333 I-0.0125 J0.0
G2 Y60.5575 Z-1.6667 I0.0063 J0.0108
G2 X14.8325 Y60.5467 Z-1.7 I0.0062 J-0.0108
G2 X14.8138 Y60.5358 Z-1.7333 I-0.0125 J0.0
G2 Y60.5575 Z-1.7667 I0.0063 J0.0108
G2 X14.8325 Y60.5467 Z-1.8 I0.0062 J-0.0108
G2 X14.8138 Y60.5358 Z-1.8333 I-0.0125 J0.0
G2 Y60.5575 Z-1.8667 I0.0063 J0.0108
G2 X14.8325 Y60.5467 Z-1.9 I0.0062 J-0.0108
G2 X14.8138 Y60.5358 Z-1.9333 I-0.0125 J0.0
G2 Y60.5575 Z-1.9667 I0.0063 J0.0108
G2 X14.8325 Y60.5467 Z-2.0 I0.0062 J-0.0108
G2 X14.8138 Y60.5358 Z-2.0333 I-0.0125 J0.0
G2 Y60.5575 Z-2.0667 I0.0063 J0.0108
G2 X14.8325 Y60.5467 Z-2.1 I0.0062 J-0.0108
G2 X14.8138 Y60.5358 Z-2.1333 I-0.0125 J0.0
G2 Y60.5575 Z-2.1667 I0.0063 J0.0108
G2 X14.8325 Y60.5467 Z-2.2 I0.0062 J-0.0108
G2 X14.8138 Y60.5358 Z-2.2333 I-0.0125 J0.0
G2 Y60.5575 Z-2.2667 I0.0063 J0.0108
G2 X14.8325 Y60.5467 Z-2.3 I0.0062 J-0.0108
G2 X14.8138 Y60.5358 Z-2.3333 I-0.0125 J0.0
G2 Y60.5575 Z-2.3667 I0.0063 J0.0108
G2 X14.8325 Y60.5467 Z-2.4 I0.0062 J-0.0108
G2 X14.8138 Y60.5358 Z-2.4333 I-0.0125 J0.0
G2 Y60.5575 Z-2.4667 I0.0063 J0.0108
G2 X14.8325 Y60.5467 Z-2.5 I0.0062 J-0.0108
G2 X14.8138 Y60.5358 Z-2.5333 I-0.0125 J0.0
G2 Y60.5575 Z-2.5667 I0.0063 J0.0108
G2 X14.8325 Y60.5467 Z-2.6 I0.0062 J-0.0108
G2 X14.8138 Y60.5358 Z-2.6333 I-0.0125 J0.0
G2 Y60.5575 Z-2.6667 I0.0063 J0.0108
G2 X14.8325 Y60.5467 Z-2.7 I0.0062 J-0.0108
G2 X14.8138 Y60.5358 Z-2.7333 I-0.0125 J0.0
G2 Y60.5575 Z-2.7667 I0.0063 J0.0108
G2 X14.8325 Y60.5467 Z-2.8 I0.0062 J-0.0108
G2 X14.8138 Y60.5358 Z-2.8333 I-0.0125 J0.0
G2 Y60.5575 Z-2.8667 I0.0063 J0.0108
G2 X14.8325 Y60.5467 Z-2.9 I0.0062 J-0.0108
G2 X14.8138 Y60.5358 Z-2.9333 I-0.0125 J0.0
G2 Y60.5575 Z-2.9667 I0.0063 J0.0108
G2 X14.8325 Y60.5467 Z-3.0 I0.0062 J-0.0108
G2 X14.8138 Y60.5358 Z-3.0333 I-0.0125 J0.0
G2 Y60.5575 Z-3.0667 I0.0063 J0.0108
G2 X14.8325 Y60.5467 Z-3.1 I0.0062 J-0.0108
G2 X14.8138 Y60.5358 Z-3.1333 I-0.0125 J0.0
G2 Y60.5575 Z-3.1667 I0.0063 J0.0108
G2 X14.8325 Y60.5467 Z-3.2 I0.0062 J-0.0108
G2 X14.8138 Y60.5358 I-0.0125 J0.0
G2 Y60.5575 I0.0063 J0.0108
G2 X14.8325 Y60.5467 I0.0062 J-0.0108
G0 Z3.0
G0 Y54.2133
G0 Z0.01
G1 F1000.0 Z0.0
G2 F2000.0 X14.8138 Y54.2025 Z-0.0333 I-0.0125 J0.0
G2 Y54.2242 Z-0.0667 I0.0063 J0.0108
G2 X14.8325 Y54.2133 Z-0.1 I0.0062 J-0.0108
G2 X14.8138 Y54.2025 Z-0.1333 I-0.0125 J0.0
G2 Y54.2242 Z-0.1667 I0.0063 J0.0108
G2 X14.8325 Y54.2133 Z-0.2 I0.0062 J-0.0108
G2 X14.8138 Y54.2025 Z-0.2333 I-0.0125 J0.0
G2 Y54.2242 Z-0.2667 I0.0063 J0.0108
G2 X14.8325 Y54.2133 Z-0.3 I0.0062 J-0.0108
G2 X14.8138 Y54.2025 Z-0.3333 I-0.0125 J0.0
G2 Y54.2242 Z-0.3667 I0.0063 J0.0108
G2 X14.8325 Y54.2133 Z-0.4 I0.0062 J-0.0108
G2 X14.8138 Y54.2025 Z-0.4333 I-0.0125 J0.0
G2 Y54.2242 Z-0.4667 I0.0063 J0.0108
G2 X14.8325 Y54.2133 Z-0.5 I0.0062 J-0.0108
G2 X14.8138 Y54.2025 Z-0.5333 I-0.0125 J0.0
G2 Y54.2242 Z-0.5667 I0.0063 J0.0108
G2 X14.8325 Y54.2133 Z-0.6 I0.0062 J-0.0108
G2 X14.8138 Y54.2025 Z-0.6333 I-0.0125 J0.0
G2 Y54.2242 Z-0.6667 I0.0063 J0.0108
G2 X14.8325 Y54.2133 Z-0.7 I0.0062 J-0.0108
G2 X14.8138 Y54.2025 Z-0.7333 I-0.0125 J0.0
G2 Y54.2242 Z-0.7667 I0.0063 J0.0108
G2 X14.8325 Y54.2133 Z-0.8 I0.0062 J-0.0108
G2 X14.8138 Y54.2025 Z-0.8333 I-0.0125 J0.0
G2 Y54.2242 Z-0.8667 I0.0063 J0.0108
G2 X14.8325 Y54.2133 Z-0.9 I0.0062 J-0.0108
G2 X14.8138 Y54.2025 Z-0.9333 I-0.0125 J0.0
G2 Y54.2242 Z-0.9667 I0.0063 J0.0108
G2 X14.8325 Y54.2133 Z-1.0 I0.0062 J-0.0108
G2 X14.8138 Y54.2025 Z-1.0333 I-0.0125 J0.0
G2 Y54.2242 Z-1.0667 I0.0063 J0.0108
G2 X14.8325 Y54.2133 Z-1.1 I0.0062 J-0.0108
G2 X14.8138 Y54.2025 Z-1.1333 I-0.0125 J0.0
G2 Y54.2242 Z-1.1667 I0.0063 J0.0108
G2 X14.8325 Y54.2133 Z-1.2 I0.0062 J-0.0108
G2 X14.8138 Y54.2025 Z-1.2333 I-0.0125 J0.0
G2 Y54.2242 Z-1.2667 I0.0063 J0.0108
G2 X14.8325 Y54.2133 Z-1.3 I0.0062 J-0.0108
G2 X14.8138 Y54.2025 Z-1.3333 I-0.0125 J0.0
G2 Y54.2242 Z-1.3667 I0.0063 J0.0108
G2 X14.8325 Y54.2133 Z-1.4 I0.0062 J-0.0108
G2 X14.8138 Y54.2025 Z-1.4333 I-0.0125 J0.0
G2 Y54.2242 Z-1.4667 I0.0063 J0.0108
G2 X14.8325 Y54.2133 Z-1.5 I0.0062 J-0.0108
G2 X14.8138 Y54.2025 Z-1.5333 I-0.0125 J0.0
G2 Y54.2242 Z-1.5667 I0.0063 J0.0108
G2 X14.8325 Y54.2133 Z-1.6 I0.0062 J-0.0108
G2 X14.8138 Y54.2025 Z-1.6333 I-0.0125 J0.0
G2 Y54.2242 Z-1.6667 I0.0063 J0.0108
G2 X14.8325 Y54.2133 Z-1.7 I0.0062 J-0.0108
G2 X14.8138 Y54.2025 Z-1.7333 I-0.0125 J0.0
G2 Y54.2242 Z-1.7667 I0.0063 J0.0108
G2 X14.8325 Y54.2133 Z-1.8 I0.0062 J-0.0108
G2 X14.8138 Y54.2025 Z-1.8333 I-0.0125 J0.0
G2 Y54.2242 Z-1.8667 I0.0063 J0.0108
G2 X14.8325 Y54.2133 Z-1.9 I0.0062 J-0.0108
G2 X14.8138 Y54.2025 Z-1.9333 I-0.0125 J0.0
G2 Y54.2242 Z-1.9667 I0.0063 J0.0108
G2 X14.8325 Y54.2133 Z-2.0 I0.0062 J-0.0108
G2 X14.8138 Y54.2025 Z-2.0333 I-0.0125 J0.0
G2 Y54.2242 Z-2.0667 I0.0063 J0.0108
G2 X14.8325 Y54.2133 Z-2.1 I0.0062 J-0.0108
G2 X14.8138 Y54.2025 Z-2.1333 I-0.0125 J0.0
G2 Y54.2242 Z-2.1667 I0.0063 J0.0108
G2 X14.8325 Y54.2133 Z-2.2 I0.0062 J-0.0108
G2 X14.8138 Y54.2025 Z-2.2333 I-0.0125 J0.0
G2 Y54.2242 Z-2.2667 I0.0063 J0.0108
G2 X14.8325 Y54.2133 Z-2.3 I0.0062 J-0.0108
G2 X14.8138 Y54.2025 Z-2.3333 I-0.0125 J0.0
G2 Y54.2242 Z-2.3667 I0.0063 J0.0108
G2 X14.8325 Y54.2133 Z-2.4 I0.0062 J-0.0108
G2 X14.8138 Y54.2025 Z-2.4333 I-0.0125 J0.0
G2 Y54.2242 Z-2.4667 I0.0063 J0.0108
G2 X14.8325 Y54.2133 Z-2.5 I0.0062 J-0.0108
G2 X14.8138 Y54.2025 Z-2.5333 I-0.0125 J0.0
G2 Y54.2242 Z-2.5667 I0.0063 J0.0108
G2 X14.8325 Y54.2133 Z-2.6 I0.0062 J-0.0108
G2 X14.8138 Y54.2025 Z-2.6333 I-0.0125 J0.0
G2 Y54.2242 Z-2.6667 I0.0063 J0.0108
G2 X14.8325 Y54.2133 Z-2.7 I0.0062 J-0.0108
G2 X14.8138 Y54.2025 Z-2.7333 I-0.0125 J0.0
G2 Y54.2242 Z-2.7667 I0.0063 J0.0108
G2 X14.8325 Y54.2133 Z-2.8 I0.0062 J-0.0108
G2 X14.8138 Y54.2025 Z-2.8333 I-0.0125 J0.0
G2 Y54.2242 Z-2.8667 I0.0063 J0.0108
G2 X14.8325 Y54.2133 Z-2.9 I0.0062 J-0.0108
G2 X14.8138 Y54.2025 Z-2.9333 I-0.0125 J0.0
G2 Y54.2242 Z-2.9667 I0.0063 J0.0108
G2 X14.8325 Y54.2133 Z-3.0 I0.0062 J-0.0108
G2 X14.8138 Y54.2025 Z-3.0333 I-0.0125 J0.0
G2 Y54.2242 Z-3.0667 I0.0063 J0.0108
G2 X14.8325 Y54.2133 Z-3.1 I0.0062 J-0.0108
G2 X14.8138 Y54.2025 Z-3.1333 I-0.0125 J0.0
G2 Y54.2242 Z-3.1667 I0.0063 J0.0108
G2 X14.8325 Y54.2133 Z-3.2 I0.0062 J-0.0108
G2 X14.8138 Y54.2025 I-0.0125 J0.0
G2 Y54.2242 I0.0063 J0.0108
G2 X14.8325 Y54.2133 I0.0062 J-0.0108
G0 Z3.0
G0 Y47.88
G0 Z0.01
G1 F1000.0 Z0.0
G2 F2000.0 X14.8138 Y47.8692 Z-0.0333 I-0.0125 J0.0
G2 Y47.8908 Z-0.0667 I0.0063 J0.0108
G2 X14.8325 Y47.88 Z-0.1 I0.0062 J-0.0108
G2 X14.8138 Y47.8692 Z-0.1333 I-0.0125 J0.0
G2 Y47.8908 Z-0.1667 I0.0063 J0.0108
G2 X14.8325 Y47.88 Z-0.2 I0.0062 J-0.0108
G2 X14.8138 Y47.8692 Z-0.2333 I-0.0125 J0.0
G2 Y47.8908 Z-0.2667 I0.0063 J0.0108
G2 X14.8325 Y47.88 Z-0.3 I0.0062 J-0.0108
G2 X14.8138 Y47.8692 Z-0.3333 I-0.0125 J0.0
G2 Y47.8908 Z-0.3667 I0.0063 J0.0108
G2 X14.8325 Y47.88 Z-0.4 I0.0062 J-0.0108
G2 X14.8138 Y47.8692 Z-0.4333 I-0.0125 J0.0
G2 Y47.8908 Z-0.4667 I0.0063 J0.0108
G2 X14.8325 Y47.88 Z-0.5 I0.0062 J-0.0108
G2 X14.8138 Y47.8692 Z-0.5333 I-0.0125 J0.0
G2 Y47.8908 Z-0.5667 I0.0063 J0.0108
G2 X14.8325 Y47.88 Z-0.6 I0.0062 J-0.0108
G2 X14.8138 Y47.8692 Z-0.6333 I-0.0125 J0.0
G2 Y47.8908 Z-0.6667 I0.0063 J0.0108
G2 X14.8325 Y47.88 Z-0.7 I0.0062 J-0.0108
G2 X14.8138 Y47.8692 Z-0.7333 I-0.0125 J0.0
G2 Y47.8908 Z-0.7667 I0.0063 J0.0108
G2 X14.8325 Y47.88 Z-0.8 I0.0062 J-0.0108
G2 X14.8138 Y47.8692 Z-0.8333 I-0.0125 J0.0
G2 Y47.8908 Z-0.8667 I0.0063 J0.0108
G2 X14.8325 Y47.88 Z-0.9 I0.0062 J-0.0108
G2 X14.8138 Y47.8692 Z-0.9333 I-0.0125 J0.0
G2 Y47.8908 Z-0.9667 I0.0063 J0.0108
G2 X14.8325 Y47.88 Z-1.0 I0.0062 J-0.0108
G2 X14.8138 Y47.8692 Z-1.0333 I-0.0125 J0.0
G2 Y47.8908 Z-1.0667 I0.0063 J0.0108
G2 X14.8325 Y47.88 Z-1.1 I0.0062 J-0.0108
G2 X14.8138 Y47.8692 Z-1.1333 I-0.0125 J0.0
G2 Y47.8908 Z-1.1667 I0.0063 J0.0108
G2 X14.8325 Y47.88 Z-1.2 I0.0062 J-0.0108
G2 X14.8138 Y47.8692 Z-1.2333 I-0.0125 J0.0
G2 Y47.8908 Z-1.2667 I0.0063 J0.0108
G2 X14.8325 Y47.88 Z-1.3 I0.0062 J-0.0108
G2 X14.8138 Y47.8692 Z-1.3333 I-0.0125 J0.0
G2 Y47.8908 Z-1.3667 I0.0063 J0.0108
G2 X14.8325 Y47.88 Z-1.4 I0.0062 J-0.0108
G2 X14.8138 Y47.8692 Z-1.4333 I-0.0125 J0.0
G2 Y47.8908 Z-1.4667 I0.0063 J0.0108
G2 X14.8325 Y47.88 Z-1.5 I0.0062 J-0.0108
G2 X14.8138 Y47.8692 Z-1.5333 I-0.0125 J0.0
G2 Y47.8908 Z-1.5667 I0.0063 J0.0108
G2 X14.8325 Y47.88 Z-1.6 I0.0062 J-0.0108
G2 X14.8138 Y47.8692 Z-1.6333 I-0.0125 J0.0
G2 Y47.8908 Z-1.6667 I0.0063 J0.0108
G2 X14.8325 Y47.88 Z-1.7 I0.0062 J-0.0108
G2 X14.8138 Y47.8692 Z-1.7333 I-0.0125 J0.0
G2 Y47.8908 Z-1.7667 I0.0063 J0.0108
G2 X14.8325 Y47.88 Z-1.8 I0.0062 J-0.0108
G2 X14.8138 Y47.8692 Z-1.8333 I-0.0125 J0.0
G2 Y47.8908 Z-1.8667 I0.0063 J0.0108
G2 X14.8325 Y47.88 Z-1.9 I0.0062 J-0.0108
G2 X14.8138 Y47.8692 Z-1.9333 I-0.0125 J0.0
G2 Y47.8908 Z-1.9667 I0.0063 J0.0108
G2 X14.8325 Y47.88 Z-2.0 I0.0062 J-0.0108
G2 X14.8138 Y47.8692 Z-2.0333 I-0.0125 J0.0
G2 Y47.8908 Z-2.0667 I0.0063 J0.0108
G2 X14.8325 Y47.88 Z-2.1 I0.0062 J-0.0108
G2 X14.8138 Y47.8692 Z-2.1333 I-0.0125 J0.0
G2 Y47.8908 Z-2.1667 I0.0063 J0.0108
G2 X14.8325 Y47.88 Z-2.2 I0.0062 J-0.0108
G2 X14.8138 Y47.8692 Z-2.2333 I-0.0125 J0.0
G2 Y47.8908 Z-2.2667 I0.0063 J0.0108
G2 X14.8325 Y47.88 Z-2.3 I0.0062 J-0.0108
G2 X14.8138 Y47.8692 Z-2.3333 I-0.0125 J0.0
G2 Y47.8908 Z-2.3667 I0.0063 J0.0108
G2 X14.8325 Y47.88 Z-2.4 I0.0062 J-0.0108
G2 X14.8138 Y47.8692 Z-2.4333 I-0.0125 J0.0
G2 Y47.8908 Z-2.4667 I0.0063 J0.0108
G2 X14.8325 Y47.88 Z-2.5 I0.0062 J-0.0108
G2 X14.8138 Y47.8692 Z-2.5333 I-0.0125 J0.0
G2 Y47.8908 Z-2.5667 I0.0063 J0.0108
G2 X14.8325 Y47.88 Z-2.6 I0.0062 J-0.0108
G2 X14.8138 Y47.8692 Z-2.6333 I-0.0125 J0.0
G2 Y47.8908 Z-2.6667 I0.0063 J0.0108
G2 X14.8325 Y47.88 Z-2.7 I0.0062 J-0.0108
G2 X14.8138 Y47.8692 Z-2.7333 I-0.0125 J0.0
G2 Y47.8908 Z-2.7667 I0.0063 J0.0108
G2 X14.8325 Y47.88 Z-2.8 I0.0062 J-0.0108
G2 X14.8138 Y47.8692 Z-2.8333 I-0.0125 J0.0
G2 Y47.8908 Z-2.8667 I0.0063 J0.0108
G2 X14.8325 Y47.88 Z-2.9 I0.0062 J-0.0108
G2 X14.8138 Y47.8692 Z-2.9333 I-0.0125 J0.0
G2 Y47.8908 Z-2.9667 I0.0063 J0.0108
G2 X14.8325 Y47.88 Z-3.0 I0.0062 J-0.0108
G2 X14.8138 Y47.8692 Z-3.0333 I-0.0125 J0.0
G2 Y47.8908 Z-3.0667 I0.0063 J0.0108
G2 X14.8325 Y47.88 Z-3.1 I0.0062 J-0.0108
G2 X14.8138 Y47.8692 Z-3.1333 I-0.0125 J0.0
G2 Y47.8908 Z-3.1667 I0.0063 J0.0108
G2 X14.8325 Y47.88 Z-3.2 I0.0062 J-0.0108
G2 X14.8138 Y47.8692 I-0.0125 J0.0
G2 Y47.8908 I0.0063 J0.0108
G2 X14.8325 Y47.88 I0.0062 J-0.0108
( pot )
S1000
G0 Z3.0
G0 X14.82 Y36.38
G0 Z3.0
G0 X18.0325 Y36.38
G0 Z0.01
G1 F1000.0 Z0.0
G2 F2000.0 X13.2138 Y33.5979 Z-0.0333 I-3.2125 J0.0
G2 Y39.1621 Z-0.0667 I1.6063 J2.7821
G2 X18.0325 Y36.38 Z-0.1 I1.6063 J-2.7821
G2 X13.2138 Y33.5979 Z-0.1333 I-3.2125 J0.0
G2 Y39.1621 Z-0.1667 I1.6063 J2.7821
G2 X18.0325 Y36.38 Z-0.2 I1.6063 J-2.7821
G2 X13.2138 Y33.5979 Z-0.2333 I-3.2125 J0.0
G2 Y39.1621 Z-0.2667 I1.6062 J2.7821
G2 X18.0325 Y36.38 Z-0.3 I1.6063 J-2.7821
G2 X13.2138 Y33.5979 Z-0.3333 I-3.2125 J0.0
G2 Y39.1621 Z-0.3667 I1.6063 J2.7821
G2 X18.0325 Y36.38 Z-0.4 I1.6063 J-2.7821
G2 X13.2138 Y33.5979 Z-0.4333 I-3.2125 J0.0
G2 Y39.1621 Z-0.4667 I1.6063 J2.7821
G2 X18.0325 Y36.38 Z-0.5 I1.6062 J-2.7821
G2 X13.2138 Y33.5979 Z-0.5333 I-3.2125 J0.0
G2 Y39.1621 Z-0.5667 I1.6063 J2.7821
G2 X18.0325 Y36.38 Z-0.6 I1.6063 J-2.7821
G2 X13.2138 Y33.5979 Z-0.6333 I-3.2125 J0.0
G2 Y39.1621 Z-0.6667 I1.6062 J2.7821
G2 X18.0325 Y36.38 Z-0.7 I1.6063 J-2.7821
G2 X13.2138 Y33.5979 Z-0.7333 I-3.2125 J0.0
G2 Y39.1621 Z-0.7667 I1.6062 J2.7821
G2 X18.0325 Y36.38 Z-0.8 I1.6063 J-2.7821
G2 X13.2138 Y33.5979 Z-0.8333 I-3.2125 J0.0
G2 Y39.1621 Z-0.8667 I1.6062 J2.7821
G2 X18.0325 Y36.38 Z-0.9 I1.6063 J-2.7821
G2 X13.2138 Y33.5979 Z-0.9333 I-3.2125 J0.0
G2 Y39.1621 Z-0.9667 I1.6062 J2.7821
G2 X18.0325 Y36.38 Z-1.0 I1.6063 J-2.7821
G2 X13.2138 Y33.5979 Z-1.0333 I-3.2125 J0.0
G2 Y39.1621 Z-1.0667 I1.6062 J2.7821
G2 X18.0325 Y36.38 Z-1.1 I1.6063 J-2.7821
G2 X13.2138 Y33.5979 Z-1.1333 I-3.2125 J0.0
G2 Y39.1621 Z-1.1667 I1.6062 J2.7821
G2 X18.0325 Y36.38 Z-1.2 I1.6063 J-2.7821
G2 X13.2138 Y33.5979 Z-1.2333 I-3.2125 J0.0
G2 Y39.1621 Z-1.2667 I1.6062 J2.7821
G2 X18.0325 Y36.38 Z-1.3 I1.6063 J-2.7821
G2 X13.2138 Y33.5979 Z-1.3333 I-3.2125 J0.0
G2 Y39.1621 Z-1.3667 I1.6062 J2.7821
G2 X18.0325 Y36.38 Z-1.4 I1.6063 J-2.7821
G2 X13.2138 Y33.5979 Z-1.4333 I-3.2125 J0.0
G2 Y39.1621 Z-1.4667 I1.6062 J2.7821
G2 X18.0325 Y36.38 Z-1.5 I1.6063 J-2.7821
G2 X13.2138 Y33.5979 Z-1.5333 I-3.2125 J0.0
G2 Y39.1621 Z-1.5667 I1.6062 J2.7821
G2 X18.0325 Y36.38 Z-1.6 I1.6063 J-2.7821
G2 X13.2138 Y33.5979 Z-1.6333 I-3.2125 J0.0
G2 Y39.1621 Z-1.6667 I1.6062 J2.7821
G2 X18.0325 Y36.38 Z-1.7 I1.6063 J-2.7821
G2 X13.2138 Y33.5979 Z-1.7333 I-3.2125 J0.0
G2 Y39.1621 Z-1.7667 I1.6062 J2.7821
G2 X18.0325 Y36.38 Z-1.8 I1.6063 J-2.7821
G2 X13.2138 Y33.5979 Z-1.8333 I-3.2125 J0.0
G2 Y39.1621 Z-1.8667 I1.6062 J2.7821
G2 X18.0325 Y36.38 Z-1.9 I1.6063 J-2.7821
G2 X13.2138 Y33.5979 Z-1.9333 I-3.2125 J0.0
G2 Y39.1621 Z-1.9667 I1.6062 J2.7821
G2 X18.0325 Y36.38 Z-2.0 I1.6063 J-2.7821
G2 X13.2138 Y33.5979 Z-2.0333 I-3.2125 J0.0
G2 Y39.1621 Z-2.0667 I1.6062 J2.7821
G2 X18.0325 Y36.38 Z-2.1 I1.6063 J-2.7821
G2 X13.2138 Y33.5979 Z-2.1333 I-3.2125 J0.0
G2 Y39.1621 Z-2.1667 I1.6062 J2.7821
G2 X18.0325 Y36.38 Z-2.2 I1.6063 J-2.7821
G2 X13.2138 Y33.5979 Z-2.2333 I-3.2125 J0.0
G2 Y39.1621 Z-2.2667 I1.6062 J2.7821
G2 X18.0325 Y36.38 Z-2.3 I1.6063 J-2.7821
G2 X13.2138 Y33.5979 Z-2.3333 I-3.2125 J0.0
G2 Y39.1621 Z-2.3667 I1.6063 J2.7821
G2 X18.0325 Y36.38 Z-2.4 I1.6062 J-2.7821
G2 X13.2138 Y33.5979 Z-2.4333 I-3.2125 J0.0
G2 Y39.1621 Z-2.4667 I1.6063 J2.7821
G2 X18.0325 Y36.38 Z-2.5 I1.6062 J-2.7821
G2 X13.2138 Y33.5979 Z-2.5333 I-3.2125 J0.0
G2 Y39.1621 Z-2.5667 I1.6063 J2.7821
G2 X18.0325 Y36.38 Z-2.6 I1.6062 J-2.7821
G2 X13.2138 Y33.5979 Z-2.6333 I-3.2125 J0.0
G2 Y39.1621 Z-2.6667 I1.6063 J2.7821
G2 X18.0325 Y36.38 Z-2.7 I1.6062 J-2.7821
G2 X13.2138 Y33.5979 Z-2.7333 I-3.2125 J0.0
G2 Y39.1621 Z-2.7667 I1.6063 J2.7821
G2 X18.0325 Y36.38 Z-2.8 I1.6062 J-2.7821
G2 X13.2138 Y33.5979 Z-2.8333 I-3.2125 J0.0
G2 Y39.1621 Z-2.8667 I1.6063 J2.7821
G2 X18.0325 Y36.38 Z-2.9 I1.6062 J-2.7821
G2 X13.2138 Y33.5979 Z-2.9333 I-3.2125 J0.0
G2 Y39.1621 Z-2.9667 I1.6063 J2.7821
G2 X18.0325 Y36.38 Z-3.0 I1.6062 J-2.7821
G2 X13.2138 Y33.5979 Z-3.0333 I-3.2125 J0.0
G2 Y39.1621 Z-3.0667 I1.6063 J2.7821
G2 X18.0325 Y36.38 Z-3.1 I1.6062 J-2.7821
G2 X13.2138 Y33.5979 Z-3.1333 I-3.2125 J0.0
G2 Y39.1621 Z-3.1667 I1.6063 J2.7821
G2 X18.0325 Y36.38 Z-3.2 I1.6062 J-2.7821
G2 X13.2137 Y33.5979 I-3.2125 J0.0
G2 X13.2138 Y39.1621 I1.6063 J2.7821
G2 X18.0325 Y36.38 I1.6062 J-2.7821
( output )
S1000
G0 Z3.0
G0 X12.66 Y16.85
G0 Z3.0
G0 X15.8725 Y16.85
G0 Z0.01
G1 F1000.0 Z0.0
G2 F2000.0 X11.0538 Y14.0679 Z-0.0333 I-3.2125 J0.0
G2 Y19.6321 Z-0.0667 I1.6063 J2.7821
G2 X15.8725 Y16.85 Z-0.1 I1.6063 J-2.7821
G2 X11.0538 Y14.0679 Z-0.1333 I-3.2125 J0.0
G2 Y19.6321 Z-0.1667 I1.6063 J2.7821
G2 X15.8725 Y16.85 Z-0.2 I1.6063 J-2.7821
G2 X11.0538 Y14.0679 Z-0.2333 I-3.2125 J0.0
G2 Y19.6321 Z-0.2667 I1.6063 J2.7821
G2 X15.8725 Y16.85 Z-0.3 I1.6063 J-2.7821
G2 X11.0538 Y14.0679 Z-0.3333 I-3.2125 J0.0
G2 Y19.6321 Z-0.3667 I1.6063 J2.7821
G2 X15.8725 Y16.85 Z-0.4 I1.6063 J-2.7821
G2 X11.0538 Y14.0679 Z-0.4333 I-3.2125 J0.0
G2 Y19.6321 Z-0.4667 I1.6063 J2.7821
G2 X15.8725 Y16.85 Z-0.5 I1.6062 J-2.7821
G2 X11.0538 Y14.0679 Z-0.5333 I-3.2125 J0.0
G2 Y19.6321 Z-0.5667 I1.6063 J2.7821
G2 X15.8725 Y16.85 Z-0.6 I1.6063 J-2.7821
G2 X11.0538 Y14.0679 Z-0.6333 I-3.2125 J0.0
G2 Y19.6321 Z-0.6667 I1.6062 J2.7821
G2 X15.8725 Y16.85 Z-0.7 I1.6063 J-2.7821
G2 X11.0538 Y14.0679 Z-0.7333 I-3.2125 J0.0
G2 Y19.6321 Z-0.7667 I1.6062 J2.7821
G2 X15.8725 Y16.85 Z-0.8 I1.6063 J-2.7821
G2 X11.0538 Y14.0679 Z-0.8333 I-3.2125 J0.0
G2 X11.0537 Y19.6321 Z-0.8667 I1.6062 J2.7821
G2 X15.8725 Y16.85 Z-0.9 I1.6063 J-2.7821
G2 X11.0538 Y14.0679 Z-0.9333 I-3.2125 J0.0
G2 X11.0537 Y19.6321 Z-0.9667 I1.6062 J2.7821
G2 X15.8725 Y16.85 Z-1.0 I1.6063 J-2.7821
G2 X11.0538 Y14.0679 Z-1.0333 I-3.2125 J0.0
G2 X11.0537 Y19.6321 Z-1.0667 I1.6062 J2.7821
G2 X15.8725 Y16.85 Z-1.1 I1.6063 J-2.7821
G2 X11.0538 Y14.0679 Z-1.1333 I-3.2125 J0.0
G2 X11.0537 Y19.6321 Z-1.1667 I1.6062 J2.7821
G2 X15.8725 Y16.85 Z-1.2 I1.6063 J-2.7821
G2 X11.0538 Y14.0679 Z-1.2333 I-3.2125 J0.0
G2 X11.0537 Y19.6321 Z-1.2667 I1.6062 J2.7821
G2 X15.8725 Y16.85 Z-1.3 I1.6063 J-2.7821
G2 X11.0538 Y14.0679 Z-1.3333 I-3.2125 J0.0
G2 X11.0537 Y19.6321 Z-1.3667 I1.6062 J2.7821
G2 X15.8725 Y16.85 Z-1.4 I1.6063 J-2.7821
G2 X11.0538 Y14.0679 Z-1.4333 I-3.2125 J0.0
G2 X11.0537 Y19.6321 Z-1.4667 I1.6062 J2.7821
G2 X15.8725 Y16.85 Z-1.5 I1.6063 J-2.7821
G2 X11.0538 Y14.0679 Z-1.5333 I-3.2125 J0.0
G2 X11.0537 Y19.6321 Z-1.5667 I1.6062 J2.7821
G2 X15.8725 Y16.85 Z-1.6 I1.6063 J-2.7821
G2 X11.0538 Y14.0679 Z-1.6333 I-3.2125 J0.0
G2 X11.0537 Y19.6321 Z-1.6667 I1.6062 J2.7821
G2 X15.8725 Y16.85 Z-1.7 I1.6063 J-2.7821
G2 X11.0538 Y14.0679 Z-1.7333 I-3.2125 J0.0
G2 X11.0537 Y19.6321 Z-1.7667 I1.6062 J2.7821
G2 X15.8725 Y16.85 Z-1.8 I1.6063 J-2.7821
G2 X11.0538 Y14.0679 Z-1.8333 I-3.2125 J0.0
G2 X11.0537 Y19.6321 Z-1.8667 I1.6062 J2.7821
G2 X15.8725 Y16.85 Z-1.9 I1.6063 J-2.7821
G2 X11.0538 Y14.0679 Z-1.9333 I-3.2125 J0.0
G2 X11.0537 Y19.6321 Z-1.9667 I1.6062 J2.7821
G2 X15.8725 Y16.85 Z-2.0 I1.6063 J-2.7821
G2 X11.0538 Y14.0679 Z-2.0333 I-3.2125 J0.0
G2 X11.0537 Y19.6321 Z-2.0667 I1.6062 J2.7821
G2 X15.8725 Y16.85 Z-2.1 I1.6063 J-2.7821
G2 X11.0538 Y14.0679 Z-2.1333 I-3.2125 J0.0
G2 X11.0537 Y19.6321 Z-2.1667 I1.6062 J2.7821
G2 X15.8725 Y16.85 Z-2.2 I1.6063 J-2.7821
G2 X11.0538 Y14.0679 Z-2.2333 I-3.2125 J0.0
G2 X11.0537 Y19.6321 Z-2.2667 I1.6062 J2.7821
G2 X15.8725 Y16.85 Z-2.3 I1.6063 J-2.7821
G2 X11.0538 Y14.0679 Z-2.3333 I-3.2125 J0.0
G2 Y19.6321 Z-2.3667 I1.6063 J2.7821
G2 X15.8725 Y16.85 Z-2.4 I1.6062 J-2.7821
G2 X11.0537 Y14.0679 Z-2.4333 I-3.2125 J0.0
G2 X11.0538 Y19.6321 Z-2.4667 I1.6063 J2.7821
G2 X15.8725 Y16.85 Z-2.5 I1.6062 J-2.7821
G2 X11.0537 Y14.0679 Z-2.5333 I-3.2125 J0.0
G2 X11.0538 Y19.6321 Z-2.5667 I1.6063 J2.7821
G2 X15.8725 Y16.85 Z-2.6 I1.6062 J-2.7821
G2 X11.0537 Y14.0679 Z-2.6333 I-3.2125 J0.0
G2 X11.0538 Y19.6321 Z-2.6667 I1.6063 J2.7821
G2 X15.8725 Y16.85 Z-2.7 I1.6062 J-2.7821
G2 X11.0537 Y14.0679 Z-2.7333 I-3.2125 J0.0
G2 X11.0538 Y19.6321 Z-2.7667 I1.6063 J2.7821
G2 X15.8725 Y16.85 Z-2.8 I1.6062 J-2.7821
G2 X11.0537 Y14.0679 Z-2.8333 I-3.2125 J0.0
G2 X11.0538 Y19.6321 Z-2.8667 I1.6063 J2.7821
G2 X15.8725 Y16.85 Z-2.9 I1.6062 J-2.7821
G2 X11.0537 Y14.0679 Z-2.9333 I-3.2125 J0.0
G2 X11.0538 Y19.6321 Z-2.9667 I1.6063 J2.7821
G2 X15.8725 Y16.85 Z-3.0 I1.6062 J-2.7821
G2 X11.0537 Y14.0679 Z-3.0333 I-3.2125 J0.0
G2 X11.0538 Y19.6321 Z-3.0667 I1.6063 J2.7821
G2 X15.8725 Y16.85 Z-3.1 I1.6062 J-2.7821
G2 X11.0537 Y14.0679 Z-3.1333 I-3.2125 J0.0
G2 X11.0538 Y19.6321 Z-3.1667 I1.6063 J2.7821
G2 X15.8725 Y16.85 Z-3.2 I1.6062 J-2.7821
G2 X11.0537 Y14.0679 I-3.2125 J0.0
G2 X11.0538 Y19.6321 I1.6063 J2.7821
G2 X15.8725 Y16.85 I1.6062 J-2.7821
( mounting )
S1000
G0 Z3.0
G0 X17.66 Y3.0
G0 Z3.0
G0 X17.6725 Y3.0
G0 Z0.01
G1 F1000.0 Z0.0
G2 F2000.0 X17.6537 Y2.9892 Z-0.0333 I-0.0125 J0.0
G2 Y3.0108 Z-0.0667 I0.0063 J0.0108
G2 X17.6725 Y3.0 Z-0.1 I0.0063 J-0.0108
G2 X17.6537 Y2.9892 Z-0.1333 I-0.0125 J0.0
G2 Y3.0108 Z-0.1667 I0.0063 J0.0108
G2 X17.6725 Y3.0 Z-0.2 I0.0063 J-0.0108
G2 X17.6537 Y2.9892 Z-0.2333 I-0.0125 J0.0
G2 Y3.0108 Z-0.2667 I0.0063 J0.0108
G2 X17.6725 Y3.0 Z-0.3 I0.0063 J-0.0108
G2 X17.6537 Y2.9892 Z-0.3333 I-0.0125 J0.0
G2 Y3.0108 Z-0.3667 I0.0063 J0.0108
G2 X17.6725 Y3.0 Z-0.4 I0.0063 J-0.0108
G2 X17.6537 Y2.9892 Z-0.4333 I-0.0125 J0.0
G2 Y3.0108 Z-0.4667 I0.0063 J0.0108
G2 X17.6725 Y3.0 Z-0.5 I0.0063 J-0.0108
G2 X17.6537 Y2.9892 Z-0.5333 I-0.0125 J0.0
G2 Y3.0108 Z-0.5667 I0.0063 J0.0108
G2 X17.6725 Y3.0 Z-0.6 I0.0063 J-0.0108
G2 X17.6537 Y2.9892 Z-0.6333 I-0.0125 J0.0
G2 Y3.0108 Z-0.6667 I0.0063 J0.0108
G2 X17.6725 Y3.0 Z-0.7 I0.0063 J-0.0108
G2 X17.6537 Y2.9892 Z-0.7333 I-0.0125 J0.0
G2 Y3.0108 Z-0.7667 I0.0063 J0.0108
G2 X17.6725 Y3.0 Z-0.8 I0.0063 J-0.0108
G2 X17.6537 Y2.9892 Z-0.8333 I-0.0125 J0.0
G2 Y3.0108 Z-0.8667 I0.0063 J0.0108
G2 X17.6725 Y3.0 Z-0.9 I0.0063 J-0.0108
G2 X17.6537 Y2.9892 Z-0.9333 I-0.0125 J0.0
G2 Y3.0108 Z-0.9667 I0.0063 J0.0108
G2 X17.6725 Y3.0 Z-1.0 I0.0063 J-0.0108
G2 X17.6537 Y2.9892 Z-1.0333 I-0.0125 J0.0
G2 Y3.0108 Z-1.0667 I0.0063 J0.0108
G2 X17.6725 Y3.0 Z-1.1 I0.0063 J-0.0108
G2 X17.6537 Y2.9892 Z-1.1333 I-0.0125 J0.0
G2 Y3.0108 Z-1.1667 I0.0063 J0.0108
G2 X17.6725 Y3.0 Z-1.2 I0.0063 J-0.0108
G2 X17.6537 Y2.9892 Z-1.2333 I-0.0125 J0.0
G2 Y3.0108 Z-1.2667 I0.0062 J0.0108
G2 X17.6725 Y3.0 Z-1.3 I0.0063 J-0.0108
G2 X17.6537 Y2.9892 Z-1.3333 I-0.0125 J0.0
G2 Y3.0108 Z-1.3667 I0.0062 J0.0108
G2 X17.6725 Y3.0 Z-1.4 I0.0063 J-0.0108
G2 X17.6537 Y2.9892 Z-1.4333 I-0.0125 J0.0
G2 Y3.0108 Z-1.4667 I0.0062 J0.0108
G2 X17.6725 Y3.0 Z-1.5 I0.0063 J-0.0108
G2 X17.6537 Y2.9892 Z-1.5333 I-0.0125 J0.0
G2 Y3.0108 Z-1.5667 I0.0062 J0.0108
G2 X17.6725 Y3.0 Z-1.6 I0.0063 J-0.0108
G2 X17.6537 Y2.9892 Z-1.6333 I-0.0125 J0.0
G2 Y3.0108 Z-1.6667 I0.0062 J0.0108
G2 X17.6725 Y3.0 Z-1.7 I0.0063 J-0.0108
G2 X17.6537 Y2.9892 Z-1.7333 I-0.0125 J0.0
G2 Y3.0108 Z-1.7667 I0.0062 J0.0108
G2 X17.6725 Y3.0 Z-1.8 I0.0063 J-0.0108
G2 X17.6537 Y2.9892 Z-1.8333 I-0.0125 J0.0
G2 Y3.0108 Z-1.8667 I0.0062 J0.0108
G2 X17.6725 Y3.0 Z-1.9 I0.0063 J-0.0108
G2 X17.6537 Y2.9892 Z-1.9333 I-0.0125 J0.0
G2 Y3.0108 Z-1.9667 I0.0062 J0.0108
G2 X17.6725 Y3.0 Z-2.0 I0.0063 J-0.0108
G2 X17.6537 Y2.9892 Z-2.0333 I-0.0125 J0.0
G2 Y3.0108 Z-2.0667 I0.0062 J0.0108
G2 X17.6725 Y3.0 Z-2.1 I0.0063 J-0.0108
G2 X17.6537 Y2.9892 Z-2.1333 I-0.0125 J0.0
G2 Y3.0108 Z-2.1667 I0.0062 J0.0108
G2 X17.6725 Y3.0 Z-2.2 I0.0063 J-0.0108
G2 X17.6537 Y2.9892 Z-2.2333 I-0.0125 J0.0
G2 Y3.0108 Z-2.2667 I0.0063 J0.0108
G2 X17.6725 Y3.0 Z-2.3 I0.0063 J-0.0108
G2 X17.6537 Y2.9892 Z-2.3333 I-0.0125 J0.0
G2 Y3.0108 Z-2.3667 I0.0063 J0.0108
G2 X17.6725 Y3.0 Z-2.4 I0.0063 J-0.0108
G2 X17.6537 Y2.9892 Z-2.4333 I-0.0125 J0.0
G2 Y3.0108 Z-2.4667 I0.0063 J0.0108
G2 X17.6725 Y3.0 Z-2.5 I0.0062 J-0.0108
G2 X17.6537 Y2.9892 Z-2.5333 I-0.0125 J0.0
G2 Y3.0108 Z-2.5667 I0.0063 J0.0108
G2 X17.6725 Y3.0 Z-2.6 I0.0062 J-0.0108
G2 X17.6537 Y2.9892 Z-2.6333 I-0.0125 J0.0
G2 Y3.0108 Z-2.6667 I0.0063 J0.0108
G2 X17.6725 Y3.0 Z-2.7 I0.0062 J-0.0108
G2 X17.6537 Y2.9892 Z-2.7333 I-0.0125 J0.0
G2 Y3.0108 Z-2.7667 I0.0063 J0.0108
G2 X17.6725 Y3.0 Z-2.8 I0.0062 J-0.0108
G2 X17.6537 Y2.9892 Z-2.8333 I-0.0125 J0.0
G2 Y3.0108 Z-2.8667 I0.0063 J0.0108
G2 X17.6725 Y3.0 Z-2.9 I0.0062 J-0.0108
G2 X17.6537 Y2.9892 Z-2.9333 I-0.0125 J0.0
G2 Y3.0108 Z-2.9667 I0.0063 J0.0108
G2 X17.6725 Y3.0 Z-3.0 I0.0062 J-0.0108
G2 X17.6537 Y2.9892 Z-3.0333 I-0.0125 J0.0
G2 Y3.0108 Z-3.0667 I0.0063 J0.0108
G2 X17.6725 Y3.0 Z-3.1 I0.0062 J-0.0108
G2 X17.6537 Y2.9892 Z-3.1333 I-0.0125 J0.0
G2 Y3.0108 Z-3.1667 I0.0063 J0.0108
G2 X17.6725 Y3.0 Z-3.2 I0.0062 J-0.0108
G2 X17.6537 Y2.9892 I-0.0125 J0.0
G2 Y3.0108 I0.0063 J0.0108
G2 X17.6725 Y3.0 I0.0062 J-0.0108
G0 Z3.0
G0 X7.5125
G0 Z0.01
G1 F1000.0 Z0.0
G2 F2000.0 X7.4938 Y2.9892 Z-0.0333 I-0.0125 J0.0
G2 Y3.0108 Z-0.0667 I0.0062 J0.0108
G2 X7.5125 Y3.0 Z-0.1 I0.0063 J-0.0108
G2 X7.4938 Y2.9892 Z-0.1333 I-0.0125 J0.0
G2 Y3.0108 Z-0.1667 I0.0062 J0.0108
G2 X7.5125 Y3.0 Z-0.2 I0.0063 J-0.0108
G2 X7.4938 Y2.9892 Z-0.2333 I-0.0125 J0.0
G2 Y3.0108 Z-0.2667 I0.0062 J0.0108
G2 X7.5125 Y3.0 Z-0.3 I0.0063 J-0.0108
G2 X7.4938 Y2.9892 Z-0.3333 I-0.0125 J0.0
G2 Y3.0108 Z-0.3667 I0.0063 J0.0108
G2 X7.5125 Y3.0 Z-0.4 I0.0062 J-0.0108
G2 X7.4938 Y2.9892 Z-0.4333 I-0.0125 J0.0
G2 Y3.0108 Z-0.4667 I0.0063 J0.0108
G2 X7.5125 Y3.0 Z-0.5 I0.0062 J-0.0108
G2 X7.4938 Y2.9892 Z-0.5333 I-0.0125 J0.0
G2 Y3.0108 Z-0.5667 I0.0063 J0.0108
G2 X7.5125 Y3.0 Z-0.6 I0.0062 J-0.0108
G2 X7.4938 Y2.9892 Z-0.6333 I-0.0125 J0.0
G2 Y3.0108 Z-0.6667 I0.0062 J0.0108
G2 X7.5125 Y3.0 Z-0.7 I0.0063 J-0.0108
G2 X7.4938 Y2.9892 Z-0.7333 I-0.0125 J0.0
G2 Y3.0108 Z-0.7667 I0.0062 J0.0108
G2 X7.5125 Y3.0 Z-0.8 I0.0063 J-0.0108
G2 X7.4938 Y2.9892 Z-0.8333 I-0.0125 J0.0
G2 Y3.0108 Z-0.8667 I0.0062 J0.0108
G2 X7.5125 Y3.0 Z-0.9 I0.0063 J-0.0108
G2 X7.4938 Y2.9892 Z-0.9333 I-0.0125 J0.0
G2 Y3.0108 Z-0.9667 I0.0062 J0.0108
G2 X7.5125 Y3.0 Z-1.0 I0.0063 J-0.0108
G2 X7.4938 Y2.9892 Z-1.0333 I-0.0125 J0.0
G2 Y3.0108 Z-1.0667 I0.0062 J0.0108
G2 X7.5125 Y3.0 Z-1.1 I0.0063 J-0.0108
G2 X7.4938 Y2.9892 Z-1.1333 I-0.0125 J0.0
G2 Y3.0108 Z-1.1667 I0.0062 J0.0108
G2 X7.5125 Y3.0 Z-1.2 I0.0063 J-0.0108
G2 X7.4938 Y2.9892 Z-1.2333 I-0.0125 J0.0
G2 Y3.0108 Z-1.2667 I0.0062 J0.0108
G2 X7.5125 Y3.0 Z-1.3 I0.0063 J-0.0108
G2 X7.4938 Y2.9892 Z-1.3333 I-0.0125 J0.0
G2 Y3.0108 Z-1.3667 I0.0062 J0.0108
G2 X7.5125 Y3.0 Z-1.4 I0.0063 J-0.0108
G2 X7.4938 Y2.9892 Z-1.4333 I-0.0125 J0.0
G2 Y3.0108 Z-1.4667 I0.0062 J0.0108
G2 X7.5125 Y3.0 Z-1.5 I0.0063 J-0.0108
G2 X7.4938 Y2.9892 Z-1.5333 I-0.0125 J0.0
G2 Y3.0108 Z-1.5667 I0.0062 J0.0108
G2 X7.5125 Y3.0 Z-1.6 I0.0063 J-0.0108
G2 X7.4938 Y2.9892 Z-1.6333 I-0.0125 J0.0
G2 Y3.0108 Z-1.6667 I0.0062 J0.0108
G2 X7.5125 Y3.0 Z-1.7 I0.0063 J-0.0108
G2 X7.4938 Y2.9892 Z-1.7333 I-0.0125 J0.0
G2 Y3.0108 Z-1.7667 I0.0062 J0.0108
G2 X7.5125 Y3.0 Z-1.8 I0.0063 J-0.0108
G2 X7.4938 Y2.9892 Z-1.8333 I-0.0125 J0.0
G2 Y3.0108 Z-1.8667 I0.0062 J0.0108
G2 X7.5125 Y3.0 Z-1.9 I0.0063 J-0.0108
G2 X7.4938 Y2.9892 Z-1.9333 I-0.0125 J0.0
G2 Y3.0108 Z-1.9667 I0.0062 J0.0108
G2 X7.5125 Y3.0 Z-2.0 I0.0063 J-0.0108
G2 X7.4938 Y2.9892 Z-2.0333 I-0.0125 J0.0
G2 Y3.0108 Z-2.0667 I0.0062 J0.0108
G2 X7.5125 Y3.0 Z-2.1 I0.0063 J-0.0108
G2 X7.4938 Y2.9892 Z-2.1333 I-0.0125 J0.0
G2 Y3.0108 Z-2.1667 I0.0062 J0.0108
G2 X7.5125 Y3.0 Z-2.2 I0.0063 J-0.0108
G2 X7.4938 Y2.9892 Z-2.2333 I-0.0125 J0.0
G2 Y3.0108 Z-2.2667 I0.0062 J0.0108
G2 X7.5125 Y3.0 Z-2.3 I0.0063 J-0.0108
G2 X7.4938 Y2.9892 Z-2.3333 I-0.0125 J0.0
G2 Y3.0108 Z-2.3667 I0.0063 J0.0108
G2 X7.5125 Y3.0 Z-2.4 I0.0062 J-0.0108
G2 X7.4938 Y2.9892 Z-2.4333 I-0.0125 J0.0
G2 Y3.0108 Z-2.4667 I0.0063 J0.0108
G2 X7.5125 Y3.0 Z-2.5 I0.0062 J-0.0108
G2 X7.4938 Y2.9892 Z-2.5333 I-0.0125 J0.0
G2 Y3.0108 Z-2.5667 I0.0063 J0.0108
G2 X7.5125 Y3.0 Z-2.6 I0.0062 J-0.0108
G2 X7.4938 Y2.9892 Z-2.6333 I-0.0125 J0.0
G2 Y3.0108 Z-2.6667 I0.0063 J0.0108
G2 X7.5125 Y3.0 Z-2.7 I0.0062 J-0.0108
G2 X7.4938 Y2.9892 Z-2.7333 I-0.0125 J0.0
G2 Y3.0108 Z-2.7667 I0.0063 J0.0108
G2 X7.5125 Y3.0 Z-2.8 I0.0062 J-0.0108
G2 X7.4938 Y2.9892 Z-2.8333 I-0.0125 J0.0
G2 Y3.0108 Z-2.8667 I0.0063 J0.0108
G2 X7.5125 Y3.0 Z-2.9 I0.0062 J-0.0108
G2 X7.4938 Y2.9892 Z-2.9333 I-0.0125 J0.0
G2 Y3.0108 Z-2.9667 I0.0063 J0.0108
G2 X7.5125 Y3.0 Z-3.0 I0.0062 J-0.0108
G2 X7.4938 Y2.9892 Z-3.0333 I-0.0125 J0.0
G2 Y3.0108 Z-3.0667 I0.0063 J0.0108
G2 X7.5125 Y3.0 Z-3.1 I0.0062 J-0.0108
G2 X7.4938 Y2.9892 Z-3.1333 I-0.0125 J0.0
G2 Y3.0108 Z-3.1667 I0.0063 J0.0108
G2 X7.5125 Y3.0 Z-3.2 I0.0062 J-0.0108
G2 X7.4938 Y2.9892 I-0.0125 J0.0
G2 Y3.0108 I0.0063 J0.0108
G2 X7.5125 Y3.0 I0.0062 J-0.0108
G0 Z3.0
G0 Y125.5
G0 Z0.01
G1 F1000.0 Z0.0
G2 F2000.0 X7.4938 Y125.4892 Z-0.0333 I-0.0125 J0.0
G2 Y125.5108 Z-0.0667 I0.0062 J0.0108
G2 X7.5125 Y125.5 Z-0.1 I0.0063 J-0.0108
G2 X7.4938 Y125.4892 Z-0.1333 I-0.0125 J0.0
G2 Y125.5108 Z-0.1667 I0.0062 J0.0108
G2 X7.5125 Y125.5 Z-0.2 I0.0063 J-0.0108
G2 X7.4938 Y125.4892 Z-0.2333 I-0.0125 J0.0
G2 Y125.5108 Z-0.2667 I0.0062 J0.0108
G2 X7.5125 Y125.5 Z-0.3 I0.0063 J-0.0108
G2 X7.4938 Y125.4892 Z-0.3333 I-0.0125 J0.0
G2 Y125.5108 Z-0.3667 I0.0062 J0.0108
G2 X7.5125 Y125.5 Z-0.4 I0.0063 J-0.0108
G2 X7.4938 Y125.4892 Z-0.4333 I-0.0125 J0.0
G2 Y125.5108 Z-0.4667 I0.0062 J0.0108
G2 X7.5125 Y125.5 Z-0.5 I0.0063 J-0.0108
G2 X7.4938 Y125.4892 Z-0.5333 I-0.0125 J0.0
G2 Y125.5108 Z-0.5667 I0.0062 J0.0108
G2 X7.5125 Y125.5 Z-0.6 I0.0063 J-0.0108
G2 X7.4938 Y125.4892 Z-0.6333 I-0.0125 J0.0
G2 Y125.5108 Z-0.6667 I0.0062 J0.0108
G2 X7.5125 Y125.5 Z-0.7 I0.0063 J-0.0108
G2 X7.4938 Y125.4892 Z-0.7333 I-0.0125 J0.0
G2 Y125.5108 Z-0.7667 I0.0062 J0.0108
G2 X7.5125 Y125.5 Z-0.8 I0.0063 J-0.0108
G2 X7.4938 Y125.4892 Z-0.8333 I-0.0125 J0.0
G2 Y125.5108 Z-0.8667 I0.0062 J0.0108
G2 X7.5125 Y125.5 Z-0.9 I0.0063 J-0.0108
G2 X7.4938 Y125.4892 Z-0.9333 I-0.0125 J0.0
G2 Y125.5108 Z-0.9667 I0.0062 J0.0108
G2 X7.5125 Y125.5 Z-1.0 I0.0063 J-0.0108
G2 X7.4938 Y125.4892 Z-1.0333 I-0.0125 J0.0
G2 Y125.5108 Z-1.0667 I0.0062 J0.0108
G2 X7.5125 Y125.5 Z-1.1 I0.0063 J-0.0108
G2 X7.4938 Y125.4892 Z-1.1333 I-0.0125 J0.0
G2 Y125.5108 Z-1.1667 I0.0062 J0.0108
G2 X7.5125 Y125.5 Z-1.2 I0.0063 J-0.0108
G2 X7.4938 Y125.4892 Z-1.2333 I-0.0125 J0.0
G2 Y125.5108 Z-1.2667 I0.0062 J0.0108
G2 X7.5125 Y125.5 Z-1.3 I0.0063 J-0.0108
G2 X7.4938 Y125.4892 Z-1.3333 I-0.0125 J0.0
G2 Y125.5108 Z-1.3667 I0.0062 J0.0108
G2 X7.5125 Y125.5 Z-1.4 I0.0063 J-0.0108
G2 X7.4938 Y125.4892 Z-1.4333 I-0.0125 J0.0
G2 Y125.5108 Z-1.4667 I0.0062 J0.0108
G2 X7.5125 Y125.5 Z-1.5 I0.0063 J-0.0108
G2 X7.4938 Y125.4892 Z-1.5333 I-0.0125 J0.0
G2 Y125.5108 Z-1.5667 I0.0062 J0.0108
G2 X7.5125 Y125.5 Z-1.6 I0.0063 J-0.0108
G2 X7.4938 Y125.4892 Z-1.6333 I-0.0125 J0.0
G2 Y125.5108 Z-1.6667 I0.0062 J0.0108
G2 X7.5125 Y125.5 Z-1.7 I0.0063 J-0.0108
G2 X7.4938 Y125.4892 Z-1.7333 I-0.0125 J0.0
G2 Y125.5108 Z-1.7667 I0.0062 J0.0108
G2 X7.5125 Y125.5 Z-1.8 I0.0063 J-0.0108
G2 X7.4938 Y125.4892 Z-1.8333 I-0.0125 J0.0
G2 Y125.5108 Z-1.8667 I0.0062 J0.0108
G2 X7.5125 Y125.5 Z-1.9 I0.0063 J-0.0108
G2 X7.4938 Y125.4892 Z-1.9333 I-0.0125 J0.0
G2 Y125.5108 Z-1.9667 I0.0062 J0.0108
G2 X7.5125 Y125.5 Z-2.0 I0.0063 J-0.0108
G2 X7.4938 Y125.4892 Z-2.0333 I-0.0125 J0.0
G2 Y125.5108 Z-2.0667 I0.0062 J0.0108
G2 X7.5125 Y125.5 Z-2.1 I0.0063 J-0.0108
G2 X7.4938 Y125.4892 Z-2.1333 I-0.0125 J0.0
G2 Y125.5108 Z-2.1667 I0.0062 J0.0108
G2 X7.5125 Y125.5 Z-2.2 I0.0063 J-0.0108
G2 X7.4938 Y125.4892 Z-2.2333 I-0.0125 J0.0
G2 Y125.5108 Z-2.2667 I0.0062 J0.0108
G2 X7.5125 Y125.5 Z-2.3 I0.0063 J-0.0108
G2 X7.4938 Y125.4892 Z-2.3333 I-0.0125 J0.0
G2 Y125.5108 Z-2.3667 I0.0062 J0.0108
G2 X7.5125 Y125.5 Z-2.4 I0.0063 J-0.0108
G2 X7.4938 Y125.4892 Z-2.4333 I-0.0125 J0.0
G2 Y125.5108 Z-2.4667 I0.0062 J0.0108
G2 X7.5125 Y125.5 Z-2.5 I0.0063 J-0.0108
G2 X7.4938 Y125.4892 Z-2.5333 I-0.0125 J0.0
G2 Y125.5108 Z-2.5667 I0.0062 J0.0108
G2 X7.5125 Y125.5 Z-2.6 I0.0063 J-0.0108
G2 X7.4938 Y125.4892 Z-2.6333 I-0.0125 J0.0
G2 Y125.5108 Z-2.6667 I0.0062 J0.0108
G2 X7.5125 Y125.5 Z-2.7 I0.0063 J-0.0108
G2 X7.4938 Y125.4892 Z-2.7333 I-0.0125 J0.0
G2 Y125.5108 Z-2.7667 I0.0062 J0.0108
G2 X7.5125 Y125.5 Z-2.8 I0.0063 J-0.0108
G2 X7.4938 Y125.4892 Z-2.8333 I-0.0125 J0.0
G2 Y125.5108 Z-2.8667 I0.0062 J0.0108
G2 X7.5125 Y125.5 Z-2.9 I0.0063 J-0.0108
G2 X7.4938 Y125.4892 Z-2.9333 I-0.0125 J0.0
G2 Y125.5108 Z-2.9667 I0.0062 J0.0108
G2 X7.5125 Y125.5 Z-3.0 I0.0063 J-0.0108
G2 X7.4938 Y125.4892 Z-3.0333 I-0.0125 J0.0
G2 Y125.5108 Z-3.0667 I0.0062 J0.0108
G2 X7.5125 Y125.5 Z-3.1 I0.0062 J-0.0108
G2 X7.4938 Y125.4892 Z-3.1333 I-0.0125 J0.0
G2 Y125.5108 Z-3.1667 I0.0063 J0.0108
G2 X7.5125 Y125.5 Z-3.2 I0.0062 J-0.0108
G2 X7.4938 Y125.4892 I-0.0125 J0.0
G2 Y125.5108 I0.0063 J0.0108
G2 X7.5125 Y125.5 I0.0062 J-0.0108
G0 Z3.0
G0 X17.6725
G0 Z0.01
G1 F1000.0 Z0.0
G2 F2000.0 X17.6537 Y125.4892 Z-0.0333 I-0.0125 J0.0
G2 Y125.5108 Z-0.0667 I0.0062 J0.0108
G2 X17.6725 Y125.5 Z-0.1 I0.0063 J-0.0108
G2 X17.6537 Y125.4892 Z-0.1333 I-0.0125 J0.0
G2 Y125.5108 Z-0.1667 I0.0062 J0.0108
G2 X17.6725 Y125.5 Z-0.2 I0.0063 J-0.0108
G2 X17.6537 Y125.4892 Z-0.2333 I-0.0125 J0.0
G2 Y125.5108 Z-0.2667 I0.0062 J0.0108
G2 X17.6725 Y125.5 Z-0.3 I0.0063 J-0.0108
G2 X17.6537 Y125.4892 Z-0.3333 I-0.0125 J0.0
G2 Y125.5108 Z-0.3667 I0.0062 J0.0108
G2 X17.6725 Y125.5 Z-0.4 I0.0063 J-0.0108
G2 X17.6537 Y125.4892 Z-0.4333 I-0.0125 J0.0
G2 Y125.5108 Z-0.4667 I0.0062 J0.0108
G2 X17.6725 Y125.5 Z-0.5 I0.0063 J-0.0108
G2 X17.6537 Y125.4892 Z-0.5333 I-0.0125 J0.0
G2 Y125.5108 Z-0.5667 I0.0062 J0.0108
G2 X17.6725 Y125.5 Z-0.6 I0.0063 J-0.0108
G2 X17.6537 Y125.4892 Z-0.6333 I-0.0125 J0.0
G2 Y125.5108 Z-0.6667 I0.0062 J0.0108
G2 X17.6725 Y125.5 Z-0.7 I0.0063 J-0.0108
G2 X17.6537 Y125.4892 Z-0.7333 I-0.0125 J0.0
G2 Y125.5108 Z-0.7667 I0.0062 J0.0108
G2 X17.6725 Y125.5 Z-0.8 I0.0063 J-0.0108
G2 X17.6537 Y125.4892 Z-0.8333 I-0.0125 J0.0
G2 Y125.5108 Z-0.8667 I0.0062 J0.0108
G2 X17.6725 Y125.5 Z-0.9 I0.0063 J-0.0108
G2 X17.6537 Y125.4892 Z-0.9333 I-0.0125 J0.0
G2 Y125.5108 Z-0.9667 I0.0062 J0.0108
G2 X17.6725 Y125.5 Z-1.0 I0.0063 J-0.0108
G2 X17.6537 Y125.4892 Z-1.0333 I-0.0125 J0.0
G2 Y125.5108 Z-1.0667 I0.0062 J0.0108
G2 X17.6725 Y125.5 Z-1.1 I0.0063 J-0.0108
G2 X17.6537 Y125.4892 Z-1.1333 I-0.0125 J0.0
G2 Y125.5108 Z-1.1667 I0.0062 J0.0108
G2 X17.6725 Y125.5 Z-1.2 I0.0063 J-0.0108
G2 X17.6537 Y125.4892 Z-1.2333 I-0.0125 J0.0
G2 Y125.5108 Z-1.2667 I0.0062 J0.0108
G2 X17.6725 Y125.5 Z-1.3 I0.0063 J-0.0108
G2 X17.6537 Y125.4892 Z-1.3333 I-0.0125 J0.0
G2 Y125.5108 Z-1.3667 I0.0062 J0.0108
G2 X17.6725 Y125.5 Z-1.4 I0.0063 J-0.0108
G2 X17.6537 Y125.4892 Z-1.4333 I-0.0125 J0.0
G2 Y125.5108 Z-1.4667 I0.0062 J0.0108
G2 X17.6725 Y125.5 Z-1.5 I0.0063 J-0.0108
G2 X17.6537 Y125.4892 Z-1.5333 I-0.0125 J0.0
G2 Y125.5108 Z-1.5667 I0.0062 J0.0108
G2 X17.6725 Y125.5 Z-1.6 I0.0063 J-0.0108
G2 X17.6537 Y125.4892 Z-1.6333 I-0.0125 J0.0
G2 Y125.5108 Z-1.6667 I0.0062 J0.0108
G2 X17.6725 Y125.5 Z-1.7 I0.0063 J-0.0108
G2 X17.6537 Y125.4892 Z-1.7333 I-0.0125 J0.0
G2 Y125.5108 Z-1.7667 I0.0062 J0.0108
G2 X17.6725 Y125.5 Z-1.8 I0.0063 J-0.0108
G2 X17.6537 Y125.4892 Z-1.8333 I-0.0125 J0.0
G2 Y125.5108 Z-1.8667 I0.0062 J0.0108
G2 X17.6725 Y125.5 Z-1.9 I0.0063 J-0.0108
G2 X17.6537 Y125.4892 Z-1.9333 I-0.0125 J0.0
G2 Y125.5108 Z-1.9667 I0.0062 J0.0108
G2 X17.6725 Y125.5 Z-2.0 I0.0063 J-0.0108
G2 X17.6537 Y125.4892 Z-2.0333 I-0.0125 J0.0
G2 Y125.5108 Z-2.0667 I0.0062 J0.0108
G2 X17.6725 Y125.5 Z-2.1 I0.0063 J-0.0108
G2 X17.6537 Y125.4892 Z-2.1333 I-0.0125 J0.0
G2 Y125.5108 Z-2.1667 I0.0062 J0.0108
G2 X17.6725 Y125.5 Z-2.2 I0.0063 J-0.0108
G2 X17.6537 Y125.4892 Z-2.2333 I-0.0125 J0.0
G2 Y125.5108 Z-2.2667 I0.0062 J0.0108
G2 X17.6725 Y125.5 Z-2.3 I0.0063 J-0.0108
G2 X17.6537 Y125.4892 Z-2.3333 I-0.0125 J0.0
G2 Y125.5108 Z-2.3667 I0.0062 J0.0108
G2 X17.6725 Y125.5 Z-2.4 I0.0063 J-0.0108
G2 X17.6537 Y125.4892 Z-2.4333 I-0.0125 J0.0
G2 Y125.5108 Z-2.4667 I0.0062 J0.0108
G2 X17.6725 Y125.5 Z-2.5 I0.0063 J-0.0108
G2 X17.6537 Y125.4892 Z-2.5333 I-0.0125 J0.0
G2 Y125.5108 Z-2.5667 I0.0062 J0.0108
G2 X17.6725 Y125.5 Z-2.6 I0.0063 J-0.0108
G2 X17.6537 Y125.4892 Z-2.6333 I-0.0125 J0.0
G2 Y125.5108 Z-2.6667 I0.0062 J0.0108
G2 X17.6725 Y125.5 Z-2.7 I0.0063 J-0.0108
G2 X17.6537 Y125.4892 Z-2.7333 I-0.0125 J0.0
G2 Y125.5108 Z-2.7667 I0.0062 J0.0108
G2 X17.6725 Y125.5 Z-2.8 I0.0063 J-0.0108
G2 X17.6537 Y125.4892 Z-2.8333 I-0.0125 J0.0
G2 Y125.5108 Z-2.8667 I0.0062 J0.0108
G2 X17.6725 Y125.5 Z-2.9 I0.0063 J-0.0108
G2 X17.6537 Y125.4892 Z-2.9333 I-0.0125 J0.0
G2 Y125.5108 Z-2.9667 I0.0062 J0.0108
G2 X17.6725 Y125.5 Z-3.0 I0.0063 J-0.0108
G2 X17.6537 Y125.4892 Z-3.0333 I-0.0125 J0.0
G2 Y125.5108 Z-3.0667 I0.0062 J0.0108
G2 X17.6725 Y125.5 Z-3.1 I0.0063 J-0.0108
G2 X17.6537 Y125.4892 Z-3.1333 I-0.0125 J0.0
G2 Y125.5108 Z-3.1667 I0.0062 J0.0108
G2 X17.6725 Y125.5 Z-3.2 I0.0063 J-0.0108
G2 X17.6537 Y125.4892 I-0.0125 J0.0
G2 Y125.5108 I0.0063 J0.0108
G2 X17.6725 Y125.5 I0.0062 J-0.0108
( Profile1 )
S1000
G0 Z3.0
G0 X26.7475 Y0.0
G0 Z0.01
G1 F1000.0 Z-0.1
G1 F2000.0 Y128.5
G3 X25.16 Y130.0875 I-1.5875 J0.0
G1 X0.0
G3 X-1.5875 Y128.5 I0.0 J-1.5875
G1 Y0.0
G3 X0.0 Y-1.5875 I1.5875 J0.0
G1 X25.16
G3 X26.7475 Y0.0 I0.0 J1.5875
G1 F1000.0 Z-0.2
G1 F2000.0 Y128.5
G3 X25.16 Y130.0875 I-1.5875 J0.0
G1 X0.0
G3 X-1.5875 Y128.5 I0.0 J-1.5875
G1 Y0.0
G3 X0.0 Y-1.5875 I1.5875 J0.0
G1 X25.16
G3 X26.7475 Y0.0 I0.0 J1.5875
G1 F1000.0 Z-0.3
G1 F2000.0 Y128.5
G3 X25.16 Y130.0875 I-1.5875 J0.0
G1 X0.0
G3 X-1.5875 Y128.5 I0.0 J-1.5875
G1 Y0.0
G3 X0.0 Y-1.5875 I1.5875 J0.0
G1 X25.16
G3 X26.7475 Y0.0 I0.0 J1.5875
G1 F1000.0 Z-0.4
G1 F2000.0 Y128.5
G3 X25.16 Y130.0875 I-1.5875 J0.0
G1 X0.0
G3 X-1.5875 Y128.5 I0.0 J-1.5875
G1 Y0.0
G3 X0.0 Y-1.5875 I1.5875 J0.0
G1 X25.16
G3 X26.7475 Y0.0 I0.0 J1.5875
G1 F1000.0 Z-0.5
G1 F2000.0 Y128.5
G3 X25.16 Y130.0875 I-1.5875 J0.0
G1 X0.0
G3 X-1.5875 Y128.5 I0.0 J-1.5875
G1 Y0.0
G3 X0.0 Y-1.5875 I1.5875 J0.0
G1 X25.16
G3 X26.7475 Y0.0 I0.0 J1.5875
G1 F1000.0 Z-0.6
G1 F2000.0 Y128.5
G3 X25.16 Y130.0875 I-1.5875 J0.0
G1 X0.0
G3 X-1.5875 Y128.5 I0.0 J-1.5875
G1 Y0.0
G3 X0.0 Y-1.5875 I1.5875 J0.0
G1 X25.16
G3 X26.7475 Y0.0 I0.0 J1.5875
G1 F1000.0 Z-0.7
G1 F2000.0 Y128.5
G3 X25.16 Y130.0875 I-1.5875 J0.0
G1 X0.0
G3 X-1.5875 Y128.5 I0.0 J-1.5875
G1 Y0.0
G3 X0.0 Y-1.5875 I1.5875 J0.0
G1 X25.16
G3 X26.7475 Y0.0 I0.0 J1.5875
G1 F1000.0 Z-0.8
G1 F2000.0 Y128.5
G3 X25.16 Y130.0875 I-1.5875 J0.0
G1 X0.0
G3 X-1.5875 Y128.5 I0.0 J-1.5875
G1 Y0.0
G3 X0.0 Y-1.5875 I1.5875 J0.0
G1 X25.16
G3 X26.7475 Y0.0 I0.0 J1.5875
G1 F1000.0 Z-0.9
G1 F2000.0 Y128.5
G3 X25.16 Y130.0875 I-1.5875 J0.0
G1 X0.0
G3 X-1.5875 Y128.5 I0.0 J-1.5875
G1 Y0.0
G3 X0.0 Y-1.5875 I1.5875 J0.0
G1 X25.16
G3 X26.7475 Y0.0 I0.0 J1.5875
G1 F1000.0 Z-1.0
G1 F2000.0 Y128.5
G3 X25.16 Y130.0875 I-1.5875 J0.0
G1 X0.0
G3 X-1.5875 Y128.5 I0.0 J-1.5875
G1 Y0.0
G3 X0.0 Y-1.5875 I1.5875 J0.0
G1 X25.16
G3 X26.7475 Y0.0 I0.0 J1.5875
G1 F1000.0 Z-1.1
G1 F2000.0 Y128.5
G3 X25.16 Y130.0875 I-1.5875 J0.0
G1 X0.0
G3 X-1.5875 Y128.5 I0.0 J-1.5875
G1 Y0.0
G3 X0.0 Y-1.5875 I1.5875 J0.0
G1 X25.16
G3 X26.7475 Y0.0 I0.0 J1.5875
G1 F1000.0 Z-1.2
G1 F2000.0 Y128.5
G3 X25.16 Y130.0875 I-1.5875 J0.0
G1 X0.0
G3 X-1.5875 Y128.5 I0.0 J-1.5875
G1 Y0.0
G3 X0.0 Y-1.5875 I1.5875 J0.0
G1 X25.16
G3 X26.7475 Y0.0 I0.0 J1.5875
G1 F1000.0 Z-1.3
G1 F2000.0 Y35.8275
G1 Y36.8275 Z-1.2
G1 Y40.0025
G1 Y41.0025 Z-1.3
G1 Y112.6575
G1 Y113.6575 Z-1.2
G1 Y116.8325
G1 Y117.8325 Z-1.3
G1 Y128.5
G3 X25.16 Y130.0875 I-1.5875 J0.0
G1 X0.0
G3 X-1.5875 Y128.5 I0.0 J-1.5875
G1 Y92.6725
G1 Y91.6725 Z-1.2
G1 Y88.4975
G1 Y87.4975 Z-1.3
G1 Y15.8425
G1 Y14.8425 Z-1.2
G1 Y11.6675
G1 Y10.6675 Z-1.3
G1 Y0.0
G3 X0.0 Y-1.5875 I1.5875 J0.0
G1 X25.16
G3 X26.7475 Y0.0 I0.0 J1.5875
G1 F1000.0 Z-1.4
G1 F2000.0 Y35.8275
G1 Y36.8275 Z-1.2
G1 Y40.0025
G1 Y41.0025 Z-1.4
G1 Y112.6575
G1 Y113.6575 Z-1.2
G1 Y116.8325
G1 Y117.8325 Z-1.4
G1 Y128.5
G3 X25.16 Y130.0875 I-1.5875 J0.0
G1 X0.0
G3 X-1.5875 Y128.5 I0.0 J-1.5875
G1 Y92.6725
G1 Y91.6725 Z-1.2
G1 Y88.4975
G1 Y87.4975 Z-1.4
G1 Y15.8425
G1 Y14.8425 Z-1.2
G1 Y11.6675
G1 Y10.6675 Z-1.4
G1 Y0.0
G3 X0.0 Y-1.5875 I1.5875 J0.0
G1 X25.16
G3 X26.7475 Y0.0 I0.0 J1.5875
G1 F1000.0 Z-1.5
G1 F2000.0 Y35.8275
G1 Y36.8275 Z-1.2
G1 Y40.0025
G1 Y41.0025 Z-1.5
G1 Y112.6575
G1 Y113.6575 Z-1.2
G1 Y116.8325
G1 Y117.8325 Z-1.5
G1 Y128.5
G3 X25.16 Y130.0875 I-1.5875 J0.0
G1 X0.0
G3 X-1.5875 Y128.5 I0.0 J-1.5875
G1 Y92.6725
G1 Y91.6725 Z-1.2
G1 Y88.4975
G1 Y87.4975 Z-1.5
G1 Y15.8425
G1 Y14.8425 Z-1.2
G1 Y11.6675
G1 Y10.6675 Z-1.5
G1 Y0.0
G3 X0.0 Y-1.5875 I1.5875 J0.0
G1 X25.16
G3 X26.7475 Y0.0 I0.0 J1.5875
G1 F1000.0 Z-1.6
G1 F2000.0 Y35.8275
G1 Y36.8275 Z-1.2
G1 Y40.0025
G1 Y41.0025 Z-1.6
G1 Y112.6575
G1 Y113.6575 Z-1.2
G1 Y116.8325
G1 Y117.8325 Z-1.6
G1 Y128.5
G3 X25.16 Y130.0875 I-1.5875 J0.0
G1 X0.0
G3 X-1.5875 Y128.5 I0.0 J-1.5875
G1 Y92.6725
G1 Y91.6725 Z-1.2
G1 Y88.4975
G1 Y87.4975 Z-1.6
G1 Y15.8425
G1 Y14.8425 Z-1.2
G1 Y11.6675
G1 Y10.6675 Z-1.6
G1 Y0.0
G3 X0.0 Y-1.5875 I1.5875 J0.0
G1 X25.16
G3 X26.7475 Y0.0 I0.0 J1.5875
G1 F1000.0 Z-1.7
G1 F2000.0 Y35.8275
G1 Y36.8275 Z-1.2
G1 Y40.0025
G1 Y41.0025 Z-1.7
G1 Y112.6575
G1 Y113.6575 Z-1.2
G1 Y116.8325
G1 Y117.8325 Z-1.7
G1 Y128.5
G3 X25.16 Y130.0875 I-1.5875 J0.0
G1 X0.0
G3 X-1.5875 Y128.5 I0.0 J-1.5875
G1 Y92.6725
G1 Y91.6725 Z-1.2
G1 Y88.4975
G1 Y87.4975 Z-1.7
G1 Y15.8425
G1 Y14.8425 Z-1.2
G1 Y11.6675
G1 Y10.6675 Z-1.7
G1 Y0.0
G3 X0.0 Y-1.5875 I1.5875 J0.0
G1 X25.16
G3 X26.7475 Y0.0 I0.0 J1.5875
G1 F1000.0 Z-1.8
G1 F2000.0 Y35.8275
G1 Y36.8275 Z-1.2
G1 Y40.0025
G1 Y41.0025 Z-1.8
G1 Y112.6575
G1 Y113.6575 Z-1.2
G1 Y116.8325
G1 Y117.8325 Z-1.8
G1 Y128.5
G3 X25.16 Y130.0875 I-1.5875 J0.0
G1 X0.0
G3 X-1.5875 Y128.5 I0.0 J-1.5875
G1 Y92.6725
G1 Y91.6725 Z-1.2
G1 Y88.4975
G1 Y87.4975 Z-1.8
G1 Y15.8425
G1 Y14.8425 Z-1.2
G1 Y11.6675
G1 Y10.6675 Z-1.8
G1 Y0.0
G3 X0.0 Y-1.5875 I1.5875 J0.0
G1 X25.16
G3 X26.7475 Y0.0 I0.0 J1.5875
G1 F1000.0 Z-1.9
G1 F2000.0 Y35.8275
G1 Y36.8275 Z-1.2
G1 Y40.0025
G1 Y41.0025 Z-1.9
G1 Y112.6575
G1 Y113.6575 Z-1.2
G1 Y116.8325
G1 Y117.8325 Z-1.9
G1 Y128.5
G3 X25.16 Y130.0875 I-1.5875 J0.0
G1 X0.0
G3 X-1.5875 Y128.5 I0.0 J-1.5875
G1 Y92.6725
G1 Y91.6725 Z-1.2
G1 Y88.4975
G1 Y87.4975 Z-1.9
G1 Y15.8425
G1 Y14.8425 Z-1.2
G1 Y11.6675
G1 Y10.6675 Z-1.9
G1 Y0.0
G3 X0.0 Y-1.5875 I1.5875 J0.0
G1 X25.16
G3 X26.7475 Y0.0 I0.0 J1.5875
G1 F1000.0 Z-2.0
G1 F2000.0 Y35.8275
G1 Y36.8275 Z-1.2
G1 Y40.0025
G1 Y41.0025 Z-2.0
G1 Y112.6575
G1 Y113.6575 Z-1.2
G1 Y116.8325
G1 Y117.8325 Z-2.0
G1 Y128.5
G3 X25.16 Y130.0875 I-1.5875 J0.0
G1 X0.0
G3 X-1.5875 Y128.5 I0.0 J-1.5875
G1 Y92.6725
G1 Y91.6725 Z-1.2
G1 Y88.4975
G1 Y87.4975 Z-2.0
G1 Y15.8425
G1 Y14.8425 Z-1.2
G1 Y11.6675
G1 Y10.6675 Z-2.0
G1 Y0.0
G3 X0.0 Y-1.5875 I1.5875 J0.0
G1 X25.16
G3 X26.7475 Y0.0 I0.0 J1.5875
G1 F1000.0 Z-2.1
G1 F2000.0 Y35.8275
G1 Y36.8275 Z-1.2
G1 Y40.0025
G1 Y41.0025 Z-2.1
G1 Y112.6575
G1 Y113.6575 Z-1.2
G1 Y116.8325
G1 Y117.8325 Z-2.1
G1 Y128.5
G3 X25.16 Y130.0875 I-1.5875 J0.0
G1 X0.0
G3 X-1.5875 Y128.5 I0.0 J-1.5875
G1 Y92.6725
G1 Y91.6725 Z-1.2
G1 Y88.4975
G1 Y87.4975 Z-2.1
G1 Y15.8425
G1 Y14.8425 Z-1.2
G1 Y11.6675
G1 Y10.6675 Z-2.1
G1 Y0.0
G3 X0.0 Y-1.5875 I1.5875 J0.0
G1 X25.16
G3 X26.7475 Y0.0 I0.0 J1.5875
G1 F1000.0 Z-2.2
G1 F2000.0 Y35.8275
G1 Y36.8275 Z-1.2
G1 Y40.0025
G1 Y41.0025 Z-2.2
G1 Y112.6575
G1 Y113.6575 Z-1.2
G1 Y116.8325
G1 Y117.8325 Z-2.2
G1 Y128.5
G3 X25.16 Y130.0875 I-1.5875 J0.0
G1 X0.0
G3 X-1.5875 Y128.5 I0.0 J-1.5875
G1 Y92.6725
G1 Y91.6725 Z-1.2
G1 Y88.4975
G1 Y87.4975 Z-2.2
G1 Y15.8425
G1 Y14.8425 Z-1.2
G1 Y11.6675
G1 Y10.6675 Z-2.2
G1 Y0.0
G3 X0.0 Y-1.5875 I1.5875 J0.0
G1 X25.16
G3 X26.7475 Y0.0 I0.0 J1.5875
G1 F1000.0 Z-2.3
G1 F2000.0 Y35.8275
G1 Y36.8275 Z-1.2
G1 Y40.0025
G1 Y41.0025 Z-2.3
G1 Y112.6575
G1 Y113.6575 Z-1.2
G1 Y116.8325
G1 Y117.8325 Z-2.3
G1 Y128.5
G3 X25.16 Y130.0875 I-1.5875 J0.0
G1 X0.0
G3 X-1.5875 Y128.5 I0.0 J-1.5875
G1 Y92.6725
G1 Y91.6725 Z-1.2
G1 Y88.4975
G1 Y87.4975 Z-2.3
G1 Y15.8425
G1 Y14.8425 Z-1.2
G1 Y11.6675
G1 Y10.6675 Z-2.3
G1 Y0.0
G3 X0.0 Y-1.5875 I1.5875 J0.0
G1 X25.16
G3 X26.7475 Y0.0 I0.0 J1.5875
G1 F1000.0 Z-2.4
G1 F2000.0 Y35.8275
G1 Y36.8275 Z-1.2
G1 Y40.0025
G1 Y41.0025 Z-2.4
G1 Y112.6575
G1 Y113.6575 Z-1.2
G1 Y116.8325
G1 Y117.8325 Z-2.4
G1 Y128.5
G3 X25.16 Y130.0875 I-1.5875 J0.0
G1 X0.0
G3 X-1.5875 Y128.5 I0.0 J-1.5875
G1 Y92.6725
G1 Y91.6725 Z-1.2
G1 Y88.4975
G1 Y87.4975 Z-2.4
G1 Y15.8425
G1 Y14.8425 Z-1.2
G1 Y11.6675
G1 Y10.6675 Z-2.4
G1 Y0.0
G3 X0.0 Y-1.5875 I1.5875 J0.0
G1 X25.16
G3 X26.7475 Y0.0 I0.0 J1.5875
G1 F1000.0 Z-2.5
G1 F2000.0 Y35.8275
G1 Y36.8275 Z-1.2
G1 Y40.0025
G1 Y41.0025 Z-2.5
G1 Y112.6575
G1 Y113.6575 Z-1.2
G1 Y116.8325
G1 Y117.8325 Z-2.5
G1 Y128.5
G3 X25.16 Y130.0875 I-1.5875 J0.0
G1 X0.0
G3 X-1.5875 Y128.5 I0.0 J-1.5875
G1 Y92.6725
G1 Y91.6725 Z-1.2
G1 Y88.4975
G1 Y87.4975 Z-2.5
G1 Y15.8425
G1 Y14.8425 Z-1.2
G1 Y11.6675
G1 Y10.6675 Z-2.5
G1 Y0.0
G3 X0.0 Y-1.5875 I1.5875 J0.0
G1 X25.16
G3 X26.7475 Y0.0 I0.0 J1.5875
G1 F1000.0 Z-2.6
G1 F2000.0 Y35.8275
G1 Y36.8275 Z-1.2
G1 Y40.0025
G1 Y41.0025 Z-2.6
G1 Y112.6575
G1 Y113.6575 Z-1.2
G1 Y116.8325
G1 Y117.8325 Z-2.6
G1 Y128.5
G3 X25.16 Y130.0875 I-1.5875 J0.0
G1 X0.0
G3 X-1.5875 Y128.5 I0.0 J-1.5875
G1 Y92.6725
G1 Y91.6725 Z-1.2
G1 Y88.4975
G1 Y87.4975 Z-2.6
G1 Y15.8425
G1 Y14.8425 Z-1.2
G1 Y11.6675
G1 Y10.6675 Z-2.6
G1 Y0.0
G3 X0.0 Y-1.5875 I1.5875 J0.0
G1 X25.16
G3 X26.7475 Y0.0 I0.0 J1.5875
G1 F1000.0 Z-2.7
G1 F2000.0 Y35.8275
G1 Y36.8275 Z-1.2
G1 Y40.0025
G1 Y41.0025 Z-2.7
G1 Y112.6575
G1 Y113.6575 Z-1.2
G1 Y116.8325
G1 Y117.8325 Z-2.7
G1 Y128.5
G3 X25.16 Y130.0875 I-1.5875 J0.0
G1 X0.0
G3 X-1.5875 Y128.5 I0.0 J-1.5875
G1 Y92.6725
G1 Y91.6725 Z-1.2
G1 Y88.4975
G1 Y87.4975 Z-2.7
G1 Y15.8425
G1 Y14.8425 Z-1.2
G1 Y11.6675
G1 Y10.6675 Z-2.7
G1 Y0.0
G3 X0.0 Y-1.5875 I1.5875 J0.0
G1 X25.16
G3 X26.7475 Y0.0 I0.0 J1.5875
G1 F1000.0 Z-2.8
G1 F2000.0 Y35.8275
G1 Y36.8275 Z-1.2
G1 Y40.0025
G1 Y41.0025 Z-2.8
G1 Y112.6575
G1 Y113.6575 Z-1.2
G1 Y116.8325
G1 Y117.8325 Z-2.8
G1 Y128.5
G3 X25.16 Y130.0875 I-1.5875 J0.0
G1 X0.0
G3 X-1.5875 Y128.5 I0.0 J-1.5875
G1 Y92.6725
G1 Y91.6725 Z-1.2
G1 Y88.4975
G1 Y87.4975 Z-2.8
G1 Y15.8425
G1 Y14.8425 Z-1.2
G1 Y11.6675
G1 Y10.6675 Z-2.8
G1 Y0.0
G3 X0.0 Y-1.5875 I1.5875 J0.0
G1 X25.16
G3 X26.7475 Y0.0 I0.0 J1.5875
G1 F1000.0 Z-2.9
G1 F2000.0 Y35.8275
G1 Y36.8275 Z-1.2
G1 Y40.0025
G1 Y41.0025 Z-2.9
G1 Y112.6575
G1 Y113.6575 Z-1.2
G1 Y116.8325
G1 Y117.8325 Z-2.9
G1 Y128.5
G3 X25.16 Y130.0875 I-1.5875 J0.0
G1 X0.0
G3 X-1.5875 Y128.5 I0.0 J-1.5875
G1 Y92.6725
G1 Y91.6725 Z-1.2
G1 Y88.4975
G1 Y87.4975 Z-2.9
G1 Y15.8425
G1 Y14.8425 Z-1.2
G1 Y11.6675
G1 Y10.6675 Z-2.9
G1 Y0.0
G3 X0.0 Y-1.5875 I1.5875 J0.0
G1 X25.16
G3 X26.7475 Y0.0 I0.0 J1.5875
G1 F1000.0 Z-3.0
G1 F2000.0 Y35.8275
G1 Y36.8275 Z-1.2
G1 Y40.0025
G1 Y41.0025 Z-3.0
G1 Y112.6575
G1 Y113.6575 Z-1.2
G1 Y116.8325
G1 Y117.8325 Z-3.0
G1 Y128.5
G3 X25.16 Y130.0875 I-1.5875 J0.0
G1 X0.0
G3 X-1.5875 Y128.5 I0.0 J-1.5875
G1 Y92.6725
G1 Y91.6725 Z-1.2
G1 Y88.4975
G1 Y87.4975 Z-3.0
G1 Y15.8425
G1 Y14.8425 Z-1.2
G1 Y11.6675
G1 Y10.6675 Z-3.0
G1 Y0.0
G3 X0.0 Y-1.5875 I1.5875 J0.0
G1 X25.16
G3 X26.7475 Y0.0 I0.0 J1.5875
G1 F1000.0 Z-3.1
G1 F2000.0 Y35.8275
G1 Y36.8275 Z-1.2
G1 Y40.0025
G1 Y41.0025 Z-3.1
G1 Y112.6575
G1 Y113.6575 Z-1.2
G1 Y116.8325
G1 Y117.8325 Z-3.1
G1 Y128.5
G3 X25.16 Y130.0875 I-1.5875 J0.0
G1 X0.0
G3 X-1.5875 Y128.5 I0.0 J-1.5875
G1 Y92.6725
G1 Y91.6725 Z-1.2
G1 Y88.4975
G1 Y87.4975 Z-3.1
G1 Y15.8425
G1 Y14.8425 Z-1.2
G1 Y11.6675
G1 Y10.6675 Z-3.1
G1 Y0.0
G3 X0.0 Y-1.5875 I1.5875 J0.0
G1 X25.16
G3 X26.7475 Y0.0 I0.0 J1.5875
G1 F1000.0 Z-3.2
G1 F2000.0 Y35.8275
G1 Y36.8275 Z-1.2
G1 Y40.0025
G1 Y41.0025 Z-3.2
G1 Y112.6575
G1 Y113.6575 Z-1.2
G1 Y116.8325
G1 Y117.8325 Z-3.2
G1 Y128.5
G3 X25.16 Y130.0875 I-1.5875 J0.0
G1 X0.0
G3 X-1.5875 Y128.5 I0.0 J-1.5875
G1 Y92.6725
G1 Y91.6725 Z-1.2
G1 Y88.4975
G1 Y87.4975 Z-3.2
G1 Y15.8425
G1 Y14.8425 Z-1.2
G1 Y11.6675
G1 Y10.6675 Z-3.2
G1 Y0.0
G3 X0.0 Y-1.5875 I1.5875 J0.0
G1 X25.16
G3 X26.7475 Y0.0 I0.0 J1.5875
G0 Z3.0
M5
M30
