(/Applications/pcbgcode.repo/pcb-gcode.ulp)
(Copyright 2005 - 2012 by John Johnson)
(See readme.txt for licensing terms.)
(This file generated from the board:)
(.../eagle/output_attenuator/zerod.brd)
(Current profile is .../pcbgcode.repo/profiles/mach.pp  )
(This file generated 10/16/14 8:45 PM)
(Settings from pcb-machine.h)
(spindle on time = 3.0000)
(spindle speed = 20000.0000)
(tool change at 0.0000  0.0000  3.0000  )
(feed rate xy = F0     )
(feed rate z  = F20    )
(Z Axis Settings)
(  High     Up        Down     Drill)
(0.5000  	0.1000  	-0.0030 	-0.0320 )
(Settings from pcb-defaults.h)
(isolate min = 0.0010)
(isolate max = 0.0200)
(isolate step = 0.0050)
(Generated bottom outlines, bottom drill, )
(Unit of measure: inch)
( Tool|       Size       |  Min Sub |  Max Sub |   Count )
( T01 | 0.813mm 0.0320in | 0.0000in | 0.0000in |       0 )
( T02 | 1.016mm 0.0400in | 0.0000in | 0.0000in |       0 )
( T03 | 1.118mm 0.0440in | 0.0000in | 0.0000in |       0 )
( T04 | 1.270mm 0.0500in | 0.0000in | 0.0000in |       0 )
( T05 | 1.321mm 0.0520in | 0.0000in | 0.0000in |       0 )
(Inch Mode)
G20
(Absolute Coordinates)
G90
S20000
G00 Z0.5000  
G00 X0.0000  Y0.0000  
M03
G04 P3.000000
M05
G00 Z3.0000  
M06 T01  ; 0.0320  
G01 Z0.0000  F20    
M06 
G00 Z0.1000  
M03
G04 P3.000000
G82 X-0.1500 Y2.1500  Z-0.0320 F20    R0.1000  P0.250000
G82 X-0.1500 Y2.4000  
G82 X-0.5500 Y2.4000  
G82 X-0.7500 Y2.1500  
G82 X-1.1500 Y2.2500  
G82 X-1.2500 Y2.2500  
G82 X-1.3500 Y2.2500  
G82 X-1.4500 Y2.2500  
G82 X-1.5500 Y2.2500  
G82 X-1.6500 Y2.2500  
G82 X-1.7500 Y2.2500  
G82 X-1.8500 Y2.2500  
G82 X-1.9500 Y2.2500  
G82 X-1.9500 Y2.5500  
G82 X-1.8500 Y2.5500  
G82 X-1.7500 Y2.5500  
G82 X-1.6500 Y2.5500  
G82 X-1.5500 Y2.5500  
G82 X-1.4500 Y2.5500  
G82 X-1.3500 Y2.5500  
G82 X-1.2500 Y2.5500  
G82 X-1.1500 Y2.5500  
G82 X-1.1500 Y2.9000  
G82 X-1.2500 Y2.9000  
G82 X-1.4000 Y2.9000  
G82 X-1.5000 Y2.9000  
G82 X-1.6500 Y2.9000  
G82 X-1.7500 Y2.9000  
G82 X-1.9000 Y2.9000  
G82 X-2.0000 Y2.9000  
G82 X-2.1500 Y2.9000  
G82 X-2.2500 Y2.9000  
G82 X-2.4000 Y2.9000  
G82 X-2.5000 Y2.9000  
G82 X-2.6500 Y2.9000  
G82 X-2.7500 Y2.9000  
G82 X-2.9000 Y2.9000  
G82 X-3.0000 Y2.9000  
G82 X-3.1500 Y2.9000  
G82 X-3.2500 Y2.9000  
G82 X-2.8500 Y2.1250  
G82 X-2.9000 Y2.0500  
G82 X-2.8000 Y2.0500  
G82 X-2.7500 Y1.8000  
G82 X-2.5500 Y2.0000  
G82 X-2.3500 Y1.8000  
G82 X-2.2500 Y2.0000  
G82 X-2.4500 Y1.4500  
G82 X-2.2000 Y1.3500  
G82 X-2.1000 Y1.1000  
G82 X-2.0000 Y1.1000  
G82 X-1.9000 Y1.1000  
G82 X-1.8000 Y1.1000  
G82 X-1.8000 Y1.3500  
G82 X-1.4500 Y1.6500  
G82 X-1.0500 Y1.6500  
G82 X-0.9000 Y1.6000  
G82 X-0.9000 Y1.7500  
G82 X-0.5000 Y1.7500  
G82 X-0.5000 Y1.6000  
G82 X-0.5500 Y0.7000  
G82 X-0.6500 Y0.7000  
G82 X-0.4000 Y0.7000  
G82 X-0.3000 Y0.7000  
G82 X-1.8000 Y0.8000  
G82 X-1.9000 Y0.8000  
G82 X-2.0000 Y0.8000  
G82 X-2.1000 Y0.8000  
G82 X-2.8500 Y1.4500  
G82 X-3.1000 Y1.8500  
G82 X-3.5000 Y1.8500  
G82 X-1.0000 Y2.9000  
G82 X-0.9000 Y2.9000  
M05
G00 Z3.0000  
G00 X0.0000  Y0.0000  
M06 T02  ; 0.0400  
G01 Z0.0000  F20    
M06 
G00 Z0.1000  
M03
G04 P3.000000
G82 X-0.2000 Y1.1000  Z-0.0320 F20    R0.1000  P0.250000
G82 X-0.3500 Y0.4000  
G82 X-0.3500 Y0.3000  
G82 X-0.4500 Y0.3000  
G82 X-0.4500 Y0.4000  
G82 X-0.5500 Y0.4000  
G82 X-0.6500 Y0.4000  
G82 X-0.7500 Y0.4000  
G82 X-0.8500 Y0.4000  
G82 X-0.9500 Y0.4000  
G82 X-0.9500 Y0.3000  
G82 X-0.8500 Y0.3000  
G82 X-0.7500 Y0.3000  
G82 X-0.6500 Y0.3000  
G82 X-0.5500 Y0.3000  
G82 X-1.0500 Y0.3000  
G82 X-1.0500 Y0.4000  
G82 X-1.1000 Y1.1000  
G82 X-1.7500 Y1.9000  
G82 X-1.8500 Y2.0000  
G82 X-1.9500 Y1.9000  
G82 X-2.1000 Y2.4000  
G82 X-3.0000 Y2.4000  
M05
G00 Z3.0000  
G00 X0.0000  Y0.0000  
M06 T03  ; 0.0440  
G01 Z0.0000  F20    
M06 
G00 Z0.1000  
M03
G04 P3.000000
G82 X-1.1000 Y0.7000  Z-0.0320 F20    R0.1000  P0.250000
G82 X-1.4000 Y0.7000  
G82 X-1.7000 Y1.6500  
G82 X-2.0000 Y1.6500  
M05
G00 Z3.0000  
G00 X0.0000  Y0.0000  
M06 T04  ; 0.0500  
G01 Z0.0000  F20    
M06 
G00 Z0.1000  
M03
G04 P3.000000
G82 X-0.2500 Y2.7500  Z-0.0320 F20    R0.1000  P0.250000
G82 X-0.3500 Y2.7500  
G82 X-0.4500 Y2.7500  
M05
G00 Z3.0000  
G00 X0.0000  Y0.0000  
M06 T05  ; 0.0520  
G01 Z0.0000  F20    
M06 
G00 Z0.1000  
M03
G04 P3.000000
G82 X-0.1500 Y1.6000  Z-0.0320 F20    R0.1000  P0.250000
G82 X-0.1500 Y1.8500  
T01 
G00 Z0.5000  
M05
M02
