(/Applications/pcbgcode.repo/pcb-gcode.ulp)
(Copyright 2005 - 2012 by John Johnson)
(See readme.txt for licensing terms.)
(This file generated from the board:)
(.../eagle/output_attenuator/zerod.brd)
(Current profile is .../pcbgcode.repo/profiles/mach.pp  )
(This file generated 11/17/14 8:35 PM)
(Settings from pcb-machine.h)
(spindle on time = 0.0000)
(  Tool Size)
(0.0103  )
(spindle speed = 30000.0000)
(tool change at 0.0000  0.0000  3.0000  )
(feed rate xy = F20    )
(feed rate z  = F10    )
(Z Axis Settings)
(  High     Up        Down     Drill)
(0.5000  	0.1000  	-0.0021 	-0.0631 )
(Settings from pcb-defaults.h)
(isolate min = 0.0010)
(isolate max = 0.0050)
(isolate step = 0.0010)
(Generated bottom outlines, bottom drill, )
(Unit of measure: inch)
(Inch Mode)
G20
(Absolute Coordinates)
G90
S30000
G00 Z0.5000  
G00 X0.0000  Y0.0000  
M03
G04 P0.000000
G00 Z0.1000  
G00 X-0.0680 Y1.1965  
G01 Z-0.0021 F10    
G01 X-0.0715 Y1.1930  F20    
G01 X-0.1715 Y1.0930  
G01 X-0.1756 Y1.0902  
G01 X-0.1802 Y1.0883  
G01 X-0.1850 Y1.0874  
G01 X-0.9775 Y1.0874  
G01 X-0.9823 Y1.0883  
G01 X-0.9869 Y1.0902  
G01 X-0.9910 Y1.0930  
G01 X-0.9945 Y1.0965  
G01 X-1.0604 Y1.1624  
G01 X-1.4221 Y1.1624  
G01 X-1.4229 Y1.1616  
G01 X-1.4293 Y1.1569  
G01 X-1.4364 Y1.1533  
G01 X-1.4439 Y1.1508  
G01 X-1.4518 Y1.1496  
G01 X-1.5482 Y1.1496  
G01 X-1.5561 Y1.1508  
G01 X-1.5636 Y1.1533  
G01 X-1.5707 Y1.1569  
G01 X-1.5771 Y1.1616  
G01 X-1.5827 Y1.1672  
G01 X-1.5874 Y1.1736  
G01 X-1.5880 Y1.1749  
G01 X-1.8641 Y1.1749  
G01 X-1.8821 Y1.1569  
G01 X-1.8951 Y1.1569  
G01 X-2.0215 Y1.0305  
G01 X-2.0256 Y1.0277  
G01 X-2.0302 Y1.0258  
G01 X-2.0350 Y1.0249  
G01 X-2.4650 Y1.0249  
G01 X-2.4698 Y1.0258  
G01 X-2.4744 Y1.0277  
G01 X-2.4785 Y1.0305  
G01 X-2.4820 Y1.0340  
G01 X-3.0945 Y1.6465  
G01 X-3.0973 Y1.6506  
G01 X-3.0992 Y1.6552  
G01 X-3.1001 Y1.6600  
G01 X-3.1001 Y2.0275  
G01 X-3.0992 Y2.0323  
G01 X-3.0973 Y2.0369  
G01 X-3.0945 Y2.0410  
G01 X-3.0910 Y2.0445  
G01 X-2.9376 Y2.1979  
G01 X-2.9376 Y2.2400  
G01 X-2.9367 Y2.2448  
G01 X-2.9348 Y2.2494  
G01 X-2.9321 Y2.2534  
G01 X-2.9321 Y2.2792  
G01 X-2.9309 Y2.2854  
G01 X-2.9285 Y2.2912  
G01 X-2.9250 Y2.2965  
G01 X-2.9205 Y2.3010  
G01 X-2.9152 Y2.3045  
G01 X-2.9094 Y2.3069  
G01 X-2.9032 Y2.3081  
G01 X-2.9024 Y2.3081  
G01 X-2.7785 Y2.4320  
G01 X-2.7744 Y2.4348  
G01 X-2.7698 Y2.4367  
G01 X-2.7650 Y2.4376  
G01 X-2.4350 Y2.4376  
G01 X-2.4302 Y2.4367  
G01 X-2.4256 Y2.4348  
G01 X-2.4215 Y2.4320  
G01 X-2.4180 Y2.4285  
G01 X-2.2976 Y2.3081  
G01 X-2.2968 Y2.3081  
G01 X-2.2906 Y2.3069  
G01 X-2.2848 Y2.3045  
G01 X-2.2795 Y2.3010  
G01 X-2.2750 Y2.2965  
G01 X-2.2715 Y2.2912  
G01 X-2.2691 Y2.2854  
G01 X-2.2679 Y2.2792  
G01 X-2.2679 Y2.2208  
G01 X-2.2691 Y2.2146  
G01 X-2.2715 Y2.2088  
G01 X-2.2750 Y2.2035  
G01 X-2.2795 Y2.1990  
G01 X-2.2848 Y2.1955  
G01 X-2.2906 Y2.1931  
G01 X-2.2968 Y2.1919  
G01 X-2.3032 Y2.1919  
G01 X-2.3094 Y2.1931  
G01 X-2.3152 Y2.1955  
G01 X-2.3205 Y2.1990  
G01 X-2.3250 Y2.2035  
G01 X-2.3285 Y2.2088  
G01 X-2.3309 Y2.2146  
G01 X-2.3321 Y2.2208  
G01 X-2.3321 Y2.2716  
G01 X-2.4479 Y2.3874  
G01 X-2.7521 Y2.3874  
G01 X-2.8679 Y2.2716  
G01 X-2.8679 Y2.2208  
G01 X-2.8691 Y2.2146  
G01 X-2.8715 Y2.2088  
G01 X-2.8750 Y2.2035  
G01 X-2.8795 Y2.1990  
G01 X-2.8848 Y2.1955  
G01 X-2.8874 Y2.1944  
G01 X-2.8874 Y2.1850  
G01 X-2.8883 Y2.1802  
G01 X-2.8902 Y2.1756  
G01 X-2.8930 Y2.1715  
G01 X-3.0499 Y2.0146  
G01 X-3.0499 Y1.6729  
G01 X-2.4521 Y1.0751  
G01 X-2.0479 Y1.0751  
G01 X-1.9420 Y1.1810  
G01 X-1.9431 Y1.1821  
G01 X-1.9431 Y1.2179  
G01 X-1.9251 Y1.2359  
G01 X-1.9251 Y1.2641  
G01 X-1.9431 Y1.2821  
G01 X-1.9431 Y1.3179  
G01 X-1.9179 Y1.3431  
G01 X-1.8821 Y1.3431  
G01 X-1.8569 Y1.3179  
G01 X-1.8569 Y1.2821  
G01 X-1.8749 Y1.2641  
G01 X-1.8749 Y1.2359  
G01 X-1.8641 Y1.2251  
G01 X-1.5880 Y1.2251  
G01 X-1.5874 Y1.2264  
G01 X-1.5827 Y1.2328  
G01 X-1.5771 Y1.2384  
G01 X-1.5707 Y1.2431  
G01 X-1.5636 Y1.2467  
G01 X-1.5561 Y1.2492  
G01 X-1.5482 Y1.2504  
G01 X-1.4518 Y1.2504  
G01 X-1.4439 Y1.2492  
G01 X-1.4364 Y1.2467  
G01 X-1.4293 Y1.2431  
G01 X-1.4229 Y1.2384  
G01 X-1.4173 Y1.2328  
G01 X-1.4126 Y1.2264  
G01 X-1.4090 Y1.2193  
G01 X-1.4069 Y1.2126  
G01 X-1.0475 Y1.2126  
G01 X-1.0427 Y1.2117  
G01 X-1.0381 Y1.2098  
G01 X-1.0340 Y1.2070  
G01 X-0.9646 Y1.1376  
G01 X-0.1979 Y1.1376  
G01 X-0.1126 Y1.2229  
G01 X-0.1126 Y1.7018  
G01 X-0.1465 Y1.6680  
G01 X-0.1506 Y1.6652  
G01 X-0.1552 Y1.6633  
G01 X-0.1600 Y1.6624  
G01 X-0.4021 Y1.6624  
G01 X-0.4874 Y1.5771  
G01 X-0.4874 Y1.4850  
G01 X-0.4883 Y1.4802  
G01 X-0.4902 Y1.4756  
G01 X-0.4930 Y1.4715  
G01 X-0.4965 Y1.4680  
G01 X-0.6590 Y1.3055  
G01 X-0.6631 Y1.3027  
G01 X-0.6677 Y1.3008  
G01 X-0.6725 Y1.2999  
G01 X-0.9275 Y1.2999  
G01 X-0.9323 Y1.3008  
G01 X-0.9369 Y1.3027  
G01 X-0.9410 Y1.3055  
G01 X-0.9445 Y1.3090  
G01 X-1.1479 Y1.5124  
G01 X-1.5900 Y1.5124  
G01 X-1.5948 Y1.5133  
G01 X-1.5994 Y1.5152  
G01 X-1.6034 Y1.5179  
G01 X-1.6133 Y1.5179  
G01 X-1.6321 Y1.5367  
G01 X-1.6321 Y1.5633  
G01 X-1.6251 Y1.5703  
G01 X-1.6251 Y1.5896  
G01 X-1.7535 Y1.7179  
G01 X-1.7594 Y1.7191  
G01 X-1.7652 Y1.7215  
G01 X-1.7705 Y1.7250  
G01 X-1.7750 Y1.7295  
G01 X-1.7785 Y1.7348  
G01 X-1.7809 Y1.7406  
G01 X-1.7821 Y1.7468  
G01 X-1.7821 Y1.7532  
G01 X-1.7809 Y1.7594  
G01 X-1.7785 Y1.7652  
G01 X-1.7750 Y1.7705  
G01 X-1.7705 Y1.7750  
G01 X-1.7652 Y1.7785  
G01 X-1.7594 Y1.7809  
G01 X-1.7532 Y1.7821  
G01 X-1.7468 Y1.7821  
G01 X-1.7406 Y1.7809  
G01 X-1.7348 Y1.7785  
G01 X-1.7295 Y1.7750  
G01 X-1.7250 Y1.7705  
G01 X-1.7215 Y1.7652  
G01 X-1.7191 Y1.7594  
G01 X-1.7179 Y1.7535  
G01 X-1.5805 Y1.6160  
G01 X-1.5777 Y1.6119  
G01 X-1.5758 Y1.6073  
G01 X-1.5749 Y1.6025  
G01 X-1.5749 Y1.5703  
G01 X-1.5679 Y1.5633  
G01 X-1.5679 Y1.5626  
G01 X-1.1350 Y1.5626  
G01 X-1.1302 Y1.5617  
G01 X-1.1256 Y1.5598  
G01 X-1.1215 Y1.5570  
G01 X-0.9146 Y1.3501  
G01 X-0.6854 Y1.3501  
G01 X-0.5376 Y1.4979  
G01 X-0.5376 Y1.5900  
G01 X-0.5367 Y1.5948  
G01 X-0.5348 Y1.5994  
G01 X-0.5320 Y1.6035  
G01 X-0.4320 Y1.7035  
G01 X-0.4285 Y1.7070  
G01 X-0.4244 Y1.7098  
G01 X-0.4198 Y1.7117  
G01 X-0.4150 Y1.7126  
G01 X-0.1729 Y1.7126  
G01 X-0.1160 Y1.7695  
G01 X-0.0876 Y1.7979  
G01 X-0.0876 Y2.6271  
G01 X-0.4229 Y2.9624  
G01 X-0.7900 Y2.9624  
G01 X-0.7948 Y2.9633  
G01 X-0.7993 Y2.9652  
G01 X-0.9124 Y2.8521  
G01 X-0.9124 Y2.6200  
G01 X-0.9116 Y2.6192  
G01 X-0.9083 Y2.6143  
G01 X-0.9060 Y2.6088  
G01 X-0.9049 Y2.6030  
G01 X-0.9049 Y2.5970  
G01 X-0.9060 Y2.5912  
G01 X-0.9083 Y2.5857  
G01 X-0.9116 Y2.5808  
G01 X-0.9158 Y2.5766  
G01 X-0.9207 Y2.5733  
G01 X-0.9262 Y2.5710  
G01 X-0.9320 Y2.5699  
G01 X-0.9380 Y2.5699  
G01 X-0.9438 Y2.5710  
G01 X-0.9493 Y2.5733  
G01 X-0.9542 Y2.5766  
G01 X-0.9584 Y2.5808  
G01 X-0.9617 Y2.5857  
G01 X-0.9640 Y2.5912  
G01 X-0.9651 Y2.5970  
G01 X-0.9651 Y2.6030  
G01 X-0.9640 Y2.6088  
G01 X-0.9626 Y2.6120  
G01 X-0.9626 Y2.8650  
G01 X-0.9617 Y2.8698  
G01 X-0.9598 Y2.8744  
G01 X-0.9570 Y2.8785  
G01 X-0.8356 Y3.0000  
G01 X-0.8854 Y3.0499  
G01 X-0.9146 Y3.0499  
G01 X-0.9715 Y2.9930  
G01 X-0.9756 Y2.9902  
G01 X-0.9802 Y2.9883  
G01 X-0.9850 Y2.9874  
G01 X-1.0179 Y2.9874  
G01 X-1.0179 Y2.9867  
G01 X-1.0367 Y2.9679  
G01 X-1.0633 Y2.9679  
G01 X-1.0821 Y2.9867  
G01 X-1.0821 Y2.9966  
G01 X-1.1354 Y3.0499  
G01 X-1.2146 Y3.0499  
G01 X-1.2180 Y3.0465  
G01 X-1.2215 Y3.0430  
G01 X-1.2679 Y2.9966  
G01 X-1.2679 Y2.9867  
G01 X-1.2867 Y2.9679  
G01 X-1.3133 Y2.9679  
G01 X-1.3321 Y2.9867  
G01 X-1.3321 Y3.0133  
G01 X-1.3133 Y3.0321  
G01 X-1.3034 Y3.0321  
G01 X-1.2857 Y3.0499  
G01 X-1.4646 Y3.0499  
G01 X-1.4680 Y3.0465  
G01 X-1.4715 Y3.0430  
G01 X-1.5179 Y2.9966  
G01 X-1.5179 Y2.9867  
G01 X-1.5367 Y2.9679  
G01 X-1.5633 Y2.9679  
G01 X-1.5821 Y2.9867  
G01 X-1.5821 Y3.0133  
G01 X-1.5633 Y3.0321  
G01 X-1.5534 Y3.0321  
G01 X-1.5357 Y3.0499  
G01 X-1.7146 Y3.0499  
G01 X-1.7679 Y2.9966  
G01 X-1.7679 Y2.9867  
G01 X-1.7867 Y2.9679  
G01 X-1.8133 Y2.9679  
G01 X-1.8321 Y2.9867  
G01 X-1.8321 Y2.9966  
G01 X-1.8854 Y3.0499  
G01 X-2.0643 Y3.0499  
G01 X-2.0466 Y3.0321  
G01 X-2.0367 Y3.0321  
G01 X-2.0179 Y3.0133  
G01 X-2.0179 Y2.9867  
G01 X-2.0367 Y2.9679  
G01 X-2.0633 Y2.9679  
G01 X-2.0821 Y2.9867  
G01 X-2.0821 Y2.9966  
G01 X-2.1320 Y3.0465  
G01 X-2.1354 Y3.0499  
G01 X-2.2146 Y3.0499  
G01 X-2.2679 Y2.9966  
G01 X-2.2679 Y2.9867  
G01 X-2.2867 Y2.9679  
G01 X-2.3133 Y2.9679  
G01 X-2.3321 Y2.9867  
G01 X-2.3321 Y2.9966  
G01 X-2.3854 Y3.0499  
G01 X-2.5643 Y3.0499  
G01 X-2.5466 Y3.0321  
G01 X-2.5367 Y3.0321  
G01 X-2.5179 Y3.0133  
G01 X-2.5179 Y2.9867  
G01 X-2.5367 Y2.9679  
G01 X-2.5633 Y2.9679  
G01 X-2.5821 Y2.9867  
G01 X-2.5821 Y2.9966  
G01 X-2.6320 Y3.0465  
G01 X-2.6354 Y3.0499  
G01 X-2.7146 Y3.0499  
G01 X-2.7180 Y3.0465  
G01 X-2.7215 Y3.0430  
G01 X-2.7679 Y2.9966  
G01 X-2.7679 Y2.9867  
G01 X-2.7867 Y2.9679  
G01 X-2.8133 Y2.9679  
G01 X-2.8321 Y2.9867  
G01 X-2.8321 Y3.0133  
G01 X-2.8133 Y3.0321  
G01 X-2.8034 Y3.0321  
G01 X-2.7857 Y3.0499  
G01 X-2.9146 Y3.0499  
G01 X-2.9840 Y2.9805  
G01 X-2.9881 Y2.9777  
G01 X-2.9927 Y2.9758  
G01 X-2.9975 Y2.9749  
G01 X-3.0297 Y2.9749  
G01 X-3.0367 Y2.9679  
G01 X-3.0633 Y2.9679  
G01 X-3.0821 Y2.9867  
G01 X-3.0821 Y3.0133  
G01 X-3.0633 Y3.0321  
G01 X-3.0367 Y3.0321  
G01 X-3.0297 Y3.0251  
G01 X-3.0104 Y3.0251  
G01 X-2.9445 Y3.0910  
G01 X-2.9410 Y3.0945  
G01 X-2.9369 Y3.0973  
G01 X-2.9323 Y3.0992  
G01 X-2.9275 Y3.1001  
G01 X-2.7475 Y3.1001  
G01 X-2.7427 Y3.0992  
G01 X-2.7381 Y3.0973  
G01 X-2.7375 Y3.0969  
G01 X-2.7369 Y3.0973  
G01 X-2.7323 Y3.0992  
G01 X-2.7275 Y3.1001  
G01 X-2.6225 Y3.1001  
G01 X-2.6177 Y3.0992  
G01 X-2.6131 Y3.0973  
G01 X-2.6125 Y3.0969  
G01 X-2.6119 Y3.0973  
G01 X-2.6073 Y3.0992  
G01 X-2.6025 Y3.1001  
G01 X-2.3725 Y3.1001  
G01 X-2.3677 Y3.0992  
G01 X-2.3631 Y3.0973  
G01 X-2.3590 Y3.0945  
G01 X-2.3555 Y3.0910  
G01 X-2.3000 Y3.0356  
G01 X-2.2410 Y3.0945  
G01 X-2.2369 Y3.0973  
G01 X-2.2323 Y3.0992  
G01 X-2.2275 Y3.1001  
G01 X-2.1225 Y3.1001  
G01 X-2.1177 Y3.0992  
G01 X-2.1131 Y3.0973  
G01 X-2.1125 Y3.0969  
G01 X-2.1119 Y3.0973  
G01 X-2.1073 Y3.0992  
G01 X-2.1025 Y3.1001  
G01 X-1.8725 Y3.1001  
G01 X-1.8677 Y3.0992  
G01 X-1.8631 Y3.0973  
G01 X-1.8590 Y3.0945  
G01 X-1.8555 Y3.0910  
G01 X-1.8000 Y3.0356  
G01 X-1.7445 Y3.0910  
G01 X-1.7410 Y3.0945  
G01 X-1.7369 Y3.0973  
G01 X-1.7323 Y3.0992  
G01 X-1.7275 Y3.1001  
G01 X-1.4975 Y3.1001  
G01 X-1.4927 Y3.0992  
G01 X-1.4881 Y3.0973  
G01 X-1.4875 Y3.0969  
G01 X-1.4869 Y3.0973  
G01 X-1.4823 Y3.0992  
G01 X-1.4775 Y3.1001  
G01 X-1.2475 Y3.1001  
G01 X-1.2427 Y3.0992  
G01 X-1.2381 Y3.0973  
G01 X-1.2375 Y3.0969  
G01 X-1.2369 Y3.0973  
G01 X-1.2323 Y3.0992  
G01 X-1.2275 Y3.1001  
G01 X-1.1225 Y3.1001  
G01 X-1.1177 Y3.0992  
G01 X-1.1131 Y3.0973  
G01 X-1.1090 Y3.0945  
G01 X-1.1055 Y3.0910  
G01 X-1.0493 Y3.0348  
G01 X-1.0448 Y3.0367  
G01 X-1.0400 Y3.0376  
G01 X-0.9979 Y3.0376  
G01 X-0.9445 Y3.0910  
G01 X-0.9410 Y3.0945  
G01 X-0.9369 Y3.0973  
G01 X-0.9323 Y3.0992  
G01 X-0.9275 Y3.1001  
G01 X-0.8725 Y3.1001  
G01 X-0.8677 Y3.0992  
G01 X-0.8631 Y3.0973  
G01 X-0.8590 Y3.0945  
G01 X-0.7966 Y3.0321  
G01 X-0.7867 Y3.0321  
G01 X-0.7679 Y3.0133  
G01 X-0.7679 Y3.0126  
G01 X-0.4100 Y3.0126  
G01 X-0.4052 Y3.0117  
G01 X-0.4006 Y3.0098  
G01 X-0.3965 Y3.0070  
G01 X-0.3930 Y3.0035  
G01 X-0.0430 Y2.6535  
G01 X-0.0402 Y2.6494  
G01 X-0.0383 Y2.6448  
G01 X-0.0374 Y2.6400  
G01 X-0.0374 Y1.7850  
G01 X-0.0383 Y1.7802  
G01 X-0.0402 Y1.7756  
G01 X-0.0430 Y1.7715  
G01 X-0.0465 Y1.7680  
G01 X-0.0652 Y1.7493  
G01 X-0.0633 Y1.7448  
G01 X-0.0624 Y1.7400  
G01 X-0.0624 Y1.2100  
G01 X-0.0633 Y1.2052  
G01 X-0.0652 Y1.2006  
G01 X-0.0680 Y1.1965  
G00 Z0.1000  
G00 X-0.1679 Y1.1867  
G01 Z-0.0021 F10    
G01 X-0.1867 Y1.1679  F20    
G01 X-0.2133 Y1.1679  
G01 X-0.2321 Y1.1867  
G01 X-0.2321 Y1.2133  
G01 X-0.2251 Y1.2203  
G01 X-0.2251 Y1.4814  
G01 X-0.2284 Y1.4814  
G01 X-0.2686 Y1.5216  
G01 X-0.2686 Y1.5784  
G01 X-0.2284 Y1.6186  
G01 X-0.1716 Y1.6186  
G01 X-0.1314 Y1.5784  
G01 X-0.1314 Y1.5216  
G01 X-0.1716 Y1.4814  
G01 X-0.1749 Y1.4814  
G01 X-0.1749 Y1.2203  
G01 X-0.1679 Y1.2133  
G01 X-0.1679 Y1.1867  
G00 Z0.1000  
G00 X-0.5679 Y1.1867  
G01 Z-0.0021 F10    
G01 X-0.5867 Y1.1679  F20    
G01 X-0.6133 Y1.1679  
G01 X-0.6203 Y1.1749  
G01 X-0.8120 Y1.1749  
G01 X-0.8126 Y1.1736  
G01 X-0.8173 Y1.1672  
G01 X-0.8229 Y1.1616  
G01 X-0.8293 Y1.1569  
G01 X-0.8364 Y1.1533  
G01 X-0.8439 Y1.1508  
G01 X-0.8518 Y1.1496  
G01 X-0.9482 Y1.1496  
G01 X-0.9561 Y1.1508  
G01 X-0.9636 Y1.1533  
G01 X-0.9707 Y1.1569  
G01 X-0.9771 Y1.1616  
G01 X-0.9827 Y1.1672  
G01 X-0.9874 Y1.1736  
G01 X-0.9910 Y1.1807  
G01 X-0.9934 Y1.1880  
G01 X-0.9948 Y1.1883  
G01 X-0.9994 Y1.1902  
G01 X-1.0035 Y1.1930  
G01 X-1.2604 Y1.4499  
G01 X-1.6275 Y1.4499  
G01 X-1.6323 Y1.4508  
G01 X-1.6369 Y1.4527  
G01 X-1.6410 Y1.4555  
G01 X-1.7034 Y1.5179  
G01 X-1.7133 Y1.5179  
G01 X-1.7203 Y1.5249  
G01 X-1.8396 Y1.5249  
G01 X-2.0144 Y1.3500  
G01 X-2.0076 Y1.3431  
G01 X-1.9821 Y1.3431  
G01 X-1.9569 Y1.3179  
G01 X-1.9569 Y1.2821  
G01 X-1.9749 Y1.2641  
G01 X-1.9749 Y1.2359  
G01 X-1.9569 Y1.2179  
G01 X-1.9569 Y1.1821  
G01 X-1.9821 Y1.1569  
G01 X-2.0179 Y1.1569  
G01 X-2.0359 Y1.1749  
G01 X-2.0641 Y1.1749  
G01 X-2.0821 Y1.1569  
G01 X-2.1179 Y1.1569  
G01 X-2.1359 Y1.1749  
G01 X-2.1641 Y1.1749  
G01 X-2.1821 Y1.1569  
G01 X-2.1951 Y1.1569  
G01 X-2.2590 Y1.0930  
G01 X-2.2631 Y1.0902  
G01 X-2.2677 Y1.0883  
G01 X-2.2725 Y1.0874  
G01 X-2.3275 Y1.0874  
G01 X-2.3323 Y1.0883  
G01 X-2.3369 Y1.0902  
G01 X-2.3410 Y1.0930  
G01 X-2.3445 Y1.0965  
G01 X-2.4570 Y1.2090  
G01 X-2.4598 Y1.2131  
G01 X-2.4617 Y1.2177  
G01 X-2.4626 Y1.2225  
G01 X-2.4626 Y1.8499  
G01 X-2.5775 Y1.8499  
G01 X-2.5823 Y1.8508  
G01 X-2.5869 Y1.8527  
G01 X-2.5910 Y1.8555  
G01 X-2.6250 Y1.8894  
G01 X-2.8247 Y1.6897  
G01 X-2.8229 Y1.6884  
G01 X-2.8173 Y1.6828  
G01 X-2.8126 Y1.6764  
G01 X-2.8090 Y1.6693  
G01 X-2.8066 Y1.6618  
G01 X-2.8054 Y1.6540  
G01 X-2.8054 Y1.6460  
G01 X-2.8066 Y1.6382  
G01 X-2.8090 Y1.6307  
G01 X-2.8126 Y1.6236  
G01 X-2.8173 Y1.6172  
G01 X-2.8229 Y1.6116  
G01 X-2.8293 Y1.6069  
G01 X-2.8364 Y1.6033  
G01 X-2.8439 Y1.6008  
G01 X-2.8518 Y1.5996  
G01 X-2.9482 Y1.5996  
G01 X-2.9561 Y1.6008  
G01 X-2.9636 Y1.6033  
G01 X-2.9707 Y1.6069  
G01 X-2.9771 Y1.6116  
G01 X-2.9827 Y1.6172  
G01 X-2.9874 Y1.6236  
G01 X-2.9910 Y1.6307  
G01 X-2.9934 Y1.6382  
G01 X-2.9946 Y1.6460  
G01 X-2.9946 Y1.6540  
G01 X-2.9934 Y1.6618  
G01 X-2.9910 Y1.6693  
G01 X-2.9874 Y1.6764  
G01 X-2.9827 Y1.6828  
G01 X-2.9771 Y1.6884  
G01 X-2.9707 Y1.6931  
G01 X-2.9636 Y1.6967  
G01 X-2.9561 Y1.6992  
G01 X-2.9482 Y1.7004  
G01 X-2.8852 Y1.7004  
G01 X-2.6606 Y1.9250  
G01 X-2.8500 Y2.1144  
G01 X-2.9679 Y1.9966  
G01 X-2.9679 Y1.9867  
G01 X-2.9867 Y1.9679  
G01 X-3.0133 Y1.9679  
G01 X-3.0321 Y1.9867  
G01 X-3.0321 Y2.0133  
G01 X-3.0133 Y2.0321  
G01 X-3.0034 Y2.0321  
G01 X-2.8695 Y2.1660  
G01 X-2.8278 Y2.2078  
G01 X-2.8285 Y2.2088  
G01 X-2.8309 Y2.2146  
G01 X-2.8321 Y2.2208  
G01 X-2.8321 Y2.2466  
G01 X-2.8348 Y2.2506  
G01 X-2.8367 Y2.2552  
G01 X-2.8376 Y2.2600  
G01 X-2.8376 Y2.2650  
G01 X-2.8367 Y2.2698  
G01 X-2.8348 Y2.2744  
G01 X-2.8321 Y2.2784  
G01 X-2.8321 Y2.2792  
G01 X-2.8309 Y2.2854  
G01 X-2.8285 Y2.2912  
G01 X-2.8250 Y2.2965  
G01 X-2.8205 Y2.3010  
G01 X-2.8152 Y2.3045  
G01 X-2.8094 Y2.3069  
G01 X-2.8032 Y2.3081  
G01 X-2.8024 Y2.3081  
G01 X-2.7410 Y2.3695  
G01 X-2.7369 Y2.3723  
G01 X-2.7323 Y2.3742  
G01 X-2.7275 Y2.3751  
G01 X-2.4725 Y2.3751  
G01 X-2.4677 Y2.3742  
G01 X-2.4631 Y2.3723  
G01 X-2.4590 Y2.3695  
G01 X-2.4555 Y2.3660  
G01 X-2.3976 Y2.3081  
G01 X-2.3968 Y2.3081  
G01 X-2.3906 Y2.3069  
G01 X-2.3848 Y2.3045  
G01 X-2.3795 Y2.3010  
G01 X-2.3750 Y2.2965  
G01 X-2.3715 Y2.2912  
G01 X-2.3691 Y2.2854  
G01 X-2.3679 Y2.2792  
G01 X-2.3679 Y2.2284  
G01 X-2.3146 Y2.1751  
G01 X-2.2854 Y2.1751  
G01 X-2.2321 Y2.2284  
G01 X-2.2321 Y2.2792  
G01 X-2.2309 Y2.2854  
G01 X-2.2285 Y2.2912  
G01 X-2.2250 Y2.2965  
G01 X-2.2205 Y2.3010  
G01 X-2.2152 Y2.3045  
G01 X-2.2094 Y2.3069  
G01 X-2.2032 Y2.3081  
G01 X-2.1968 Y2.3081  
G01 X-2.1906 Y2.3069  
G01 X-2.1848 Y2.3045  
G01 X-2.1795 Y2.3010  
G01 X-2.1750 Y2.2965  
G01 X-2.1715 Y2.2912  
G01 X-2.1691 Y2.2854  
G01 X-2.1679 Y2.2792  
G01 X-2.1679 Y2.2208  
G01 X-2.1691 Y2.2146  
G01 X-2.1715 Y2.2088  
G01 X-2.1750 Y2.2035  
G01 X-2.1795 Y2.1990  
G01 X-2.1848 Y2.1955  
G01 X-2.1906 Y2.1931  
G01 X-2.1968 Y2.1919  
G01 X-2.1976 Y2.1919  
G01 X-2.2555 Y2.1340  
G01 X-2.2590 Y2.1305  
G01 X-2.2631 Y2.1277  
G01 X-2.2677 Y2.1258  
G01 X-2.2725 Y2.1249  
G01 X-2.3275 Y2.1249  
G01 X-2.3323 Y2.1258  
G01 X-2.3369 Y2.1277  
G01 X-2.3410 Y2.1305  
G01 X-2.4024 Y2.1919  
G01 X-2.4032 Y2.1919  
G01 X-2.4094 Y2.1931  
G01 X-2.4152 Y2.1955  
G01 X-2.4205 Y2.1990  
G01 X-2.4250 Y2.2035  
G01 X-2.4285 Y2.2088  
G01 X-2.4309 Y2.2146  
G01 X-2.4321 Y2.2208  
G01 X-2.4321 Y2.2466  
G01 X-2.4348 Y2.2506  
G01 X-2.4367 Y2.2552  
G01 X-2.4376 Y2.2600  
G01 X-2.4376 Y2.2771  
G01 X-2.4854 Y2.3249  
G01 X-2.7146 Y2.3249  
G01 X-2.7679 Y2.2716  
G01 X-2.7679 Y2.2208  
G01 X-2.7691 Y2.2146  
G01 X-2.7715 Y2.2088  
G01 X-2.7749 Y2.2038  
G01 X-2.7749 Y2.1975  
G01 X-2.7758 Y2.1927  
G01 X-2.7777 Y2.1881  
G01 X-2.7805 Y2.1840  
G01 X-2.8144 Y2.1500  
G01 X-2.6090 Y1.9445  
G01 X-2.6055 Y1.9410  
G01 X-2.5646 Y1.9001  
G01 X-2.1729 Y1.9001  
G01 X-2.1251 Y1.9479  
G01 X-2.1251 Y2.0170  
G01 X-2.1411 Y2.0330  
G01 X-2.1411 Y2.0670  
G01 X-2.1170 Y2.0911  
G01 X-2.0830 Y2.0911  
G01 X-2.0589 Y2.0670  
G01 X-2.0589 Y2.0330  
G01 X-2.0749 Y2.0170  
G01 X-2.0749 Y1.9350  
G01 X-2.0758 Y1.9302  
G01 X-2.0777 Y1.9256  
G01 X-2.0805 Y1.9215  
G01 X-2.1465 Y1.8555  
G01 X-2.1506 Y1.8527  
G01 X-2.1552 Y1.8508  
G01 X-2.1600 Y1.8499  
G01 X-2.4124 Y1.8499  
G01 X-2.4124 Y1.2354  
G01 X-2.3146 Y1.1376  
G01 X-2.2854 Y1.1376  
G01 X-2.2420 Y1.1810  
G01 X-2.2431 Y1.1821  
G01 X-2.2431 Y1.2179  
G01 X-2.2179 Y1.2431  
G01 X-2.1821 Y1.2431  
G01 X-2.1641 Y1.2251  
G01 X-2.1359 Y1.2251  
G01 X-2.1179 Y1.2431  
G01 X-2.0821 Y1.2431  
G01 X-2.0641 Y1.2251  
G01 X-2.0359 Y1.2251  
G01 X-2.0251 Y1.2359  
G01 X-2.0251 Y1.2641  
G01 X-2.0431 Y1.2821  
G01 X-2.0431 Y1.3076  
G01 X-2.0500 Y1.3144  
G01 X-2.0569 Y1.3076  
G01 X-2.0569 Y1.2821  
G01 X-2.0821 Y1.2569  
G01 X-2.1179 Y1.2569  
G01 X-2.1359 Y1.2749  
G01 X-2.1641 Y1.2749  
G01 X-2.1821 Y1.2569  
G01 X-2.2179 Y1.2569  
G01 X-2.2431 Y1.2821  
G01 X-2.2431 Y1.3179  
G01 X-2.2179 Y1.3431  
G01 X-2.1821 Y1.3431  
G01 X-2.1641 Y1.3251  
G01 X-2.1359 Y1.3251  
G01 X-2.1179 Y1.3431  
G01 X-2.0924 Y1.3431  
G01 X-2.0695 Y1.3660  
G01 X-2.0660 Y1.3695  
G01 X-1.8660 Y1.5695  
G01 X-1.8619 Y1.5723  
G01 X-1.8573 Y1.5742  
G01 X-1.8525 Y1.5751  
G01 X-1.8501 Y1.5751  
G01 X-1.8501 Y1.7775  
G01 X-1.8492 Y1.7823  
G01 X-1.8473 Y1.7869  
G01 X-1.8445 Y1.7910  
G01 X-1.7945 Y1.8410  
G01 X-1.7910 Y1.8445  
G01 X-1.7869 Y1.8473  
G01 X-1.7823 Y1.8492  
G01 X-1.7775 Y1.8501  
G01 X-1.3475 Y1.8501  
G01 X-1.3427 Y1.8492  
G01 X-1.3382 Y1.8473  
G01 X-1.2695 Y1.9160  
G01 X-1.2660 Y1.9195  
G01 X-1.2619 Y1.9223  
G01 X-1.2573 Y1.9242  
G01 X-1.2525 Y1.9251  
G01 X-1.1703 Y1.9251  
G01 X-1.1633 Y1.9321  
G01 X-1.1534 Y1.9321  
G01 X-1.1001 Y1.9854  
G01 X-1.1001 Y2.4249  
G01 X-1.4021 Y2.4249  
G01 X-1.4965 Y2.3305  
G01 X-1.5006 Y2.3277  
G01 X-1.5052 Y2.3258  
G01 X-1.5100 Y2.3249  
G01 X-1.6698 Y2.3249  
G01 X-1.6838 Y2.3109  
G01 X-1.7162 Y2.3109  
G01 X-1.7391 Y2.3338  
G01 X-1.7391 Y2.3662  
G01 X-1.7162 Y2.3891  
G01 X-1.6838 Y2.3891  
G01 X-1.6698 Y2.3751  
G01 X-1.5229 Y2.3751  
G01 X-1.4320 Y2.4660  
G01 X-1.4285 Y2.4695  
G01 X-1.4244 Y2.4723  
G01 X-1.4198 Y2.4742  
G01 X-1.4150 Y2.4751  
G01 X-0.9979 Y2.4751  
G01 X-0.8904 Y2.5827  
G01 X-0.8951 Y2.5875  
G01 X-0.8951 Y2.6125  
G01 X-0.8775 Y2.6301  
G01 X-0.8525 Y2.6301  
G01 X-0.8475 Y2.6251  
G01 X-0.6604 Y2.6251  
G01 X-0.5491 Y2.7364  
G01 X-0.5491 Y2.7704  
G01 X-0.5204 Y2.7991  
G01 X-0.4796 Y2.7991  
G01 X-0.4509 Y2.7704  
G01 X-0.4509 Y2.7296  
G01 X-0.4796 Y2.7009  
G01 X-0.5136 Y2.7009  
G01 X-0.6340 Y2.5805  
G01 X-0.6381 Y2.5777  
G01 X-0.6427 Y2.5758  
G01 X-0.6475 Y2.5749  
G01 X-0.8282 Y2.5749  
G01 X-0.8285 Y2.5745  
G01 X-0.8291 Y2.5733  
G01 X-0.8298 Y2.5724  
G01 X-0.8305 Y2.5715  
G01 X-0.8314 Y2.5705  
G01 X-0.8323 Y2.5695  
G01 X-0.8332 Y2.5688  
G01 X-0.9715 Y2.4305  
G01 X-0.9756 Y2.4277  
G01 X-0.9802 Y2.4258  
G01 X-0.9850 Y2.4249  
G01 X-1.0499 Y2.4249  
G01 X-1.0499 Y1.9725  
G01 X-1.0508 Y1.9677  
G01 X-1.0527 Y1.9631  
G01 X-1.0555 Y1.9590  
G01 X-1.1179 Y1.8966  
G01 X-1.1179 Y1.8867  
G01 X-1.1367 Y1.8679  
G01 X-1.1633 Y1.8679  
G01 X-1.1703 Y1.8749  
G01 X-1.2396 Y1.8749  
G01 X-1.3180 Y1.7965  
G01 X-1.3840 Y1.7305  
G01 X-1.3881 Y1.7277  
G01 X-1.3927 Y1.7258  
G01 X-1.3975 Y1.7249  
G01 X-1.4298 Y1.7249  
G01 X-1.4348 Y1.7215  
G01 X-1.4406 Y1.7191  
G01 X-1.4468 Y1.7179  
G01 X-1.4532 Y1.7179  
G01 X-1.4594 Y1.7191  
G01 X-1.4652 Y1.7215  
G01 X-1.4705 Y1.7250  
G01 X-1.4750 Y1.7295  
G01 X-1.4785 Y1.7348  
G01 X-1.4809 Y1.7406  
G01 X-1.4821 Y1.7468  
G01 X-1.4821 Y1.7532  
G01 X-1.4809 Y1.7594  
G01 X-1.4785 Y1.7652  
G01 X-1.4750 Y1.7705  
G01 X-1.4705 Y1.7750  
G01 X-1.4652 Y1.7785  
G01 X-1.4594 Y1.7809  
G01 X-1.4532 Y1.7821  
G01 X-1.4468 Y1.7821  
G01 X-1.4406 Y1.7809  
G01 X-1.4348 Y1.7785  
G01 X-1.4298 Y1.7751  
G01 X-1.4104 Y1.7751  
G01 X-1.3857 Y1.7999  
G01 X-1.7646 Y1.7999  
G01 X-1.7999 Y1.7646  
G01 X-1.7999 Y1.5751  
G01 X-1.7203 Y1.5751  
G01 X-1.7133 Y1.5821  
G01 X-1.6867 Y1.5821  
G01 X-1.6679 Y1.5633  
G01 X-1.6679 Y1.5534  
G01 X-1.6146 Y1.5001  
G01 X-1.2475 Y1.5001  
G01 X-1.2427 Y1.4992  
G01 X-1.2381 Y1.4973  
G01 X-1.2340 Y1.4945  
G01 X-1.2305 Y1.4910  
G01 X-0.9775 Y1.2380  
G01 X-0.9771 Y1.2384  
G01 X-0.9707 Y1.2431  
G01 X-0.9636 Y1.2467  
G01 X-0.9561 Y1.2492  
G01 X-0.9482 Y1.2504  
G01 X-0.8518 Y1.2504  
G01 X-0.8439 Y1.2492  
G01 X-0.8364 Y1.2467  
G01 X-0.8293 Y1.2431  
G01 X-0.8229 Y1.2384  
G01 X-0.8173 Y1.2328  
G01 X-0.8126 Y1.2264  
G01 X-0.8120 Y1.2251  
G01 X-0.6203 Y1.2251  
G01 X-0.6133 Y1.2321  
G01 X-0.6034 Y1.2321  
G01 X-0.4251 Y1.4104  
G01 X-0.4251 Y1.4814  
G01 X-0.4284 Y1.4814  
G01 X-0.4686 Y1.5216  
G01 X-0.4686 Y1.5784  
G01 X-0.4284 Y1.6186  
G01 X-0.3716 Y1.6186  
G01 X-0.3314 Y1.5784  
G01 X-0.3314 Y1.5216  
G01 X-0.3716 Y1.4814  
G01 X-0.3749 Y1.4814  
G01 X-0.3749 Y1.3975  
G01 X-0.3758 Y1.3927  
G01 X-0.3777 Y1.3881  
G01 X-0.3805 Y1.3840  
G01 X-0.5679 Y1.1966  
G01 X-0.5679 Y1.1867  
G00 Z0.1000  
G00 X-0.6679 Y1.3867  
G01 Z-0.0021 F10    
G01 X-0.6867 Y1.3679  F20    
G01 X-0.7133 Y1.3679  
G01 X-0.7203 Y1.3749  
G01 X-0.8797 Y1.3749  
G01 X-0.8867 Y1.3679  
G01 X-0.9133 Y1.3679  
G01 X-0.9321 Y1.3867  
G01 X-0.9321 Y1.4133  
G01 X-0.9133 Y1.4321  
G01 X-0.8867 Y1.4321  
G01 X-0.8797 Y1.4251  
G01 X-0.7203 Y1.4251  
G01 X-0.7133 Y1.4321  
G01 X-0.7126 Y1.4321  
G01 X-0.7126 Y1.5150  
G01 X-0.7117 Y1.5198  
G01 X-0.7098 Y1.5244  
G01 X-0.7070 Y1.5285  
G01 X-0.4663 Y1.7692  
G01 X-0.4686 Y1.7716  
G01 X-0.4686 Y1.8284  
G01 X-0.4284 Y1.8686  
G01 X-0.3716 Y1.8686  
G01 X-0.3314 Y1.8284  
G01 X-0.3314 Y1.7716  
G01 X-0.3716 Y1.7314  
G01 X-0.4284 Y1.7314  
G01 X-0.4308 Y1.7337  
G01 X-0.6624 Y1.5021  
G01 X-0.6624 Y1.4100  
G01 X-0.6633 Y1.4052  
G01 X-0.6652 Y1.4006  
G01 X-0.6679 Y1.3966  
G01 X-0.6679 Y1.3867  
G00 Z0.1000  
G00 X-0.6679 Y1.7867  
G01 Z-0.0021 F10    
G01 X-0.6867 Y1.7679  F20    
G01 X-0.6966 Y1.7679  
G01 X-0.8715 Y1.5930  
G01 X-0.8756 Y1.5902  
G01 X-0.8802 Y1.5883  
G01 X-0.8850 Y1.5874  
G01 X-1.5150 Y1.5874  
G01 X-1.5198 Y1.5883  
G01 X-1.5244 Y1.5902  
G01 X-1.5285 Y1.5930  
G01 X-1.6535 Y1.7179  
G01 X-1.6594 Y1.7191  
G01 X-1.6652 Y1.7215  
G01 X-1.6705 Y1.7250  
G01 X-1.6750 Y1.7295  
G01 X-1.6785 Y1.7348  
G01 X-1.6809 Y1.7406  
G01 X-1.6821 Y1.7468  
G01 X-1.6821 Y1.7532  
G01 X-1.6809 Y1.7594  
G01 X-1.6785 Y1.7652  
G01 X-1.6750 Y1.7705  
G01 X-1.6705 Y1.7750  
G01 X-1.6652 Y1.7785  
G01 X-1.6594 Y1.7809  
G01 X-1.6532 Y1.7821  
G01 X-1.6468 Y1.7821  
G01 X-1.6406 Y1.7809  
G01 X-1.6348 Y1.7785  
G01 X-1.6295 Y1.7750  
G01 X-1.6250 Y1.7705  
G01 X-1.6215 Y1.7652  
G01 X-1.6191 Y1.7594  
G01 X-1.6179 Y1.7535  
G01 X-1.5021 Y1.6376  
G01 X-0.8979 Y1.6376  
G01 X-0.7321 Y1.8034  
G01 X-0.7321 Y1.8133  
G01 X-0.7251 Y1.8203  
G01 X-0.7251 Y1.9896  
G01 X-0.7979 Y2.0624  
G01 X-0.8156 Y2.0624  
G01 X-0.8376 Y2.0844  
G01 X-0.8376 Y2.1156  
G01 X-0.8156 Y2.1376  
G01 X-0.7844 Y2.1376  
G01 X-0.7624 Y2.1156  
G01 X-0.7624 Y2.0979  
G01 X-0.6805 Y2.0160  
G01 X-0.6777 Y2.0119  
G01 X-0.6758 Y2.0073  
G01 X-0.6749 Y2.0025  
G01 X-0.6749 Y1.8203  
G01 X-0.6679 Y1.8133  
G01 X-0.6679 Y1.7867  
G00 Z0.1000  
G00 X-0.8679 Y1.7867  
G01 Z-0.0021 F10    
G01 X-0.8867 Y1.7679  F20    
G01 X-0.8966 Y1.7679  
G01 X-0.9340 Y1.7305  
G01 X-0.9381 Y1.7277  
G01 X-0.9427 Y1.7258  
G01 X-0.9475 Y1.7249  
G01 X-1.2797 Y1.7249  
G01 X-1.2867 Y1.7179  
G01 X-1.2966 Y1.7179  
G01 X-1.3590 Y1.6555  
G01 X-1.3631 Y1.6527  
G01 X-1.3677 Y1.6508  
G01 X-1.3725 Y1.6499  
G01 X-1.4775 Y1.6499  
G01 X-1.4823 Y1.6508  
G01 X-1.4869 Y1.6527  
G01 X-1.4910 Y1.6555  
G01 X-1.4945 Y1.6590  
G01 X-1.5535 Y1.7179  
G01 X-1.5594 Y1.7191  
G01 X-1.5652 Y1.7215  
G01 X-1.5705 Y1.7250  
G01 X-1.5750 Y1.7295  
G01 X-1.5785 Y1.7348  
G01 X-1.5809 Y1.7406  
G01 X-1.5821 Y1.7468  
G01 X-1.5821 Y1.7532  
G01 X-1.5809 Y1.7594  
G01 X-1.5785 Y1.7652  
G01 X-1.5750 Y1.7705  
G01 X-1.5705 Y1.7750  
G01 X-1.5652 Y1.7785  
G01 X-1.5594 Y1.7809  
G01 X-1.5532 Y1.7821  
G01 X-1.5468 Y1.7821  
G01 X-1.5406 Y1.7809  
G01 X-1.5348 Y1.7785  
G01 X-1.5295 Y1.7750  
G01 X-1.5250 Y1.7705  
G01 X-1.5215 Y1.7652  
G01 X-1.5191 Y1.7594  
G01 X-1.5179 Y1.7535  
G01 X-1.4646 Y1.7001  
G01 X-1.3854 Y1.7001  
G01 X-1.3321 Y1.7534  
G01 X-1.3321 Y1.7633  
G01 X-1.3133 Y1.7821  
G01 X-1.2867 Y1.7821  
G01 X-1.2797 Y1.7751  
G01 X-0.9604 Y1.7751  
G01 X-0.9321 Y1.8034  
G01 X-0.9321 Y1.8133  
G01 X-0.9251 Y1.8203  
G01 X-0.9251 Y2.0719  
G01 X-0.9376 Y2.0844  
G01 X-0.9376 Y2.1156  
G01 X-0.9156 Y2.1376  
G01 X-0.8844 Y2.1376  
G01 X-0.8624 Y2.1156  
G01 X-0.8624 Y2.0844  
G01 X-0.8749 Y2.0719  
G01 X-0.8749 Y1.8203  
G01 X-0.8679 Y1.8133  
G01 X-0.8679 Y1.7867  
G00 Z0.1000  
G00 X-1.1179 Y1.9867  
G01 Z-0.0021 F10    
G01 X-1.1367 Y1.9679  F20    
G01 X-1.1466 Y1.9679  
G01 X-1.1506 Y1.9652  
G01 X-1.1552 Y1.9633  
G01 X-1.1600 Y1.9624  
G01 X-1.3146 Y1.9624  
G01 X-1.4055 Y1.8715  
G01 X-1.4090 Y1.8680  
G01 X-1.4131 Y1.8652  
G01 X-1.4177 Y1.8633  
G01 X-1.4225 Y1.8624  
G01 X-2.0521 Y1.8624  
G01 X-2.2247 Y1.6897  
G01 X-2.2229 Y1.6884  
G01 X-2.2173 Y1.6828  
G01 X-2.2126 Y1.6764  
G01 X-2.2090 Y1.6693  
G01 X-2.2066 Y1.6618  
G01 X-2.2054 Y1.6540  
G01 X-2.2054 Y1.6460  
G01 X-2.2066 Y1.6382  
G01 X-2.2090 Y1.6307  
G01 X-2.2126 Y1.6236  
G01 X-2.2173 Y1.6172  
G01 X-2.2229 Y1.6116  
G01 X-2.2293 Y1.6069  
G01 X-2.2364 Y1.6033  
G01 X-2.2439 Y1.6008  
G01 X-2.2518 Y1.5996  
G01 X-2.2749 Y1.5996  
G01 X-2.2749 Y1.3359  
G01 X-2.2569 Y1.3179  
G01 X-2.2569 Y1.2821  
G01 X-2.2749 Y1.2641  
G01 X-2.2749 Y1.2359  
G01 X-2.2569 Y1.2179  
G01 X-2.2569 Y1.1821  
G01 X-2.2821 Y1.1569  
G01 X-2.3179 Y1.1569  
G01 X-2.3431 Y1.1821  
G01 X-2.3431 Y1.2179  
G01 X-2.3251 Y1.2359  
G01 X-2.3251 Y1.2641  
G01 X-2.3431 Y1.2821  
G01 X-2.3431 Y1.3179  
G01 X-2.3251 Y1.3359  
G01 X-2.3251 Y1.5996  
G01 X-2.3482 Y1.5996  
G01 X-2.3561 Y1.6008  
G01 X-2.3636 Y1.6033  
G01 X-2.3707 Y1.6069  
G01 X-2.3771 Y1.6116  
G01 X-2.3827 Y1.6172  
G01 X-2.3874 Y1.6236  
G01 X-2.3910 Y1.6307  
G01 X-2.3934 Y1.6382  
G01 X-2.3946 Y1.6460  
G01 X-2.3946 Y1.6540  
G01 X-2.3934 Y1.6618  
G01 X-2.3910 Y1.6693  
G01 X-2.3874 Y1.6764  
G01 X-2.3827 Y1.6828  
G01 X-2.3771 Y1.6884  
G01 X-2.3707 Y1.6931  
G01 X-2.3636 Y1.6967  
G01 X-2.3561 Y1.6992  
G01 X-2.3482 Y1.7004  
G01 X-2.2852 Y1.7004  
G01 X-2.0785 Y1.9070  
G01 X-2.0744 Y1.9098  
G01 X-2.0698 Y1.9117  
G01 X-2.0650 Y1.9126  
G01 X-1.4354 Y1.9126  
G01 X-1.3410 Y2.0070  
G01 X-1.3369 Y2.0098  
G01 X-1.3323 Y2.0117  
G01 X-1.3275 Y2.0126  
G01 X-1.1821 Y2.0126  
G01 X-1.1821 Y2.0133  
G01 X-1.1751 Y2.0203  
G01 X-1.1751 Y2.0896  
G01 X-1.2854 Y2.1999  
G01 X-1.3146 Y2.1999  
G01 X-1.4249 Y2.0896  
G01 X-1.4249 Y2.0702  
G01 X-1.4215 Y2.0652  
G01 X-1.4191 Y2.0594  
G01 X-1.4179 Y2.0532  
G01 X-1.4179 Y2.0468  
G01 X-1.4191 Y2.0406  
G01 X-1.4215 Y2.0348  
G01 X-1.4250 Y2.0295  
G01 X-1.4295 Y2.0250  
G01 X-1.4348 Y2.0215  
G01 X-1.4406 Y2.0191  
G01 X-1.4468 Y2.0179  
G01 X-1.4532 Y2.0179  
G01 X-1.4594 Y2.0191  
G01 X-1.4652 Y2.0215  
G01 X-1.4705 Y2.0250  
G01 X-1.4750 Y2.0295  
G01 X-1.4785 Y2.0348  
G01 X-1.4809 Y2.0406  
G01 X-1.4821 Y2.0468  
G01 X-1.4821 Y2.0532  
G01 X-1.4809 Y2.0594  
G01 X-1.4785 Y2.0652  
G01 X-1.4751 Y2.0702  
G01 X-1.4751 Y2.1025  
G01 X-1.4742 Y2.1073  
G01 X-1.4723 Y2.1119  
G01 X-1.4695 Y2.1160  
G01 X-1.4660 Y2.1195  
G01 X-1.3410 Y2.2445  
G01 X-1.3369 Y2.2473  
G01 X-1.3323 Y2.2492  
G01 X-1.3275 Y2.2501  
G01 X-1.2725 Y2.2501  
G01 X-1.2677 Y2.2492  
G01 X-1.2631 Y2.2473  
G01 X-1.2590 Y2.2445  
G01 X-1.2555 Y2.2410  
G01 X-1.1305 Y2.1160  
G01 X-1.1277 Y2.1119  
G01 X-1.1258 Y2.1073  
G01 X-1.1249 Y2.1025  
G01 X-1.1249 Y2.0203  
G01 X-1.1179 Y2.0133  
G01 X-1.1179 Y1.9867  
G00 Z0.1000  
G00 X-1.2805 Y2.0840  
G01 Z-0.0021 F10    
G01 X-1.4055 Y1.9590  F20    
G01 X-1.4090 Y1.9555  
G01 X-1.4131 Y1.9527  
G01 X-1.4177 Y1.9508  
G01 X-1.4225 Y1.9499  
G01 X-1.5775 Y1.9499  
G01 X-1.5823 Y1.9508  
G01 X-1.5869 Y1.9527  
G01 X-1.5910 Y1.9555  
G01 X-1.6535 Y2.0179  
G01 X-1.6594 Y2.0191  
G01 X-1.6652 Y2.0215  
G01 X-1.6702 Y2.0249  
G01 X-1.7298 Y2.0249  
G01 X-1.7348 Y2.0215  
G01 X-1.7406 Y2.0191  
G01 X-1.7468 Y2.0179  
G01 X-1.7532 Y2.0179  
G01 X-1.7594 Y2.0191  
G01 X-1.7652 Y2.0215  
G01 X-1.7705 Y2.0250  
G01 X-1.7750 Y2.0295  
G01 X-1.7785 Y2.0348  
G01 X-1.7809 Y2.0406  
G01 X-1.7821 Y2.0465  
G01 X-1.8354 Y2.0999  
G01 X-2.1271 Y2.0999  
G01 X-2.1965 Y2.0305  
G01 X-2.2006 Y2.0277  
G01 X-2.2052 Y2.0258  
G01 X-2.2100 Y2.0249  
G01 X-2.2670 Y2.0249  
G01 X-2.2830 Y2.0089  
G01 X-2.3170 Y2.0089  
G01 X-2.3411 Y2.0330  
G01 X-2.3411 Y2.0670  
G01 X-2.3170 Y2.0911  
G01 X-2.2830 Y2.0911  
G01 X-2.2670 Y2.0751  
G01 X-2.2229 Y2.0751  
G01 X-2.1570 Y2.1410  
G01 X-2.1535 Y2.1445  
G01 X-2.1494 Y2.1473  
G01 X-2.1448 Y2.1492  
G01 X-2.1400 Y2.1501  
G01 X-1.8225 Y2.1501  
G01 X-1.8177 Y2.1492  
G01 X-1.8131 Y2.1473  
G01 X-1.8090 Y2.1445  
G01 X-1.7465 Y2.0821  
G01 X-1.7406 Y2.0809  
G01 X-1.7348 Y2.0785  
G01 X-1.7298 Y2.0751  
G01 X-1.6702 Y2.0751  
G01 X-1.6652 Y2.0785  
G01 X-1.6594 Y2.0809  
G01 X-1.6532 Y2.0821  
G01 X-1.6468 Y2.0821  
G01 X-1.6406 Y2.0809  
G01 X-1.6348 Y2.0785  
G01 X-1.6295 Y2.0750  
G01 X-1.6250 Y2.0705  
G01 X-1.6215 Y2.0652  
G01 X-1.6191 Y2.0594  
G01 X-1.6179 Y2.0535  
G01 X-1.5646 Y2.0001  
G01 X-1.4354 Y2.0001  
G01 X-1.3251 Y2.1104  
G01 X-1.3251 Y2.1297  
G01 X-1.3321 Y2.1367  
G01 X-1.3321 Y2.1633  
G01 X-1.3133 Y2.1821  
G01 X-1.2867 Y2.1821  
G01 X-1.2679 Y2.1633  
G01 X-1.2679 Y2.1367  
G01 X-1.2749 Y2.1297  
G01 X-1.2749 Y2.0975  
G01 X-1.2758 Y2.0927  
G01 X-1.2777 Y2.0881  
G01 X-1.2805 Y2.0840  
G00 Z0.1000  
G00 X-1.3396 Y2.2749  
G01 Z-0.0021 F10    
G01 X-1.5249 Y2.0896  F20    
G01 X-1.5249 Y2.0702  
G01 X-1.5215 Y2.0652  
G01 X-1.5191 Y2.0594  
G01 X-1.5179 Y2.0532  
G01 X-1.5179 Y2.0468  
G01 X-1.5191 Y2.0406  
G01 X-1.5215 Y2.0348  
G01 X-1.5250 Y2.0295  
G01 X-1.5295 Y2.0250  
G01 X-1.5348 Y2.0215  
G01 X-1.5406 Y2.0191  
G01 X-1.5468 Y2.0179  
G01 X-1.5532 Y2.0179  
G01 X-1.5594 Y2.0191  
G01 X-1.5652 Y2.0215  
G01 X-1.5705 Y2.0250  
G01 X-1.5750 Y2.0295  
G01 X-1.5785 Y2.0348  
G01 X-1.5809 Y2.0406  
G01 X-1.5821 Y2.0468  
G01 X-1.5821 Y2.0532  
G01 X-1.5809 Y2.0594  
G01 X-1.5785 Y2.0652  
G01 X-1.5751 Y2.0702  
G01 X-1.5751 Y2.1025  
G01 X-1.5742 Y2.1073  
G01 X-1.5723 Y2.1119  
G01 X-1.5695 Y2.1160  
G01 X-1.3856 Y2.3000  
G01 X-1.3964 Y2.3109  
G01 X-1.4162 Y2.3109  
G01 X-1.4391 Y2.3338  
G01 X-1.4391 Y2.3662  
G01 X-1.4162 Y2.3891  
G01 X-1.3838 Y2.3891  
G01 X-1.3609 Y2.3662  
G01 X-1.3609 Y2.3464  
G01 X-1.3396 Y2.3251  
G01 X-1.2203 Y2.3251  
G01 X-1.2133 Y2.3321  
G01 X-1.1867 Y2.3321  
G01 X-1.1679 Y2.3133  
G01 X-1.1679 Y2.2867  
G01 X-1.1867 Y2.2679  
G01 X-1.2133 Y2.2679  
G01 X-1.2203 Y2.2749  
G01 X-1.3396 Y2.2749  
G00 Z0.1000  
G00 X-1.3680 Y2.4965  
G01 Z-0.0021 F10    
G01 X-1.3715 Y2.4930  F20    
G01 X-1.3756 Y2.4902  
G01 X-1.3802 Y2.4883  
G01 X-1.3850 Y2.4874  
G01 X-1.5396 Y2.4874  
G01 X-1.6180 Y2.4090  
G01 X-1.6215 Y2.4055  
G01 X-1.6256 Y2.4027  
G01 X-1.6302 Y2.4008  
G01 X-1.6350 Y2.3999  
G01 X-1.9146 Y2.3999  
G01 X-2.0679 Y2.2466  
G01 X-2.0679 Y2.2208  
G01 X-2.0691 Y2.2146  
G01 X-2.0715 Y2.2088  
G01 X-2.0750 Y2.2035  
G01 X-2.0795 Y2.1990  
G01 X-2.0848 Y2.1955  
G01 X-2.0906 Y2.1931  
G01 X-2.0968 Y2.1919  
G01 X-2.1032 Y2.1919  
G01 X-2.1094 Y2.1931  
G01 X-2.1152 Y2.1955  
G01 X-2.1205 Y2.1990  
G01 X-2.1250 Y2.2035  
G01 X-2.1285 Y2.2088  
G01 X-2.1309 Y2.2146  
G01 X-2.1321 Y2.2208  
G01 X-2.1321 Y2.2792  
G01 X-2.1309 Y2.2854  
G01 X-2.1285 Y2.2912  
G01 X-2.1250 Y2.2965  
G01 X-2.1205 Y2.3010  
G01 X-2.1152 Y2.3045  
G01 X-2.1094 Y2.3069  
G01 X-2.1032 Y2.3081  
G01 X-2.0968 Y2.3081  
G01 X-2.0906 Y2.3069  
G01 X-2.0848 Y2.3045  
G01 X-2.0826 Y2.3030  
G01 X-1.9410 Y2.4445  
G01 X-1.9369 Y2.4473  
G01 X-1.9323 Y2.4492  
G01 X-1.9275 Y2.4501  
G01 X-1.6479 Y2.4501  
G01 X-1.5660 Y2.5320  
G01 X-1.5619 Y2.5348  
G01 X-1.5573 Y2.5367  
G01 X-1.5525 Y2.5376  
G01 X-1.3979 Y2.5376  
G01 X-0.9321 Y3.0034  
G01 X-0.9321 Y3.0133  
G01 X-0.9133 Y3.0321  
G01 X-0.8867 Y3.0321  
G01 X-0.8679 Y3.0133  
G01 X-0.8679 Y2.9867  
G01 X-0.8867 Y2.9679  
G01 X-0.8966 Y2.9679  
G01 X-1.3680 Y2.4965  
G00 Z0.1000  
G00 X-1.6305 Y2.5340  
G01 Z-0.0021 F10    
G01 X-1.6340 Y2.5305  F20    
G01 X-1.6381 Y2.5277  
G01 X-1.6427 Y2.5258  
G01 X-1.6475 Y2.5249  
G01 X-2.0679 Y2.5249  
G01 X-2.0679 Y2.5208  
G01 X-2.0691 Y2.5146  
G01 X-2.0715 Y2.5088  
G01 X-2.0750 Y2.5035  
G01 X-2.0795 Y2.4990  
G01 X-2.0848 Y2.4955  
G01 X-2.0906 Y2.4931  
G01 X-2.0968 Y2.4919  
G01 X-2.1032 Y2.4919  
G01 X-2.1094 Y2.4931  
G01 X-2.1152 Y2.4955  
G01 X-2.1205 Y2.4990  
G01 X-2.1250 Y2.5035  
G01 X-2.1285 Y2.5088  
G01 X-2.1309 Y2.5146  
G01 X-2.1321 Y2.5208  
G01 X-2.1321 Y2.5792  
G01 X-2.1309 Y2.5854  
G01 X-2.1285 Y2.5912  
G01 X-2.1250 Y2.5965  
G01 X-2.1205 Y2.6010  
G01 X-2.1152 Y2.6045  
G01 X-2.1094 Y2.6069  
G01 X-2.1032 Y2.6081  
G01 X-2.0968 Y2.6081  
G01 X-2.0906 Y2.6069  
G01 X-2.0848 Y2.6045  
G01 X-2.0795 Y2.6010  
G01 X-2.0750 Y2.5965  
G01 X-2.0715 Y2.5912  
G01 X-2.0691 Y2.5854  
G01 X-2.0679 Y2.5792  
G01 X-2.0679 Y2.5751  
G01 X-1.6604 Y2.5751  
G01 X-1.2160 Y3.0195  
G01 X-1.2119 Y3.0223  
G01 X-1.2073 Y3.0242  
G01 X-1.2025 Y3.0251  
G01 X-1.1703 Y3.0251  
G01 X-1.1633 Y3.0321  
G01 X-1.1367 Y3.0321  
G01 X-1.1179 Y3.0133  
G01 X-1.1179 Y2.9867  
G01 X-1.1367 Y2.9679  
G01 X-1.1633 Y2.9679  
G01 X-1.1703 Y2.9749  
G01 X-1.1896 Y2.9749  
G01 X-1.6305 Y2.5340  
G00 Z0.1000  
G00 X-1.7805 Y2.6340  
G01 Z-0.0021 F10    
G01 X-1.7840 Y2.6305  F20    
G01 X-1.7881 Y2.6277  
G01 X-1.7927 Y2.6258  
G01 X-1.7975 Y2.6249  
G01 X-2.1146 Y2.6249  
G01 X-2.1679 Y2.5716  
G01 X-2.1679 Y2.5208  
G01 X-2.1691 Y2.5146  
G01 X-2.1715 Y2.5088  
G01 X-2.1750 Y2.5035  
G01 X-2.1795 Y2.4990  
G01 X-2.1848 Y2.4955  
G01 X-2.1906 Y2.4931  
G01 X-2.1968 Y2.4919  
G01 X-2.2032 Y2.4919  
G01 X-2.2094 Y2.4931  
G01 X-2.2152 Y2.4955  
G01 X-2.2205 Y2.4990  
G01 X-2.2250 Y2.5035  
G01 X-2.2285 Y2.5088  
G01 X-2.2309 Y2.5146  
G01 X-2.2321 Y2.5208  
G01 X-2.2321 Y2.5792  
G01 X-2.2309 Y2.5854  
G01 X-2.2285 Y2.5912  
G01 X-2.2250 Y2.5965  
G01 X-2.2205 Y2.6010  
G01 X-2.2152 Y2.6045  
G01 X-2.2094 Y2.6069  
G01 X-2.2032 Y2.6081  
G01 X-2.2024 Y2.6081  
G01 X-2.1410 Y2.6695  
G01 X-2.1369 Y2.6723  
G01 X-2.1323 Y2.6742  
G01 X-2.1275 Y2.6751  
G01 X-1.8104 Y2.6751  
G01 X-1.4660 Y3.0195  
G01 X-1.4619 Y3.0223  
G01 X-1.4573 Y3.0242  
G01 X-1.4525 Y3.0251  
G01 X-1.4203 Y3.0251  
G01 X-1.4133 Y3.0321  
G01 X-1.3867 Y3.0321  
G01 X-1.3679 Y3.0133  
G01 X-1.3679 Y2.9867  
G01 X-1.3867 Y2.9679  
G01 X-1.4133 Y2.9679  
G01 X-1.4203 Y2.9749  
G01 X-1.4396 Y2.9749  
G01 X-1.7805 Y2.6340  
G00 Z0.1000  
G00 X-1.9680 Y2.6965  
G01 Z-0.0021 F10    
G01 X-1.9715 Y2.6930  F20    
G01 X-1.9756 Y2.6902  
G01 X-1.9802 Y2.6883  
G01 X-1.9850 Y2.6874  
G01 X-2.1521 Y2.6874  
G01 X-2.2679 Y2.5716  
G01 X-2.2679 Y2.5208  
G01 X-2.2691 Y2.5146  
G01 X-2.2715 Y2.5088  
G01 X-2.2750 Y2.5035  
G01 X-2.2795 Y2.4990  
G01 X-2.2848 Y2.4955  
G01 X-2.2906 Y2.4931  
G01 X-2.2968 Y2.4919  
G01 X-2.3032 Y2.4919  
G01 X-2.3094 Y2.4931  
G01 X-2.3152 Y2.4955  
G01 X-2.3205 Y2.4990  
G01 X-2.3250 Y2.5035  
G01 X-2.3285 Y2.5088  
G01 X-2.3309 Y2.5146  
G01 X-2.3321 Y2.5208  
G01 X-2.3321 Y2.5792  
G01 X-2.3309 Y2.5854  
G01 X-2.3285 Y2.5912  
G01 X-2.3250 Y2.5965  
G01 X-2.3205 Y2.6010  
G01 X-2.3152 Y2.6045  
G01 X-2.3094 Y2.6069  
G01 X-2.3032 Y2.6081  
G01 X-2.3024 Y2.6081  
G01 X-2.1785 Y2.7320  
G01 X-2.1744 Y2.7348  
G01 X-2.1698 Y2.7367  
G01 X-2.1650 Y2.7376  
G01 X-1.9979 Y2.7376  
G01 X-1.7160 Y3.0195  
G01 X-1.7119 Y3.0223  
G01 X-1.7073 Y3.0242  
G01 X-1.7025 Y3.0251  
G01 X-1.6703 Y3.0251  
G01 X-1.6633 Y3.0321  
G01 X-1.6367 Y3.0321  
G01 X-1.6179 Y3.0133  
G01 X-1.6179 Y2.9867  
G01 X-1.6367 Y2.9679  
G01 X-1.6633 Y2.9679  
G01 X-1.6703 Y2.9749  
G01 X-1.6896 Y2.9749  
G01 X-1.9680 Y2.6965  
G00 Z0.1000  
G00 X-1.9677 Y2.9008  
G01 Z-0.0021 F10    
G01 X-1.9725 Y2.8999  F20    
G01 X-2.0396 Y2.8999  
G01 X-2.3679 Y2.5716  
G01 X-2.3679 Y2.5208  
G01 X-2.3691 Y2.5146  
G01 X-2.3715 Y2.5088  
G01 X-2.3750 Y2.5035  
G01 X-2.3795 Y2.4990  
G01 X-2.3848 Y2.4955  
G01 X-2.3906 Y2.4931  
G01 X-2.3968 Y2.4919  
G01 X-2.4032 Y2.4919  
G01 X-2.4094 Y2.4931  
G01 X-2.4152 Y2.4955  
G01 X-2.4205 Y2.4990  
G01 X-2.4250 Y2.5035  
G01 X-2.4285 Y2.5088  
G01 X-2.4309 Y2.5146  
G01 X-2.4321 Y2.5208  
G01 X-2.4321 Y2.5792  
G01 X-2.4309 Y2.5854  
G01 X-2.4285 Y2.5912  
G01 X-2.4250 Y2.5965  
G01 X-2.4205 Y2.6010  
G01 X-2.4152 Y2.6045  
G01 X-2.4094 Y2.6069  
G01 X-2.4032 Y2.6081  
G01 X-2.4024 Y2.6081  
G01 X-2.0695 Y2.9410  
G01 X-2.0660 Y2.9445  
G01 X-2.0619 Y2.9473  
G01 X-2.0573 Y2.9492  
G01 X-2.0525 Y2.9501  
G01 X-1.9854 Y2.9501  
G01 X-1.9321 Y3.0034  
G01 X-1.9321 Y3.0133  
G01 X-1.9133 Y3.0321  
G01 X-1.8867 Y3.0321  
G01 X-1.8679 Y3.0133  
G01 X-1.8679 Y2.9867  
G01 X-1.8867 Y2.9679  
G01 X-1.8966 Y2.9679  
G01 X-1.9590 Y2.9055  
G01 X-1.9631 Y2.9027  
G01 X-1.9677 Y2.9008  
G00 Z0.1000  
G00 X-2.1179 Y2.9867  
G01 Z-0.0021 F10    
G01 X-2.1367 Y2.9679  F20    
G01 X-2.1466 Y2.9679  
G01 X-2.4749 Y2.6396  
G01 X-2.4749 Y2.5962  
G01 X-2.4715 Y2.5912  
G01 X-2.4691 Y2.5854  
G01 X-2.4679 Y2.5792  
G01 X-2.4679 Y2.5208  
G01 X-2.4691 Y2.5146  
G01 X-2.4715 Y2.5088  
G01 X-2.4750 Y2.5035  
G01 X-2.4795 Y2.4990  
G01 X-2.4848 Y2.4955  
G01 X-2.4906 Y2.4931  
G01 X-2.4968 Y2.4919  
G01 X-2.5032 Y2.4919  
G01 X-2.5094 Y2.4931  
G01 X-2.5152 Y2.4955  
G01 X-2.5205 Y2.4990  
G01 X-2.5250 Y2.5035  
G01 X-2.5285 Y2.5088  
G01 X-2.5309 Y2.5146  
G01 X-2.5321 Y2.5208  
G01 X-2.5321 Y2.5792  
G01 X-2.5309 Y2.5854  
G01 X-2.5285 Y2.5912  
G01 X-2.5251 Y2.5962  
G01 X-2.5251 Y2.6525  
G01 X-2.5242 Y2.6573  
G01 X-2.5223 Y2.6619  
G01 X-2.5195 Y2.6660  
G01 X-2.1821 Y3.0034  
G01 X-2.1821 Y3.0133  
G01 X-2.1633 Y3.0321  
G01 X-2.1367 Y3.0321  
G01 X-2.1179 Y3.0133  
G01 X-2.1179 Y2.9867  
G00 Z0.1000  
G00 X-2.3679 Y2.9867  
G01 Z-0.0021 F10    
G01 X-2.3749 Y2.9797  F20    
G01 X-2.3749 Y2.9600  
G01 X-2.3758 Y2.9552  
G01 X-2.3777 Y2.9506  
G01 X-2.3805 Y2.9465  
G01 X-2.3840 Y2.9430  
G01 X-2.5749 Y2.7521  
G01 X-2.5749 Y2.5962  
G01 X-2.5715 Y2.5912  
G01 X-2.5691 Y2.5854  
G01 X-2.5679 Y2.5792  
G01 X-2.5679 Y2.5208  
G01 X-2.5691 Y2.5146  
G01 X-2.5715 Y2.5088  
G01 X-2.5750 Y2.5035  
G01 X-2.5795 Y2.4990  
G01 X-2.5848 Y2.4955  
G01 X-2.5906 Y2.4931  
G01 X-2.5968 Y2.4919  
G01 X-2.6032 Y2.4919  
G01 X-2.6094 Y2.4931  
G01 X-2.6152 Y2.4955  
G01 X-2.6205 Y2.4990  
G01 X-2.6250 Y2.5035  
G01 X-2.6285 Y2.5088  
G01 X-2.6309 Y2.5146  
G01 X-2.6321 Y2.5208  
G01 X-2.6321 Y2.5792  
G01 X-2.6309 Y2.5854  
G01 X-2.6285 Y2.5912  
G01 X-2.6251 Y2.5962  
G01 X-2.6251 Y2.7650  
G01 X-2.6242 Y2.7698  
G01 X-2.6223 Y2.7744  
G01 X-2.6195 Y2.7785  
G01 X-2.4251 Y2.9729  
G01 X-2.4251 Y2.9797  
G01 X-2.4321 Y2.9867  
G01 X-2.4321 Y3.0133  
G01 X-2.4133 Y3.0321  
G01 X-2.3867 Y3.0321  
G01 X-2.3679 Y3.0133  
G01 X-2.3679 Y2.9867  
G00 Z0.1000  
G00 X-2.6179 Y2.9867  
G01 Z-0.0021 F10    
G01 X-2.6249 Y2.9797  F20    
G01 X-2.6249 Y2.7975  
G01 X-2.6258 Y2.7927  
G01 X-2.6277 Y2.7881  
G01 X-2.6305 Y2.7840  
G01 X-2.6749 Y2.7396  
G01 X-2.6749 Y2.5962  
G01 X-2.6715 Y2.5912  
G01 X-2.6691 Y2.5854  
G01 X-2.6679 Y2.5792  
G01 X-2.6679 Y2.5208  
G01 X-2.6691 Y2.5146  
G01 X-2.6715 Y2.5088  
G01 X-2.6750 Y2.5035  
G01 X-2.6795 Y2.4990  
G01 X-2.6848 Y2.4955  
G01 X-2.6906 Y2.4931  
G01 X-2.6968 Y2.4919  
G01 X-2.7032 Y2.4919  
G01 X-2.7094 Y2.4931  
G01 X-2.7152 Y2.4955  
G01 X-2.7205 Y2.4990  
G01 X-2.7250 Y2.5035  
G01 X-2.7285 Y2.5088  
G01 X-2.7309 Y2.5146  
G01 X-2.7321 Y2.5208  
G01 X-2.7321 Y2.5792  
G01 X-2.7309 Y2.5854  
G01 X-2.7285 Y2.5912  
G01 X-2.7251 Y2.5962  
G01 X-2.7251 Y2.7525  
G01 X-2.7242 Y2.7573  
G01 X-2.7223 Y2.7619  
G01 X-2.7195 Y2.7660  
G01 X-2.7160 Y2.7695  
G01 X-2.6751 Y2.8104  
G01 X-2.6751 Y2.9797  
G01 X-2.6821 Y2.9867  
G01 X-2.6821 Y3.0133  
G01 X-2.6633 Y3.0321  
G01 X-2.6367 Y3.0321  
G01 X-2.6179 Y3.0133  
G01 X-2.6179 Y2.9867  
G00 Z0.1000  
G00 X-2.7805 Y2.9160  
G01 Z-0.0021 F10    
G01 X-2.7777 Y2.9119  F20    
G01 X-2.7758 Y2.9073  
G01 X-2.7749 Y2.9025  
G01 X-2.7749 Y2.5962  
G01 X-2.7715 Y2.5912  
G01 X-2.7691 Y2.5854  
G01 X-2.7679 Y2.5792  
G01 X-2.7679 Y2.5208  
G01 X-2.7691 Y2.5146  
G01 X-2.7715 Y2.5088  
G01 X-2.7750 Y2.5035  
G01 X-2.7795 Y2.4990  
G01 X-2.7848 Y2.4955  
G01 X-2.7906 Y2.4931  
G01 X-2.7968 Y2.4919  
G01 X-2.8032 Y2.4919  
G01 X-2.8094 Y2.4931  
G01 X-2.8152 Y2.4955  
G01 X-2.8205 Y2.4990  
G01 X-2.8250 Y2.5035  
G01 X-2.8285 Y2.5088  
G01 X-2.8309 Y2.5146  
G01 X-2.8321 Y2.5208  
G01 X-2.8321 Y2.5792  
G01 X-2.8309 Y2.5854  
G01 X-2.8285 Y2.5912  
G01 X-2.8251 Y2.5962  
G01 X-2.8251 Y2.8896  
G01 X-2.9034 Y2.9679  
G01 X-2.9133 Y2.9679  
G01 X-2.9321 Y2.9867  
G01 X-2.9321 Y3.0133  
G01 X-2.9133 Y3.0321  
G01 X-2.8867 Y3.0321  
G01 X-2.8679 Y3.0133  
G01 X-2.8679 Y3.0034  
G01 X-2.7805 Y2.9160  
G00 Z0.1000  
G00 X-2.8805 Y2.7660  
G01 Z-0.0021 F10    
G01 X-2.8777 Y2.7619  F20    
G01 X-2.8758 Y2.7573  
G01 X-2.8749 Y2.7525  
G01 X-2.8749 Y2.5962  
G01 X-2.8715 Y2.5912  
G01 X-2.8691 Y2.5854  
G01 X-2.8679 Y2.5792  
G01 X-2.8679 Y2.5208  
G01 X-2.8691 Y2.5146  
G01 X-2.8715 Y2.5088  
G01 X-2.8750 Y2.5035  
G01 X-2.8795 Y2.4990  
G01 X-2.8848 Y2.4955  
G01 X-2.8906 Y2.4931  
G01 X-2.8968 Y2.4919  
G01 X-2.9032 Y2.4919  
G01 X-2.9094 Y2.4931  
G01 X-2.9152 Y2.4955  
G01 X-2.9205 Y2.4990  
G01 X-2.9250 Y2.5035  
G01 X-2.9285 Y2.5088  
G01 X-2.9309 Y2.5146  
G01 X-2.9321 Y2.5208  
G01 X-2.9321 Y2.5792  
G01 X-2.9309 Y2.5854  
G01 X-2.9285 Y2.5912  
G01 X-2.9251 Y2.5962  
G01 X-2.9251 Y2.7396  
G01 X-3.1534 Y2.9679  
G01 X-3.1633 Y2.9679  
G01 X-3.1821 Y2.9867  
G01 X-3.1821 Y3.0133  
G01 X-3.1633 Y3.0321  
G01 X-3.1367 Y3.0321  
G01 X-3.1179 Y3.0133  
G01 X-3.1179 Y3.0034  
G01 X-2.8805 Y2.7660  
G00 Z0.1000  
G00 X-2.7250 Y2.2965  
G01 Z-0.0021 F10    
G01 X-2.7205 Y2.3010  F20    
G01 X-2.7152 Y2.3045  
G01 X-2.7094 Y2.3069  
G01 X-2.7032 Y2.3081  
G01 X-2.6968 Y2.3081  
G01 X-2.6906 Y2.3069  
G01 X-2.6848 Y2.3045  
G01 X-2.6795 Y2.3010  
G01 X-2.6750 Y2.2965  
G01 X-2.6715 Y2.2912  
G01 X-2.6691 Y2.2854  
G01 X-2.6679 Y2.2792  
G01 X-2.6679 Y2.2751  
G01 X-2.6321 Y2.2751  
G01 X-2.6321 Y2.2792  
G01 X-2.6309 Y2.2854  
G01 X-2.6285 Y2.2912  
G01 X-2.6250 Y2.2965  
G01 X-2.6205 Y2.3010  
G01 X-2.6152 Y2.3045  
G01 X-2.6094 Y2.3069  
G01 X-2.6032 Y2.3081  
G01 X-2.5968 Y2.3081  
G01 X-2.5906 Y2.3069  
G01 X-2.5848 Y2.3045  
G01 X-2.5795 Y2.3010  
G01 X-2.5750 Y2.2965  
G01 X-2.5715 Y2.2912  
G01 X-2.5691 Y2.2854  
G01 X-2.5679 Y2.2792  
G01 X-2.5679 Y2.2208  
G01 X-2.5691 Y2.2146  
G01 X-2.5715 Y2.2088  
G01 X-2.5749 Y2.2038  
G01 X-2.5749 Y2.0203  
G01 X-2.5679 Y2.0133  
G01 X-2.5679 Y1.9867  
G01 X-2.5867 Y1.9679  
G01 X-2.6133 Y1.9679  
G01 X-2.6321 Y1.9867  
G01 X-2.6321 Y2.0133  
G01 X-2.6251 Y2.0203  
G01 X-2.6251 Y2.2038  
G01 X-2.6285 Y2.2088  
G01 X-2.6309 Y2.2146  
G01 X-2.6321 Y2.2208  
G01 X-2.6321 Y2.2249  
G01 X-2.6679 Y2.2249  
G01 X-2.6679 Y2.2208  
G01 X-2.6691 Y2.2146  
G01 X-2.6715 Y2.2088  
G01 X-2.6750 Y2.2035  
G01 X-2.6795 Y2.1990  
G01 X-2.6848 Y2.1955  
G01 X-2.6906 Y2.1931  
G01 X-2.6968 Y2.1919  
G01 X-2.7032 Y2.1919  
G01 X-2.7094 Y2.1931  
G01 X-2.7152 Y2.1955  
G01 X-2.7205 Y2.1990  
G01 X-2.7250 Y2.2035  
G01 X-2.7285 Y2.2088  
G01 X-2.7309 Y2.2146  
G01 X-2.7321 Y2.2208  
G01 X-2.7321 Y2.2792  
G01 X-2.7309 Y2.2854  
G01 X-2.7285 Y2.2912  
G01 X-2.7250 Y2.2965  
G00 Z0.1000  
G00 X-2.5250 Y2.2965  
G01 Z-0.0021 F10    
G01 X-2.5205 Y2.3010  F20    
G01 X-2.5152 Y2.3045  
G01 X-2.5094 Y2.3069  
G01 X-2.5032 Y2.3081  
G01 X-2.4968 Y2.3081  
G01 X-2.4906 Y2.3069  
G01 X-2.4848 Y2.3045  
G01 X-2.4795 Y2.3010  
G01 X-2.4750 Y2.2965  
G01 X-2.4715 Y2.2912  
G01 X-2.4691 Y2.2854  
G01 X-2.4679 Y2.2792  
G01 X-2.4679 Y2.2208  
G01 X-2.4691 Y2.2146  
G01 X-2.4715 Y2.2088  
G01 X-2.4749 Y2.2038  
G01 X-2.4749 Y2.1479  
G01 X-2.3021 Y1.9751  
G01 X-2.2330 Y1.9751  
G01 X-2.2170 Y1.9911  
G01 X-2.1830 Y1.9911  
G01 X-2.1589 Y1.9670  
G01 X-2.1589 Y1.9330  
G01 X-2.1830 Y1.9089  
G01 X-2.2170 Y1.9089  
G01 X-2.2330 Y1.9249  
G01 X-2.3150 Y1.9249  
G01 X-2.3198 Y1.9258  
G01 X-2.3244 Y1.9277  
G01 X-2.3285 Y1.9305  
G01 X-2.3320 Y1.9340  
G01 X-2.5195 Y2.1215  
G01 X-2.5223 Y2.1256  
G01 X-2.5242 Y2.1302  
G01 X-2.5251 Y2.1350  
G01 X-2.5251 Y2.2038  
G01 X-2.5285 Y2.2088  
G01 X-2.5309 Y2.2146  
G01 X-2.5321 Y2.2208  
G01 X-2.5321 Y2.2792  
G01 X-2.5309 Y2.2854  
G01 X-2.5285 Y2.2912  
G01 X-2.5250 Y2.2965  
G00 Z0.1000  
G00 X-0.8321 Y2.2867  
G01 Z-0.0021 F10    
G01 X-0.8321 Y2.3133  F20    
G01 X-0.8133 Y2.3321  
G01 X-0.7867 Y2.3321  
G01 X-0.7797 Y2.3251  
G01 X-0.5975 Y2.3251  
G01 X-0.5927 Y2.3242  
G01 X-0.5881 Y2.3223  
G01 X-0.5840 Y2.3195  
G01 X-0.2146 Y1.9501  
G01 X-0.1854 Y1.9501  
G01 X-0.1501 Y1.9854  
G01 X-0.1501 Y2.2146  
G01 X-0.4160 Y2.4805  
G01 X-0.4195 Y2.4840  
G01 X-0.4223 Y2.4881  
G01 X-0.4242 Y2.4927  
G01 X-0.4251 Y2.4975  
G01 X-0.4251 Y2.7056  
G01 X-0.4491 Y2.7296  
G01 X-0.4491 Y2.7704  
G01 X-0.4204 Y2.7991  
G01 X-0.3796 Y2.7991  
G01 X-0.3509 Y2.7704  
G01 X-0.3509 Y2.7296  
G01 X-0.3749 Y2.7056  
G01 X-0.3749 Y2.5104  
G01 X-0.1055 Y2.2410  
G01 X-0.1027 Y2.2369  
G01 X-0.1008 Y2.2323  
G01 X-0.0999 Y2.2275  
G01 X-0.0999 Y1.9725  
G01 X-0.1008 Y1.9677  
G01 X-0.1027 Y1.9631  
G01 X-0.1055 Y1.9590  
G01 X-0.1090 Y1.9555  
G01 X-0.1590 Y1.9055  
G01 X-0.1631 Y1.9027  
G01 X-0.1677 Y1.9008  
G01 X-0.1725 Y1.8999  
G01 X-0.2275 Y1.8999  
G01 X-0.2323 Y1.9008  
G01 X-0.2369 Y1.9027  
G01 X-0.2410 Y1.9055  
G01 X-0.2445 Y1.9090  
G01 X-0.6104 Y2.2749  
G01 X-0.7797 Y2.2749  
G01 X-0.7867 Y2.2679  
G01 X-0.8133 Y2.2679  
G01 X-0.8321 Y2.2867  
G00 Z0.1000  
G00 X-0.5160 Y2.4930  
G01 Z-0.0021 F10    
G01 X-0.5195 Y2.4965  F20    
G01 X-0.5223 Y2.5006  
G01 X-0.5242 Y2.5052  
G01 X-0.5251 Y2.5100  
G01 X-0.5251 Y2.5563  
G01 X-0.5486 Y2.5798  
G01 X-0.5486 Y2.6202  
G01 X-0.5202 Y2.6486  
G01 X-0.4798 Y2.6486  
G01 X-0.4514 Y2.6202  
G01 X-0.4514 Y2.5798  
G01 X-0.4749 Y2.5563  
G01 X-0.4749 Y2.5229  
G01 X-0.1805 Y2.2285  
G01 X-0.1777 Y2.2244  
G01 X-0.1758 Y2.2198  
G01 X-0.1749 Y2.2150  
G01 X-0.1749 Y2.0203  
G01 X-0.1679 Y2.0133  
G01 X-0.1679 Y1.9867  
G01 X-0.1867 Y1.9679  
G01 X-0.2133 Y1.9679  
G01 X-0.2321 Y1.9867  
G01 X-0.2321 Y2.0133  
G01 X-0.2251 Y2.0203  
G01 X-0.2251 Y2.2021  
G01 X-0.5160 Y2.4930  
G00 Z0.1000  
G00 X-0.2321 Y2.4133  
G01 Z-0.0021 F10    
G01 X-0.2251 Y2.4203  F20    
G01 X-0.2251 Y2.6396  
G01 X-0.2864 Y2.7009  
G01 X-0.3204 Y2.7009  
G01 X-0.3491 Y2.7296  
G01 X-0.3491 Y2.7704  
G01 X-0.3204 Y2.7991  
G01 X-0.2796 Y2.7991  
G01 X-0.2509 Y2.7704  
G01 X-0.2509 Y2.7364  
G01 X-0.1805 Y2.6660  
G01 X-0.1777 Y2.6619  
G01 X-0.1758 Y2.6573  
G01 X-0.1749 Y2.6525  
G01 X-0.1749 Y2.4203  
G01 X-0.1679 Y2.4133  
G01 X-0.1679 Y2.3867  
G01 X-0.1867 Y2.3679  
G01 X-0.2133 Y2.3679  
G01 X-0.2321 Y2.3867  
G01 X-0.2321 Y2.4133  
G00 Z0.1000  
G00 X-0.3840 Y2.0195  
G01 Z-0.0021 F10    
G01 X-0.2308 Y1.8663  F20    
G01 X-0.2284 Y1.8686  
G01 X-0.1716 Y1.8686  
G01 X-0.1314 Y1.8284  
G01 X-0.1314 Y1.7716  
G01 X-0.1716 Y1.7314  
G01 X-0.2284 Y1.7314  
G01 X-0.2686 Y1.7716  
G01 X-0.2686 Y1.8284  
G01 X-0.2663 Y1.8308  
G01 X-0.4104 Y1.9749  
G01 X-0.4582 Y1.9749  
G01 X-0.4584 Y1.9745  
G01 X-0.4629 Y1.9683  
G01 X-0.4683 Y1.9629  
G01 X-0.4745 Y1.9584  
G01 X-0.4813 Y1.9549  
G01 X-0.4886 Y1.9525  
G01 X-0.4962 Y1.9514  
G01 X-0.5038 Y1.9514  
G01 X-0.5114 Y1.9525  
G01 X-0.5187 Y1.9549  
G01 X-0.5255 Y1.9584  
G01 X-0.5317 Y1.9629  
G01 X-0.5371 Y1.9683  
G01 X-0.5416 Y1.9745  
G01 X-0.5451 Y1.9813  
G01 X-0.5475 Y1.9886  
G01 X-0.5486 Y1.9962  
G01 X-0.5486 Y2.0038  
G01 X-0.5475 Y2.0114  
G01 X-0.5451 Y2.0187  
G01 X-0.5416 Y2.0255  
G01 X-0.5371 Y2.0317  
G01 X-0.5317 Y2.0371  
G01 X-0.5255 Y2.0416  
G01 X-0.5187 Y2.0451  
G01 X-0.5114 Y2.0475  
G01 X-0.5038 Y2.0486  
G01 X-0.4962 Y2.0486  
G01 X-0.4886 Y2.0475  
G01 X-0.4813 Y2.0451  
G01 X-0.4745 Y2.0416  
G01 X-0.4683 Y2.0371  
G01 X-0.4629 Y2.0317  
G01 X-0.4584 Y2.0255  
G01 X-0.4582 Y2.0251  
G01 X-0.3975 Y2.0251  
G01 X-0.3927 Y2.0242  
G01 X-0.3881 Y2.0223  
G01 X-0.3840 Y2.0195  
G00 Z0.1000  
G00 X-0.0672 Y1.1958  
G01 Z-0.0021 F10    
G01 X-0.0708 Y1.1922  F20    
G01 X-0.1708 Y1.0922  
G01 X-0.1751 Y1.0893  
G01 X-0.1799 Y1.0874  
G01 X-0.1849 Y1.0864  
G01 X-0.9776 Y1.0864  
G01 X-0.9826 Y1.0874  
G01 X-0.9874 Y1.0893  
G01 X-0.9917 Y1.0922  
G01 X-0.9953 Y1.0958  
G01 X-1.0608 Y1.1614  
G01 X-1.4217 Y1.1614  
G01 X-1.4223 Y1.1608  
G01 X-1.4288 Y1.1560  
G01 X-1.4360 Y1.1524  
G01 X-1.4437 Y1.1499  
G01 X-1.4517 Y1.1486  
G01 X-1.5483 Y1.1486  
G01 X-1.5563 Y1.1499  
G01 X-1.5640 Y1.1524  
G01 X-1.5712 Y1.1560  
G01 X-1.5777 Y1.1608  
G01 X-1.5835 Y1.1665  
G01 X-1.5882 Y1.1731  
G01 X-1.5886 Y1.1739  
G01 X-1.8637 Y1.1739  
G01 X-1.8817 Y1.1559  
G01 X-1.8947 Y1.1559  
G01 X-2.0208 Y1.0297  
G01 X-2.0251 Y1.0268  
G01 X-2.0299 Y1.0249  
G01 X-2.0349 Y1.0239  
G01 X-2.4651 Y1.0239  
G01 X-2.4701 Y1.0249  
G01 X-2.4749 Y1.0268  
G01 X-2.4792 Y1.0297  
G01 X-2.4828 Y1.0333  
G01 X-3.0953 Y1.6458  
G01 X-3.0982 Y1.6501  
G01 X-3.1001 Y1.6549  
G01 X-3.1011 Y1.6599  
G01 X-3.1011 Y2.0276  
G01 X-3.1001 Y2.0326  
G01 X-3.0982 Y2.0374  
G01 X-3.0953 Y2.0417  
G01 X-3.0917 Y2.0453  
G01 X-2.9386 Y2.1983  
G01 X-2.9386 Y2.2401  
G01 X-2.9376 Y2.2451  
G01 X-2.9357 Y2.2499  
G01 X-2.9331 Y2.2537  
G01 X-2.9331 Y2.2793  
G01 X-2.9319 Y2.2857  
G01 X-2.9294 Y2.2917  
G01 X-2.9257 Y2.2971  
G01 X-2.9211 Y2.3017  
G01 X-2.9157 Y2.3054  
G01 X-2.9097 Y2.3079  
G01 X-2.9033 Y2.3091  
G01 X-2.9028 Y2.3091  
G01 X-2.7792 Y2.4328  
G01 X-2.7749 Y2.4357  
G01 X-2.7701 Y2.4376  
G01 X-2.7651 Y2.4386  
G01 X-2.4349 Y2.4386  
G01 X-2.4299 Y2.4376  
G01 X-2.4251 Y2.4357  
G01 X-2.4208 Y2.4328  
G01 X-2.4172 Y2.4292  
G01 X-2.2972 Y2.3091  
G01 X-2.2967 Y2.3091  
G01 X-2.2903 Y2.3079  
G01 X-2.2843 Y2.3054  
G01 X-2.2789 Y2.3017  
G01 X-2.2743 Y2.2971  
G01 X-2.2706 Y2.2917  
G01 X-2.2681 Y2.2857  
G01 X-2.2669 Y2.2793  
G01 X-2.2669 Y2.2207  
G01 X-2.2681 Y2.2143  
G01 X-2.2706 Y2.2083  
G01 X-2.2743 Y2.2029  
G01 X-2.2789 Y2.1983  
G01 X-2.2843 Y2.1946  
G01 X-2.2903 Y2.1921  
G01 X-2.2967 Y2.1909  
G01 X-2.3033 Y2.1909  
G01 X-2.3097 Y2.1921  
G01 X-2.3157 Y2.1946  
G01 X-2.3211 Y2.1983  
G01 X-2.3257 Y2.2029  
G01 X-2.3294 Y2.2083  
G01 X-2.3319 Y2.2143  
G01 X-2.3331 Y2.2207  
G01 X-2.3331 Y2.2712  
G01 X-2.4483 Y2.3864  
G01 X-2.7517 Y2.3864  
G01 X-2.8669 Y2.2712  
G01 X-2.8669 Y2.2207  
G01 X-2.8681 Y2.2143  
G01 X-2.8706 Y2.2083  
G01 X-2.8743 Y2.2029  
G01 X-2.8789 Y2.1983  
G01 X-2.8843 Y2.1946  
G01 X-2.8864 Y2.1938  
G01 X-2.8864 Y2.1849  
G01 X-2.8874 Y2.1799  
G01 X-2.8893 Y2.1751  
G01 X-2.8922 Y2.1708  
G01 X-3.0489 Y2.0142  
G01 X-3.0489 Y1.6733  
G01 X-2.4517 Y1.0761  
G01 X-2.0483 Y1.0761  
G01 X-1.9435 Y1.1810  
G01 X-1.9441 Y1.1817  
G01 X-1.9441 Y1.2183  
G01 X-1.9261 Y1.2363  
G01 X-1.9261 Y1.2637  
G01 X-1.9441 Y1.2817  
G01 X-1.9441 Y1.3183  
G01 X-1.9183 Y1.3441  
G01 X-1.8817 Y1.3441  
G01 X-1.8559 Y1.3183  
G01 X-1.8559 Y1.2817  
G01 X-1.8739 Y1.2637  
G01 X-1.8739 Y1.2363  
G01 X-1.8637 Y1.2261  
G01 X-1.5886 Y1.2261  
G01 X-1.5882 Y1.2269  
G01 X-1.5835 Y1.2335  
G01 X-1.5777 Y1.2392  
G01 X-1.5712 Y1.2440  
G01 X-1.5640 Y1.2476  
G01 X-1.5563 Y1.2501  
G01 X-1.5483 Y1.2514  
G01 X-1.4517 Y1.2514  
G01 X-1.4437 Y1.2501  
G01 X-1.4360 Y1.2476  
G01 X-1.4288 Y1.2440  
G01 X-1.4223 Y1.2392  
G01 X-1.4165 Y1.2335  
G01 X-1.4118 Y1.2269  
G01 X-1.4081 Y1.2197  
G01 X-1.4061 Y1.2136  
G01 X-1.0474 Y1.2136  
G01 X-1.0424 Y1.2126  
G01 X-1.0376 Y1.2107  
G01 X-1.0333 Y1.2078  
G01 X-0.9642 Y1.1386  
G01 X-0.1983 Y1.1386  
G01 X-0.1136 Y1.2233  
G01 X-0.1136 Y1.6994  
G01 X-0.1458 Y1.6672  
G01 X-0.1501 Y1.6643  
G01 X-0.1549 Y1.6624  
G01 X-0.1599 Y1.6614  
G01 X-0.4017 Y1.6614  
G01 X-0.4864 Y1.5767  
G01 X-0.4864 Y1.4849  
G01 X-0.4874 Y1.4799  
G01 X-0.4893 Y1.4751  
G01 X-0.4922 Y1.4708  
G01 X-0.4958 Y1.4672  
G01 X-0.6583 Y1.3047  
G01 X-0.6626 Y1.3018  
G01 X-0.6674 Y1.2999  
G01 X-0.6724 Y1.2989  
G01 X-0.9276 Y1.2989  
G01 X-0.9326 Y1.2999  
G01 X-0.9374 Y1.3018  
G01 X-0.9417 Y1.3047  
G01 X-0.9453 Y1.3083  
G01 X-1.1483 Y1.5114  
G01 X-1.5901 Y1.5114  
G01 X-1.5951 Y1.5124  
G01 X-1.5999 Y1.5143  
G01 X-1.6037 Y1.5169  
G01 X-1.6137 Y1.5169  
G01 X-1.6331 Y1.5363  
G01 X-1.6331 Y1.5637  
G01 X-1.6261 Y1.5707  
G01 X-1.6261 Y1.5892  
G01 X-1.7540 Y1.7170  
G01 X-1.7597 Y1.7181  
G01 X-1.7657 Y1.7206  
G01 X-1.7711 Y1.7243  
G01 X-1.7757 Y1.7289  
G01 X-1.7794 Y1.7343  
G01 X-1.7819 Y1.7403  
G01 X-1.7831 Y1.7467  
G01 X-1.7831 Y1.7533  
G01 X-1.7819 Y1.7597  
G01 X-1.7794 Y1.7657  
G01 X-1.7757 Y1.7711  
G01 X-1.7711 Y1.7757  
G01 X-1.7657 Y1.7794  
G01 X-1.7597 Y1.7819  
G01 X-1.7533 Y1.7831  
G01 X-1.7467 Y1.7831  
G01 X-1.7403 Y1.7819  
G01 X-1.7343 Y1.7794  
G01 X-1.7289 Y1.7757  
G01 X-1.7243 Y1.7711  
G01 X-1.7206 Y1.7657  
G01 X-1.7181 Y1.7597  
G01 X-1.7170 Y1.7540  
G01 X-1.5797 Y1.6167  
G01 X-1.5768 Y1.6124  
G01 X-1.5749 Y1.6076  
G01 X-1.5739 Y1.6026  
G01 X-1.5739 Y1.5707  
G01 X-1.5669 Y1.5637  
G01 X-1.1349 Y1.5636  
G01 X-1.1299 Y1.5626  
G01 X-1.1251 Y1.5607  
G01 X-1.1208 Y1.5578  
G01 X-0.9142 Y1.3511  
G01 X-0.6858 Y1.3511  
G01 X-0.5386 Y1.4983  
G01 X-0.5386 Y1.5901  
G01 X-0.5376 Y1.5951  
G01 X-0.5357 Y1.5999  
G01 X-0.5328 Y1.6042  
G01 X-0.4328 Y1.7042  
G01 X-0.4292 Y1.7078  
G01 X-0.4249 Y1.7107  
G01 X-0.4201 Y1.7126  
G01 X-0.4151 Y1.7136  
G01 X-0.1733 Y1.7136  
G01 X-0.1167 Y1.7703  
G01 X-0.0886 Y1.7983  
G01 X-0.0886 Y2.6267  
G01 X-0.4233 Y2.9614  
G01 X-0.7901 Y2.9614  
G01 X-0.7951 Y2.9624  
G01 X-0.7990 Y2.9640  
G01 X-0.9114 Y2.8517  
G01 X-0.9114 Y2.6204  
G01 X-0.9108 Y2.6199  
G01 X-0.9074 Y2.6148  
G01 X-0.9050 Y2.6091  
G01 X-0.9039 Y2.6031  
G01 X-0.9039 Y2.5969  
G01 X-0.9050 Y2.5909  
G01 X-0.9074 Y2.5852  
G01 X-0.9108 Y2.5801  
G01 X-0.9151 Y2.5758  
G01 X-0.9202 Y2.5724  
G01 X-0.9259 Y2.5700  
G01 X-0.9319 Y2.5689  
G01 X-0.9381 Y2.5689  
G01 X-0.9441 Y2.5700  
G01 X-0.9498 Y2.5724  
G01 X-0.9549 Y2.5758  
G01 X-0.9592 Y2.5801  
G01 X-0.9626 Y2.5852  
G01 X-0.9650 Y2.5909  
G01 X-0.9661 Y2.5969  
G01 X-0.9661 Y2.6031  
G01 X-0.9650 Y2.6091  
G01 X-0.9636 Y2.6122  
G01 X-0.9636 Y2.8651  
G01 X-0.9626 Y2.8701  
G01 X-0.9607 Y2.8749  
G01 X-0.9578 Y2.8792  
G01 X-0.8370 Y3.0000  
G01 X-0.8858 Y3.0489  
G01 X-0.9142 Y3.0489  
G01 X-0.9708 Y2.9922  
G01 X-0.9751 Y2.9893  
G01 X-0.9799 Y2.9874  
G01 X-0.9849 Y2.9864  
G01 X-1.0169 Y2.9864  
G01 X-1.0363 Y2.9669  
G01 X-1.0637 Y2.9669  
G01 X-1.0831 Y2.9863  
G01 X-1.0831 Y2.9962  
G01 X-1.1358 Y3.0489  
G01 X-1.2142 Y3.0489  
G01 X-1.2172 Y3.0458  
G01 X-1.2208 Y3.0422  
G01 X-1.2669 Y2.9962  
G01 X-1.2669 Y2.9863  
G01 X-1.2863 Y2.9669  
G01 X-1.3137 Y2.9669  
G01 X-1.3331 Y2.9863  
G01 X-1.3331 Y3.0137  
G01 X-1.3137 Y3.0331  
G01 X-1.3038 Y3.0331  
G01 X-1.2881 Y3.0489  
G01 X-1.4642 Y3.0489  
G01 X-1.4672 Y3.0458  
G01 X-1.4708 Y3.0422  
G01 X-1.5169 Y2.9962  
G01 X-1.5169 Y2.9863  
G01 X-1.5363 Y2.9669  
G01 X-1.5637 Y2.9669  
G01 X-1.5831 Y2.9863  
G01 X-1.5831 Y3.0137  
G01 X-1.5637 Y3.0331  
G01 X-1.5538 Y3.0331  
G01 X-1.5381 Y3.0489  
G01 X-1.7142 Y3.0489  
G01 X-1.7669 Y2.9962  
G01 X-1.7669 Y2.9863  
G01 X-1.7863 Y2.9669  
G01 X-1.8137 Y2.9669  
G01 X-1.8331 Y2.9863  
G01 X-1.8331 Y2.9962  
G01 X-1.8858 Y3.0489  
G01 X-2.0619 Y3.0489  
G01 X-2.0462 Y3.0331  
G01 X-2.0363 Y3.0331  
G01 X-2.0169 Y3.0137  
G01 X-2.0169 Y2.9863  
G01 X-2.0363 Y2.9669  
G01 X-2.0637 Y2.9669  
G01 X-2.0831 Y2.9863  
G01 X-2.0831 Y2.9962  
G01 X-2.1328 Y3.0458  
G01 X-2.1358 Y3.0489  
G01 X-2.2142 Y3.0489  
G01 X-2.2669 Y2.9962  
G01 X-2.2669 Y2.9863  
G01 X-2.2863 Y2.9669  
G01 X-2.3137 Y2.9669  
G01 X-2.3331 Y2.9863  
G01 X-2.3331 Y2.9962  
G01 X-2.3858 Y3.0489  
G01 X-2.5619 Y3.0489  
G01 X-2.5462 Y3.0331  
G01 X-2.5363 Y3.0331  
G01 X-2.5169 Y3.0137  
G01 X-2.5169 Y2.9863  
G01 X-2.5363 Y2.9669  
G01 X-2.5637 Y2.9669  
G01 X-2.5831 Y2.9863  
G01 X-2.5831 Y2.9962  
G01 X-2.6328 Y3.0458  
G01 X-2.6358 Y3.0489  
G01 X-2.7142 Y3.0489  
G01 X-2.7172 Y3.0458  
G01 X-2.7208 Y3.0422  
G01 X-2.7669 Y2.9962  
G01 X-2.7669 Y2.9863  
G01 X-2.7863 Y2.9669  
G01 X-2.8137 Y2.9669  
G01 X-2.8331 Y2.9863  
G01 X-2.8331 Y3.0137  
G01 X-2.8137 Y3.0331  
G01 X-2.8038 Y3.0331  
G01 X-2.7881 Y3.0489  
G01 X-2.9142 Y3.0489  
G01 X-2.9833 Y2.9797  
G01 X-2.9876 Y2.9768  
G01 X-2.9924 Y2.9749  
G01 X-2.9974 Y2.9739  
G01 X-3.0293 Y2.9739  
G01 X-3.0363 Y2.9669  
G01 X-3.0637 Y2.9669  
G01 X-3.0831 Y2.9863  
G01 X-3.0831 Y3.0137  
G01 X-3.0637 Y3.0331  
G01 X-3.0363 Y3.0331  
G01 X-3.0293 Y3.0261  
G01 X-3.0108 Y3.0261  
G01 X-2.9453 Y3.0917  
G01 X-2.9417 Y3.0953  
G01 X-2.9374 Y3.0982  
G01 X-2.9326 Y3.1001  
G01 X-2.9276 Y3.1011  
G01 X-2.7474 Y3.1011  
G01 X-2.7424 Y3.1001  
G01 X-2.7376 Y3.0982  
G01 X-2.7375 Y3.0981  
G01 X-2.7374 Y3.0982  
G01 X-2.7326 Y3.1001  
G01 X-2.7276 Y3.1011  
G01 X-2.6224 Y3.1011  
G01 X-2.6174 Y3.1001  
G01 X-2.6126 Y3.0982  
G01 X-2.6125 Y3.0981  
G01 X-2.6124 Y3.0982  
G01 X-2.6076 Y3.1001  
G01 X-2.6026 Y3.1011  
G01 X-2.3724 Y3.1011  
G01 X-2.3674 Y3.1001  
G01 X-2.3626 Y3.0982  
G01 X-2.3583 Y3.0953  
G01 X-2.3547 Y3.0917  
G01 X-2.3000 Y3.0370  
G01 X-2.2417 Y3.0953  
G01 X-2.2374 Y3.0982  
G01 X-2.2326 Y3.1001  
G01 X-2.2276 Y3.1011  
G01 X-2.1224 Y3.1011  
G01 X-2.1174 Y3.1001  
G01 X-2.1126 Y3.0982  
G01 X-2.1125 Y3.0981  
G01 X-2.1124 Y3.0982  
G01 X-2.1076 Y3.1001  
G01 X-2.1026 Y3.1011  
G01 X-1.8724 Y3.1011  
G01 X-1.8674 Y3.1001  
G01 X-1.8626 Y3.0982  
G01 X-1.8583 Y3.0953  
G01 X-1.8547 Y3.0917  
G01 X-1.8000 Y3.0370  
G01 X-1.7453 Y3.0917  
G01 X-1.7417 Y3.0953  
G01 X-1.7374 Y3.0982  
G01 X-1.7326 Y3.1001  
G01 X-1.7276 Y3.1011  
G01 X-1.4974 Y3.1011  
G01 X-1.4924 Y3.1001  
G01 X-1.4876 Y3.0982  
G01 X-1.4875 Y3.0981  
G01 X-1.4874 Y3.0982  
G01 X-1.4826 Y3.1001  
G01 X-1.4776 Y3.1011  
G01 X-1.2474 Y3.1011  
G01 X-1.2424 Y3.1001  
G01 X-1.2376 Y3.0982  
G01 X-1.2375 Y3.0981  
G01 X-1.2374 Y3.0982  
G01 X-1.2326 Y3.1001  
G01 X-1.2276 Y3.1011  
G01 X-1.1224 Y3.1011  
G01 X-1.1174 Y3.1001  
G01 X-1.1126 Y3.0982  
G01 X-1.1083 Y3.0953  
G01 X-1.1047 Y3.0917  
G01 X-1.0490 Y3.0360  
G01 X-1.0451 Y3.0376  
G01 X-1.0401 Y3.0386  
G01 X-0.9983 Y3.0386  
G01 X-0.9453 Y3.0917  
G01 X-0.9417 Y3.0953  
G01 X-0.9374 Y3.0982  
G01 X-0.9326 Y3.1001  
G01 X-0.9276 Y3.1011  
G01 X-0.8724 Y3.1011  
G01 X-0.8674 Y3.1001  
G01 X-0.8626 Y3.0982  
G01 X-0.8583 Y3.0953  
G01 X-0.7962 Y3.0331  
G01 X-0.7863 Y3.0331  
G01 X-0.7669 Y3.0137  
G01 X-0.4099 Y3.0136  
G01 X-0.4049 Y3.0126  
G01 X-0.4001 Y3.0107  
G01 X-0.3958 Y3.0078  
G01 X-0.3922 Y3.0042  
G01 X-0.0422 Y2.6542  
G01 X-0.0393 Y2.6499  
G01 X-0.0374 Y2.6451  
G01 X-0.0364 Y2.6401  
G01 X-0.0364 Y1.7849  
G01 X-0.0374 Y1.7799  
G01 X-0.0393 Y1.7751  
G01 X-0.0422 Y1.7708  
G01 X-0.0458 Y1.7672  
G01 X-0.0640 Y1.7490  
G01 X-0.0624 Y1.7451  
G01 X-0.0614 Y1.7401  
G01 X-0.0614 Y1.2099  
G01 X-0.0624 Y1.2049  
G01 X-0.0643 Y1.2001  
G01 X-0.0672 Y1.1958  
G00 Z0.1000  
G00 X-0.1669 Y1.1863  
G01 Z-0.0021 F10    
G01 X-0.1863 Y1.1669  F20    
G01 X-0.2137 Y1.1669  
G01 X-0.2331 Y1.1863  
G01 X-0.2331 Y1.2137  
G01 X-0.2261 Y1.2207  
G01 X-0.2261 Y1.4804  
G01 X-0.2288 Y1.4804  
G01 X-0.2696 Y1.5211  
G01 X-0.2696 Y1.5788  
G01 X-0.2288 Y1.6196  
G01 X-0.1711 Y1.6196  
G01 X-0.1304 Y1.5788  
G01 X-0.1304 Y1.5211  
G01 X-0.1711 Y1.4804  
G01 X-0.1739 Y1.4804  
G01 X-0.1739 Y1.2207  
G01 X-0.1669 Y1.2137  
G01 X-0.1669 Y1.1863  
G00 Z0.1000  
G00 X-0.5669 Y1.1863  
G01 Z-0.0021 F10    
G01 X-0.5863 Y1.1669  F20    
G01 X-0.6137 Y1.1669  
G01 X-0.6207 Y1.1739  
G01 X-0.8114 Y1.1739  
G01 X-0.8118 Y1.1731  
G01 X-0.8165 Y1.1665  
G01 X-0.8223 Y1.1608  
G01 X-0.8288 Y1.1560  
G01 X-0.8360 Y1.1524  
G01 X-0.8437 Y1.1499  
G01 X-0.8517 Y1.1486  
G01 X-0.9483 Y1.1486  
G01 X-0.9563 Y1.1499  
G01 X-0.9640 Y1.1524  
G01 X-0.9712 Y1.1560  
G01 X-0.9777 Y1.1608  
G01 X-0.9835 Y1.1665  
G01 X-0.9882 Y1.1731  
G01 X-0.9919 Y1.1803  
G01 X-0.9941 Y1.1872  
G01 X-0.9951 Y1.1874  
G01 X-0.9999 Y1.1893  
G01 X-1.0042 Y1.1922  
G01 X-1.2608 Y1.4489  
G01 X-1.6276 Y1.4489  
G01 X-1.6326 Y1.4499  
G01 X-1.6374 Y1.4518  
G01 X-1.6417 Y1.4547  
G01 X-1.7038 Y1.5169  
G01 X-1.7137 Y1.5169  
G01 X-1.7207 Y1.5239  
G01 X-1.8392 Y1.5239  
G01 X-2.0130 Y1.3500  
G01 X-2.0072 Y1.3441  
G01 X-1.9817 Y1.3441  
G01 X-1.9559 Y1.3183  
G01 X-1.9559 Y1.2817  
G01 X-1.9739 Y1.2637  
G01 X-1.9739 Y1.2363  
G01 X-1.9559 Y1.2183  
G01 X-1.9559 Y1.1817  
G01 X-1.9817 Y1.1559  
G01 X-2.0183 Y1.1559  
G01 X-2.0363 Y1.1739  
G01 X-2.0637 Y1.1739  
G01 X-2.0817 Y1.1559  
G01 X-2.1183 Y1.1559  
G01 X-2.1363 Y1.1739  
G01 X-2.1637 Y1.1739  
G01 X-2.1817 Y1.1559  
G01 X-2.1947 Y1.1559  
G01 X-2.2583 Y1.0922  
G01 X-2.2626 Y1.0893  
G01 X-2.2674 Y1.0874  
G01 X-2.2724 Y1.0864  
G01 X-2.3276 Y1.0864  
G01 X-2.3326 Y1.0874  
G01 X-2.3374 Y1.0893  
G01 X-2.3417 Y1.0922  
G01 X-2.3453 Y1.0958  
G01 X-2.4578 Y1.2083  
G01 X-2.4607 Y1.2126  
G01 X-2.4626 Y1.2174  
G01 X-2.4636 Y1.2224  
G01 X-2.4636 Y1.8489  
G01 X-2.5776 Y1.8489  
G01 X-2.5826 Y1.8499  
G01 X-2.5874 Y1.8518  
G01 X-2.5917 Y1.8547  
G01 X-2.6250 Y1.8880  
G01 X-2.8232 Y1.6899  
G01 X-2.8223 Y1.6892  
G01 X-2.8165 Y1.6835  
G01 X-2.8118 Y1.6769  
G01 X-2.8081 Y1.6697  
G01 X-2.8056 Y1.6620  
G01 X-2.8044 Y1.6540  
G01 X-2.8044 Y1.6460  
G01 X-2.8056 Y1.6380  
G01 X-2.8081 Y1.6303  
G01 X-2.8118 Y1.6231  
G01 X-2.8165 Y1.6165  
G01 X-2.8223 Y1.6108  
G01 X-2.8288 Y1.6060  
G01 X-2.8360 Y1.6024  
G01 X-2.8437 Y1.5999  
G01 X-2.8517 Y1.5986  
G01 X-2.9483 Y1.5986  
G01 X-2.9563 Y1.5999  
G01 X-2.9640 Y1.6024  
G01 X-2.9712 Y1.6060  
G01 X-2.9777 Y1.6108  
G01 X-2.9835 Y1.6165  
G01 X-2.9882 Y1.6231  
G01 X-2.9919 Y1.6303  
G01 X-2.9944 Y1.6380  
G01 X-2.9956 Y1.6460  
G01 X-2.9956 Y1.6540  
G01 X-2.9944 Y1.6620  
G01 X-2.9919 Y1.6697  
G01 X-2.9882 Y1.6769  
G01 X-2.9835 Y1.6835  
G01 X-2.9777 Y1.6892  
G01 X-2.9712 Y1.6940  
G01 X-2.9640 Y1.6976  
G01 X-2.9563 Y1.7001  
G01 X-2.9483 Y1.7014  
G01 X-2.8856 Y1.7014  
G01 X-2.6620 Y1.9250  
G01 X-2.8500 Y2.1130  
G01 X-2.9669 Y1.9962  
G01 X-2.9669 Y1.9863  
G01 X-2.9863 Y1.9669  
G01 X-3.0137 Y1.9669  
G01 X-3.0331 Y1.9863  
G01 X-3.0331 Y2.0137  
G01 X-3.0137 Y2.0331  
G01 X-3.0038 Y2.0331  
G01 X-2.8703 Y2.1667  
G01 X-2.8291 Y2.2079  
G01 X-2.8294 Y2.2083  
G01 X-2.8319 Y2.2143  
G01 X-2.8331 Y2.2207  
G01 X-2.8331 Y2.2463  
G01 X-2.8357 Y2.2501  
G01 X-2.8376 Y2.2549  
G01 X-2.8386 Y2.2599  
G01 X-2.8386 Y2.2651  
G01 X-2.8376 Y2.2701  
G01 X-2.8357 Y2.2749  
G01 X-2.8331 Y2.2787  
G01 X-2.8331 Y2.2793  
G01 X-2.8319 Y2.2857  
G01 X-2.8294 Y2.2917  
G01 X-2.8257 Y2.2971  
G01 X-2.8211 Y2.3017  
G01 X-2.8157 Y2.3054  
G01 X-2.8097 Y2.3079  
G01 X-2.8033 Y2.3091  
G01 X-2.8028 Y2.3091  
G01 X-2.7417 Y2.3703  
G01 X-2.7374 Y2.3732  
G01 X-2.7326 Y2.3751  
G01 X-2.7276 Y2.3761  
G01 X-2.4724 Y2.3761  
G01 X-2.4674 Y2.3751  
G01 X-2.4626 Y2.3732  
G01 X-2.4583 Y2.3703  
G01 X-2.4547 Y2.3667  
G01 X-2.3972 Y2.3091  
G01 X-2.3967 Y2.3091  
G01 X-2.3903 Y2.3079  
G01 X-2.3843 Y2.3054  
G01 X-2.3789 Y2.3017  
G01 X-2.3743 Y2.2971  
G01 X-2.3706 Y2.2917  
G01 X-2.3681 Y2.2857  
G01 X-2.3669 Y2.2793  
G01 X-2.3669 Y2.2288  
G01 X-2.3142 Y2.1761  
G01 X-2.2858 Y2.1761  
G01 X-2.2331 Y2.2288  
G01 X-2.2331 Y2.2793  
G01 X-2.2319 Y2.2857  
G01 X-2.2294 Y2.2917  
G01 X-2.2257 Y2.2971  
G01 X-2.2211 Y2.3017  
G01 X-2.2157 Y2.3054  
G01 X-2.2097 Y2.3079  
G01 X-2.2033 Y2.3091  
G01 X-2.1967 Y2.3091  
G01 X-2.1903 Y2.3079  
G01 X-2.1843 Y2.3054  
G01 X-2.1789 Y2.3017  
G01 X-2.1743 Y2.2971  
G01 X-2.1706 Y2.2917  
G01 X-2.1681 Y2.2857  
G01 X-2.1669 Y2.2793  
G01 X-2.1669 Y2.2207  
G01 X-2.1681 Y2.2143  
G01 X-2.1706 Y2.2083  
G01 X-2.1743 Y2.2029  
G01 X-2.1789 Y2.1983  
G01 X-2.1843 Y2.1946  
G01 X-2.1903 Y2.1921  
G01 X-2.1967 Y2.1909  
G01 X-2.1972 Y2.1909  
G01 X-2.2547 Y2.1333  
G01 X-2.2583 Y2.1297  
G01 X-2.2626 Y2.1268  
G01 X-2.2674 Y2.1249  
G01 X-2.2724 Y2.1239  
G01 X-2.3276 Y2.1239  
G01 X-2.3326 Y2.1249  
G01 X-2.3374 Y2.1268  
G01 X-2.3417 Y2.1297  
G01 X-2.4028 Y2.1909  
G01 X-2.4033 Y2.1909  
G01 X-2.4097 Y2.1921  
G01 X-2.4157 Y2.1946  
G01 X-2.4211 Y2.1983  
G01 X-2.4257 Y2.2029  
G01 X-2.4294 Y2.2083  
G01 X-2.4319 Y2.2143  
G01 X-2.4331 Y2.2207  
G01 X-2.4331 Y2.2463  
G01 X-2.4357 Y2.2501  
G01 X-2.4376 Y2.2549  
G01 X-2.4386 Y2.2599  
G01 X-2.4386 Y2.2767  
G01 X-2.4858 Y2.3239  
G01 X-2.7142 Y2.3239  
G01 X-2.7669 Y2.2712  
G01 X-2.7669 Y2.2207  
G01 X-2.7681 Y2.2143  
G01 X-2.7706 Y2.2083  
G01 X-2.7739 Y2.2035  
G01 X-2.7739 Y2.1974  
G01 X-2.7749 Y2.1924  
G01 X-2.7768 Y2.1876  
G01 X-2.7797 Y2.1833  
G01 X-2.8130 Y2.1500  
G01 X-2.6083 Y1.9453  
G01 X-2.6047 Y1.9417  
G01 X-2.5642 Y1.9011  
G01 X-2.1733 Y1.9011  
G01 X-2.1261 Y1.9483  
G01 X-2.1261 Y2.0165  
G01 X-2.1421 Y2.0325  
G01 X-2.1421 Y2.0675  
G01 X-2.1175 Y2.0921  
G01 X-2.0825 Y2.0921  
G01 X-2.0579 Y2.0675  
G01 X-2.0579 Y2.0325  
G01 X-2.0739 Y2.0165  
G01 X-2.0739 Y1.9349  
G01 X-2.0749 Y1.9299  
G01 X-2.0768 Y1.9251  
G01 X-2.0797 Y1.9208  
G01 X-2.1458 Y1.8547  
G01 X-2.1501 Y1.8518  
G01 X-2.1549 Y1.8499  
G01 X-2.1599 Y1.8489  
G01 X-2.4114 Y1.8489  
G01 X-2.4114 Y1.2358  
G01 X-2.3142 Y1.1386  
G01 X-2.2858 Y1.1386  
G01 X-2.2435 Y1.1810  
G01 X-2.2441 Y1.1817  
G01 X-2.2441 Y1.2183  
G01 X-2.2183 Y1.2441  
G01 X-2.1817 Y1.2441  
G01 X-2.1637 Y1.2261  
G01 X-2.1363 Y1.2261  
G01 X-2.1183 Y1.2441  
G01 X-2.0817 Y1.2441  
G01 X-2.0637 Y1.2261  
G01 X-2.0363 Y1.2261  
G01 X-2.0261 Y1.2363  
G01 X-2.0261 Y1.2637  
G01 X-2.0441 Y1.2817  
G01 X-2.0441 Y1.3072  
G01 X-2.0500 Y1.3130  
G01 X-2.0559 Y1.3072  
G01 X-2.0559 Y1.2817  
G01 X-2.0817 Y1.2559  
G01 X-2.1183 Y1.2559  
G01 X-2.1363 Y1.2739  
G01 X-2.1637 Y1.2739  
G01 X-2.1817 Y1.2559  
G01 X-2.2183 Y1.2559  
G01 X-2.2441 Y1.2817  
G01 X-2.2441 Y1.3183  
G01 X-2.2183 Y1.3441  
G01 X-2.1817 Y1.3441  
G01 X-2.1637 Y1.3261  
G01 X-2.1363 Y1.3261  
G01 X-2.1183 Y1.3441  
G01 X-2.0928 Y1.3441  
G01 X-2.0703 Y1.3667  
G01 X-2.0667 Y1.3703  
G01 X-1.8667 Y1.5703  
G01 X-1.8624 Y1.5732  
G01 X-1.8576 Y1.5751  
G01 X-1.8526 Y1.5761  
G01 X-1.8511 Y1.5761  
G01 X-1.8511 Y1.7776  
G01 X-1.8501 Y1.7826  
G01 X-1.8482 Y1.7874  
G01 X-1.8453 Y1.7917  
G01 X-1.7953 Y1.8417  
G01 X-1.7917 Y1.8453  
G01 X-1.7874 Y1.8482  
G01 X-1.7826 Y1.8501  
G01 X-1.7776 Y1.8511  
G01 X-1.3474 Y1.8511  
G01 X-1.3424 Y1.8501  
G01 X-1.3385 Y1.8485  
G01 X-1.2703 Y1.9167  
G01 X-1.2667 Y1.9203  
G01 X-1.2624 Y1.9232  
G01 X-1.2576 Y1.9251  
G01 X-1.2526 Y1.9261  
G01 X-1.1707 Y1.9261  
G01 X-1.1637 Y1.9331  
G01 X-1.1538 Y1.9331  
G01 X-1.1011 Y1.9858  
G01 X-1.1011 Y2.4239  
G01 X-1.4017 Y2.4239  
G01 X-1.4958 Y2.3297  
G01 X-1.5001 Y2.3268  
G01 X-1.5049 Y2.3249  
G01 X-1.5099 Y2.3239  
G01 X-1.6694 Y2.3239  
G01 X-1.6834 Y2.3099  
G01 X-1.7166 Y2.3099  
G01 X-1.7401 Y2.3334  
G01 X-1.7401 Y2.3666  
G01 X-1.7166 Y2.3901  
G01 X-1.6834 Y2.3901  
G01 X-1.6694 Y2.3761  
G01 X-1.5233 Y2.3761  
G01 X-1.4328 Y2.4667  
G01 X-1.4292 Y2.4703  
G01 X-1.4249 Y2.4732  
G01 X-1.4201 Y2.4751  
G01 X-1.4151 Y2.4761  
G01 X-0.9983 Y2.4761  
G01 X-0.8918 Y2.5827  
G01 X-0.8961 Y2.5871  
G01 X-0.8961 Y2.6129  
G01 X-0.8779 Y2.6311  
G01 X-0.8521 Y2.6311  
G01 X-0.8471 Y2.6261  
G01 X-0.6608 Y2.6261  
G01 X-0.5501 Y2.7368  
G01 X-0.5501 Y2.7708  
G01 X-0.5208 Y2.8001  
G01 X-0.4792 Y2.8001  
G01 X-0.4500 Y2.7709  
G01 X-0.4208 Y2.8001  
G01 X-0.3792 Y2.8001  
G01 X-0.3500 Y2.7709  
G01 X-0.3208 Y2.8001  
G01 X-0.2792 Y2.8001  
G01 X-0.2499 Y2.7708  
G01 X-0.2499 Y2.7368  
G01 X-0.1797 Y2.6667  
G01 X-0.1768 Y2.6624  
G01 X-0.1749 Y2.6576  
G01 X-0.1739 Y2.6526  
G01 X-0.1739 Y2.4207  
G01 X-0.1669 Y2.4137  
G01 X-0.1669 Y2.3863  
G01 X-0.1863 Y2.3669  
G01 X-0.2137 Y2.3669  
G01 X-0.2331 Y2.3863  
G01 X-0.2331 Y2.4137  
G01 X-0.2261 Y2.4207  
G01 X-0.2261 Y2.6392  
G01 X-0.2868 Y2.6999  
G01 X-0.3208 Y2.6999  
G01 X-0.3500 Y2.7291  
G01 X-0.3739 Y2.7052  
G01 X-0.3739 Y2.5108  
G01 X-0.1047 Y2.2417  
G01 X-0.1018 Y2.2374  
G01 X-0.0999 Y2.2326  
G01 X-0.0989 Y2.2276  
G01 X-0.0989 Y1.9724  
G01 X-0.0999 Y1.9674  
G01 X-0.1018 Y1.9626  
G01 X-0.1047 Y1.9583  
G01 X-0.1083 Y1.9547  
G01 X-0.1583 Y1.9047  
G01 X-0.1626 Y1.9018  
G01 X-0.1674 Y1.8999  
G01 X-0.1724 Y1.8989  
G01 X-0.2276 Y1.8989  
G01 X-0.2326 Y1.8999  
G01 X-0.2374 Y1.9018  
G01 X-0.2417 Y1.9047  
G01 X-0.2453 Y1.9083  
G01 X-0.6108 Y2.2739  
G01 X-0.7793 Y2.2739  
G01 X-0.7863 Y2.2669  
G01 X-0.8137 Y2.2669  
G01 X-0.8331 Y2.2863  
G01 X-0.8331 Y2.3137  
G01 X-0.8137 Y2.3331  
G01 X-0.7863 Y2.3331  
G01 X-0.7793 Y2.3261  
G01 X-0.5974 Y2.3261  
G01 X-0.5924 Y2.3251  
G01 X-0.5876 Y2.3232  
G01 X-0.5833 Y2.3203  
G01 X-0.2142 Y1.9511  
G01 X-0.1858 Y1.9511  
G01 X-0.1511 Y1.9858  
G01 X-0.1511 Y2.2142  
G01 X-0.4167 Y2.4797  
G01 X-0.4203 Y2.4833  
G01 X-0.4232 Y2.4876  
G01 X-0.4251 Y2.4924  
G01 X-0.4261 Y2.4974  
G01 X-0.4261 Y2.7052  
G01 X-0.4500 Y2.7291  
G01 X-0.4792 Y2.6999  
G01 X-0.5132 Y2.6999  
G01 X-0.6333 Y2.5797  
G01 X-0.6376 Y2.5768  
G01 X-0.6424 Y2.5749  
G01 X-0.6474 Y2.5739  
G01 X-0.8277 Y2.5739  
G01 X-0.8283 Y2.5727  
G01 X-0.8290 Y2.5718  
G01 X-0.8297 Y2.5708  
G01 X-0.8307 Y2.5698  
G01 X-0.8316 Y2.5688  
G01 X-0.8325 Y2.5680  
G01 X-0.9708 Y2.4297  
G01 X-0.9751 Y2.4268  
G01 X-0.9799 Y2.4249  
G01 X-0.9849 Y2.4239  
G01 X-1.0489 Y2.4239  
G01 X-1.0489 Y1.9724  
G01 X-1.0499 Y1.9674  
G01 X-1.0518 Y1.9626  
G01 X-1.0547 Y1.9583  
G01 X-1.1169 Y1.8962  
G01 X-1.1169 Y1.8863  
G01 X-1.1363 Y1.8669  
G01 X-1.1637 Y1.8669  
G01 X-1.1707 Y1.8739  
G01 X-1.2392 Y1.8739  
G01 X-1.3172 Y1.7958  
G01 X-1.3833 Y1.7297  
G01 X-1.3876 Y1.7268  
G01 X-1.3924 Y1.7249  
G01 X-1.3974 Y1.7239  
G01 X-1.4295 Y1.7239  
G01 X-1.4343 Y1.7206  
G01 X-1.4403 Y1.7181  
G01 X-1.4467 Y1.7169  
G01 X-1.4533 Y1.7169  
G01 X-1.4597 Y1.7181  
G01 X-1.4657 Y1.7206  
G01 X-1.4711 Y1.7243  
G01 X-1.4757 Y1.7289  
G01 X-1.4794 Y1.7343  
G01 X-1.4819 Y1.7403  
G01 X-1.4831 Y1.7467  
G01 X-1.4831 Y1.7533  
G01 X-1.4819 Y1.7597  
G01 X-1.4794 Y1.7657  
G01 X-1.4757 Y1.7711  
G01 X-1.4711 Y1.7757  
G01 X-1.4657 Y1.7794  
G01 X-1.4597 Y1.7819  
G01 X-1.4533 Y1.7831  
G01 X-1.4467 Y1.7831  
G01 X-1.4403 Y1.7819  
G01 X-1.4343 Y1.7794  
G01 X-1.4295 Y1.7761  
G01 X-1.4108 Y1.7761  
G01 X-1.3881 Y1.7989  
G01 X-1.7642 Y1.7989  
G01 X-1.7989 Y1.7642  
G01 X-1.7989 Y1.5761  
G01 X-1.7207 Y1.5761  
G01 X-1.7137 Y1.5831  
G01 X-1.6863 Y1.5831  
G01 X-1.6669 Y1.5637  
G01 X-1.6669 Y1.5538  
G01 X-1.6142 Y1.5011  
G01 X-1.2474 Y1.5011  
G01 X-1.2424 Y1.5001  
G01 X-1.2376 Y1.4982  
G01 X-1.2333 Y1.4953  
G01 X-1.2297 Y1.4917  
G01 X-0.9774 Y1.2394  
G01 X-0.9712 Y1.2440  
G01 X-0.9640 Y1.2476  
G01 X-0.9563 Y1.2501  
G01 X-0.9483 Y1.2514  
G01 X-0.8517 Y1.2514  
G01 X-0.8437 Y1.2501  
G01 X-0.8360 Y1.2476  
G01 X-0.8288 Y1.2440  
G01 X-0.8223 Y1.2392  
G01 X-0.8165 Y1.2335  
G01 X-0.8118 Y1.2269  
G01 X-0.8114 Y1.2261  
G01 X-0.6207 Y1.2261  
G01 X-0.6137 Y1.2331  
G01 X-0.6038 Y1.2331  
G01 X-0.4261 Y1.4108  
G01 X-0.4261 Y1.4804  
G01 X-0.4288 Y1.4804  
G01 X-0.4696 Y1.5211  
G01 X-0.4696 Y1.5788  
G01 X-0.4288 Y1.6196  
G01 X-0.3711 Y1.6196  
G01 X-0.3304 Y1.5788  
G01 X-0.3304 Y1.5211  
G01 X-0.3711 Y1.4804  
G01 X-0.3739 Y1.4804  
G01 X-0.3739 Y1.3974  
G01 X-0.3749 Y1.3924  
G01 X-0.3768 Y1.3876  
G01 X-0.3797 Y1.3833  
G01 X-0.5669 Y1.1962  
G01 X-0.5669 Y1.1863  
G00 Z0.1000  
G00 X-0.6669 Y1.3863  
G01 Z-0.0021 F10    
G01 X-0.6863 Y1.3669  F20    
G01 X-0.7137 Y1.3669  
G01 X-0.7207 Y1.3739  
G01 X-0.8793 Y1.3739  
G01 X-0.8863 Y1.3669  
G01 X-0.9137 Y1.3669  
G01 X-0.9331 Y1.3863  
G01 X-0.9331 Y1.4137  
G01 X-0.9137 Y1.4331  
G01 X-0.8863 Y1.4331  
G01 X-0.8793 Y1.4261  
G01 X-0.7207 Y1.4261  
G01 X-0.7137 Y1.4331  
G01 X-0.7136 Y1.5151  
G01 X-0.7126 Y1.5201  
G01 X-0.7107 Y1.5249  
G01 X-0.7078 Y1.5292  
G01 X-0.4677 Y1.7692  
G01 X-0.4696 Y1.7711  
G01 X-0.4696 Y1.8288  
G01 X-0.4288 Y1.8696  
G01 X-0.3711 Y1.8696  
G01 X-0.3304 Y1.8288  
G01 X-0.3304 Y1.7711  
G01 X-0.3711 Y1.7304  
G01 X-0.4288 Y1.7304  
G01 X-0.4308 Y1.7323  
G01 X-0.6614 Y1.5017  
G01 X-0.6614 Y1.4099  
G01 X-0.6624 Y1.4049  
G01 X-0.6643 Y1.4001  
G01 X-0.6669 Y1.3963  
G01 X-0.6669 Y1.3863  
G00 Z0.1000  
G00 X-0.6669 Y1.7863  
G01 Z-0.0021 F10    
G01 X-0.6863 Y1.7669  F20    
G01 X-0.6962 Y1.7669  
G01 X-0.8708 Y1.5922  
G01 X-0.8751 Y1.5893  
G01 X-0.8799 Y1.5874  
G01 X-0.8849 Y1.5864  
G01 X-1.5151 Y1.5864  
G01 X-1.5201 Y1.5874  
G01 X-1.5249 Y1.5893  
G01 X-1.5292 Y1.5922  
G01 X-1.6540 Y1.7170  
G01 X-1.6597 Y1.7181  
G01 X-1.6657 Y1.7206  
G01 X-1.6711 Y1.7243  
G01 X-1.6757 Y1.7289  
G01 X-1.6794 Y1.7343  
G01 X-1.6819 Y1.7403  
G01 X-1.6831 Y1.7467  
G01 X-1.6831 Y1.7533  
G01 X-1.6819 Y1.7597  
G01 X-1.6794 Y1.7657  
G01 X-1.6757 Y1.7711  
G01 X-1.6711 Y1.7757  
G01 X-1.6657 Y1.7794  
G01 X-1.6597 Y1.7819  
G01 X-1.6533 Y1.7831  
G01 X-1.6467 Y1.7831  
G01 X-1.6403 Y1.7819  
G01 X-1.6343 Y1.7794  
G01 X-1.6289 Y1.7757  
G01 X-1.6243 Y1.7711  
G01 X-1.6206 Y1.7657  
G01 X-1.6181 Y1.7597  
G01 X-1.6170 Y1.7540  
G01 X-1.5017 Y1.6386  
G01 X-0.8983 Y1.6386  
G01 X-0.7331 Y1.8038  
G01 X-0.7331 Y1.8137  
G01 X-0.7261 Y1.8207  
G01 X-0.7261 Y1.9892  
G01 X-0.7983 Y2.0614  
G01 X-0.8160 Y2.0614  
G01 X-0.8386 Y2.0840  
G01 X-0.8386 Y2.1160  
G01 X-0.8160 Y2.1386  
G01 X-0.7840 Y2.1386  
G01 X-0.7614 Y2.1160  
G01 X-0.7614 Y2.0983  
G01 X-0.6797 Y2.0167  
G01 X-0.6768 Y2.0124  
G01 X-0.6749 Y2.0076  
G01 X-0.6739 Y2.0026  
G01 X-0.6739 Y1.8207  
G01 X-0.6669 Y1.8137  
G01 X-0.6669 Y1.7863  
G00 Z0.1000  
G00 X-0.8669 Y1.7863  
G01 Z-0.0021 F10    
G01 X-0.8863 Y1.7669  F20    
G01 X-0.8962 Y1.7669  
G01 X-0.9333 Y1.7297  
G01 X-0.9376 Y1.7268  
G01 X-0.9424 Y1.7249  
G01 X-0.9474 Y1.7239  
G01 X-1.2793 Y1.7239  
G01 X-1.2863 Y1.7169  
G01 X-1.2962 Y1.7169  
G01 X-1.3583 Y1.6547  
G01 X-1.3626 Y1.6518  
G01 X-1.3674 Y1.6499  
G01 X-1.3724 Y1.6489  
G01 X-1.4776 Y1.6489  
G01 X-1.4826 Y1.6499  
G01 X-1.4874 Y1.6518  
G01 X-1.4917 Y1.6547  
G01 X-1.4953 Y1.6583  
G01 X-1.5540 Y1.7170  
G01 X-1.5597 Y1.7181  
G01 X-1.5657 Y1.7206  
G01 X-1.5711 Y1.7243  
G01 X-1.5757 Y1.7289  
G01 X-1.5794 Y1.7343  
G01 X-1.5819 Y1.7403  
G01 X-1.5831 Y1.7467  
G01 X-1.5831 Y1.7533  
G01 X-1.5819 Y1.7597  
G01 X-1.5794 Y1.7657  
G01 X-1.5757 Y1.7711  
G01 X-1.5711 Y1.7757  
G01 X-1.5657 Y1.7794  
G01 X-1.5597 Y1.7819  
G01 X-1.5533 Y1.7831  
G01 X-1.5467 Y1.7831  
G01 X-1.5403 Y1.7819  
G01 X-1.5343 Y1.7794  
G01 X-1.5289 Y1.7757  
G01 X-1.5243 Y1.7711  
G01 X-1.5206 Y1.7657  
G01 X-1.5181 Y1.7597  
G01 X-1.5170 Y1.7540  
G01 X-1.4642 Y1.7011  
G01 X-1.3858 Y1.7011  
G01 X-1.3331 Y1.7538  
G01 X-1.3331 Y1.7637  
G01 X-1.3137 Y1.7831  
G01 X-1.2863 Y1.7831  
G01 X-1.2793 Y1.7761  
G01 X-0.9608 Y1.7761  
G01 X-0.9331 Y1.8038  
G01 X-0.9331 Y1.8137  
G01 X-0.9261 Y1.8207  
G01 X-0.9261 Y2.0715  
G01 X-0.9386 Y2.0840  
G01 X-0.9386 Y2.1160  
G01 X-0.9160 Y2.1386  
G01 X-0.8840 Y2.1386  
G01 X-0.8614 Y2.1160  
G01 X-0.8614 Y2.0840  
G01 X-0.8739 Y2.0715  
G01 X-0.8739 Y1.8207  
G01 X-0.8669 Y1.8137  
G01 X-0.8669 Y1.7863  
G00 Z0.1000  
G00 X-1.1169 Y1.9863  
G01 Z-0.0021 F10    
G01 X-1.1363 Y1.9669  F20    
G01 X-1.1463 Y1.9669  
G01 X-1.1501 Y1.9643  
G01 X-1.1549 Y1.9624  
G01 X-1.1599 Y1.9614  
G01 X-1.3142 Y1.9614  
G01 X-1.4047 Y1.8708  
G01 X-1.4083 Y1.8672  
G01 X-1.4126 Y1.8643  
G01 X-1.4174 Y1.8624  
G01 X-1.4224 Y1.8614  
G01 X-2.0517 Y1.8614  
G01 X-2.2232 Y1.6899  
G01 X-2.2223 Y1.6892  
G01 X-2.2165 Y1.6835  
G01 X-2.2118 Y1.6769  
G01 X-2.2081 Y1.6697  
G01 X-2.2056 Y1.6620  
G01 X-2.2044 Y1.6540  
G01 X-2.2044 Y1.6460  
G01 X-2.2056 Y1.6380  
G01 X-2.2081 Y1.6303  
G01 X-2.2118 Y1.6231  
G01 X-2.2165 Y1.6165  
G01 X-2.2223 Y1.6108  
G01 X-2.2288 Y1.6060  
G01 X-2.2360 Y1.6024  
G01 X-2.2437 Y1.5999  
G01 X-2.2517 Y1.5986  
G01 X-2.2739 Y1.5986  
G01 X-2.2739 Y1.3363  
G01 X-2.2559 Y1.3183  
G01 X-2.2559 Y1.2817  
G01 X-2.2739 Y1.2637  
G01 X-2.2739 Y1.2363  
G01 X-2.2559 Y1.2183  
G01 X-2.2559 Y1.1817  
G01 X-2.2817 Y1.1559  
G01 X-2.3183 Y1.1559  
G01 X-2.3441 Y1.1817  
G01 X-2.3441 Y1.2183  
G01 X-2.3261 Y1.2363  
G01 X-2.3261 Y1.2637  
G01 X-2.3441 Y1.2817  
G01 X-2.3441 Y1.3183  
G01 X-2.3261 Y1.3363  
G01 X-2.3261 Y1.5986  
G01 X-2.3483 Y1.5986  
G01 X-2.3563 Y1.5999  
G01 X-2.3640 Y1.6024  
G01 X-2.3712 Y1.6060  
G01 X-2.3777 Y1.6108  
G01 X-2.3835 Y1.6165  
G01 X-2.3882 Y1.6231  
G01 X-2.3919 Y1.6303  
G01 X-2.3944 Y1.6380  
G01 X-2.3956 Y1.6460  
G01 X-2.3956 Y1.6540  
G01 X-2.3944 Y1.6620  
G01 X-2.3919 Y1.6697  
G01 X-2.3882 Y1.6769  
G01 X-2.3835 Y1.6835  
G01 X-2.3777 Y1.6892  
G01 X-2.3712 Y1.6940  
G01 X-2.3640 Y1.6976  
G01 X-2.3563 Y1.7001  
G01 X-2.3483 Y1.7014  
G01 X-2.2856 Y1.7014  
G01 X-2.0792 Y1.9078  
G01 X-2.0749 Y1.9107  
G01 X-2.0701 Y1.9126  
G01 X-2.0651 Y1.9136  
G01 X-1.4358 Y1.9136  
G01 X-1.3417 Y2.0078  
G01 X-1.3374 Y2.0107  
G01 X-1.3326 Y2.0126  
G01 X-1.3276 Y2.0136  
G01 X-1.1831 Y2.0136  
G01 X-1.1761 Y2.0207  
G01 X-1.1761 Y2.0892  
G01 X-1.2858 Y2.1989  
G01 X-1.3142 Y2.1989  
G01 X-1.4239 Y2.0892  
G01 X-1.4239 Y2.0705  
G01 X-1.4206 Y2.0657  
G01 X-1.4181 Y2.0597  
G01 X-1.4169 Y2.0533  
G01 X-1.4169 Y2.0467  
G01 X-1.4181 Y2.0403  
G01 X-1.4206 Y2.0343  
G01 X-1.4243 Y2.0289  
G01 X-1.4289 Y2.0243  
G01 X-1.4343 Y2.0206  
G01 X-1.4403 Y2.0181  
G01 X-1.4467 Y2.0169  
G01 X-1.4533 Y2.0169  
G01 X-1.4597 Y2.0181  
G01 X-1.4657 Y2.0206  
G01 X-1.4711 Y2.0243  
G01 X-1.4757 Y2.0289  
G01 X-1.4794 Y2.0343  
G01 X-1.4819 Y2.0403  
G01 X-1.4831 Y2.0467  
G01 X-1.4831 Y2.0533  
G01 X-1.4819 Y2.0597  
G01 X-1.4794 Y2.0657  
G01 X-1.4761 Y2.0705  
G01 X-1.4761 Y2.1026  
G01 X-1.4751 Y2.1076  
G01 X-1.4732 Y2.1124  
G01 X-1.4703 Y2.1167  
G01 X-1.4667 Y2.1203  
G01 X-1.3417 Y2.2453  
G01 X-1.3374 Y2.2482  
G01 X-1.3326 Y2.2501  
G01 X-1.3276 Y2.2511  
G01 X-1.2724 Y2.2511  
G01 X-1.2674 Y2.2501  
G01 X-1.2626 Y2.2482  
G01 X-1.2583 Y2.2453  
G01 X-1.2547 Y2.2417  
G01 X-1.1297 Y2.1167  
G01 X-1.1268 Y2.1124  
G01 X-1.1249 Y2.1076  
G01 X-1.1239 Y2.1026  
G01 X-1.1239 Y2.0207  
G01 X-1.1169 Y2.0137  
G01 X-1.1169 Y1.9863  
G00 Z0.1000  
G00 X-1.2797 Y2.0833  
G01 Z-0.0021 F10    
G01 X-1.4047 Y1.9583  F20    
G01 X-1.4083 Y1.9547  
G01 X-1.4126 Y1.9518  
G01 X-1.4174 Y1.9499  
G01 X-1.4224 Y1.9489  
G01 X-1.5776 Y1.9489  
G01 X-1.5826 Y1.9499  
G01 X-1.5874 Y1.9518  
G01 X-1.5917 Y1.9547  
G01 X-1.6540 Y2.0170  
G01 X-1.6597 Y2.0181  
G01 X-1.6657 Y2.0206  
G01 X-1.6705 Y2.0239  
G01 X-1.7295 Y2.0239  
G01 X-1.7343 Y2.0206  
G01 X-1.7403 Y2.0181  
G01 X-1.7467 Y2.0169  
G01 X-1.7533 Y2.0169  
G01 X-1.7597 Y2.0181  
G01 X-1.7657 Y2.0206  
G01 X-1.7711 Y2.0243  
G01 X-1.7757 Y2.0289  
G01 X-1.7794 Y2.0343  
G01 X-1.7819 Y2.0403  
G01 X-1.7830 Y2.0460  
G01 X-1.8358 Y2.0989  
G01 X-2.1267 Y2.0989  
G01 X-2.1958 Y2.0297  
G01 X-2.2001 Y2.0268  
G01 X-2.2049 Y2.0249  
G01 X-2.2099 Y2.0239  
G01 X-2.2665 Y2.0239  
G01 X-2.2825 Y2.0079  
G01 X-2.3175 Y2.0079  
G01 X-2.3421 Y2.0325  
G01 X-2.3421 Y2.0675  
G01 X-2.3175 Y2.0921  
G01 X-2.2825 Y2.0921  
G01 X-2.2665 Y2.0761  
G01 X-2.2233 Y2.0761  
G01 X-2.1578 Y2.1417  
G01 X-2.1542 Y2.1453  
G01 X-2.1499 Y2.1482  
G01 X-2.1451 Y2.1501  
G01 X-2.1401 Y2.1511  
G01 X-1.8224 Y2.1511  
G01 X-1.8174 Y2.1501  
G01 X-1.8126 Y2.1482  
G01 X-1.8083 Y2.1453  
G01 X-1.7460 Y2.0830  
G01 X-1.7403 Y2.0819  
G01 X-1.7343 Y2.0794  
G01 X-1.7295 Y2.0761  
G01 X-1.6705 Y2.0761  
G01 X-1.6657 Y2.0794  
G01 X-1.6597 Y2.0819  
G01 X-1.6533 Y2.0831  
G01 X-1.6467 Y2.0831  
G01 X-1.6403 Y2.0819  
G01 X-1.6343 Y2.0794  
G01 X-1.6289 Y2.0757  
G01 X-1.6243 Y2.0711  
G01 X-1.6206 Y2.0657  
G01 X-1.6181 Y2.0597  
G01 X-1.6170 Y2.0540  
G01 X-1.5642 Y2.0011  
G01 X-1.4358 Y2.0011  
G01 X-1.3261 Y2.1108  
G01 X-1.3261 Y2.1293  
G01 X-1.3331 Y2.1363  
G01 X-1.3331 Y2.1637  
G01 X-1.3137 Y2.1831  
G01 X-1.2863 Y2.1831  
G01 X-1.2669 Y2.1637  
G01 X-1.2669 Y2.1363  
G01 X-1.2739 Y2.1293  
G01 X-1.2739 Y2.0974  
G01 X-1.2749 Y2.0924  
G01 X-1.2768 Y2.0876  
G01 X-1.2797 Y2.0833  
G00 Z0.1000  
G00 X-1.2137 Y2.2669  
G01 Z-0.0021 F10    
G01 X-1.2207 Y2.2739  F20    
G01 X-1.3392 Y2.2739  
G01 X-1.5239 Y2.0892  
G01 X-1.5239 Y2.0705  
G01 X-1.5206 Y2.0657  
G01 X-1.5181 Y2.0597  
G01 X-1.5169 Y2.0533  
G01 X-1.5169 Y2.0467  
G01 X-1.5181 Y2.0403  
G01 X-1.5206 Y2.0343  
G01 X-1.5243 Y2.0289  
G01 X-1.5289 Y2.0243  
G01 X-1.5343 Y2.0206  
G01 X-1.5403 Y2.0181  
G01 X-1.5467 Y2.0169  
G01 X-1.5533 Y2.0169  
G01 X-1.5597 Y2.0181  
G01 X-1.5657 Y2.0206  
G01 X-1.5711 Y2.0243  
G01 X-1.5757 Y2.0289  
G01 X-1.5794 Y2.0343  
G01 X-1.5819 Y2.0403  
G01 X-1.5831 Y2.0467  
G01 X-1.5831 Y2.0533  
G01 X-1.5819 Y2.0597  
G01 X-1.5794 Y2.0657  
G01 X-1.5761 Y2.0705  
G01 X-1.5761 Y2.1026  
G01 X-1.5751 Y2.1076  
G01 X-1.5732 Y2.1124  
G01 X-1.5703 Y2.1167  
G01 X-1.3870 Y2.3000  
G01 X-1.3968 Y2.3099  
G01 X-1.4166 Y2.3099  
G01 X-1.4401 Y2.3334  
G01 X-1.4401 Y2.3666  
G01 X-1.4166 Y2.3901  
G01 X-1.3834 Y2.3901  
G01 X-1.3599 Y2.3666  
G01 X-1.3599 Y2.3468  
G01 X-1.3392 Y2.3261  
G01 X-1.2207 Y2.3261  
G01 X-1.2137 Y2.3331  
G01 X-1.1863 Y2.3331  
G01 X-1.1669 Y2.3137  
G01 X-1.1669 Y2.2863  
G01 X-1.1863 Y2.2669  
G01 X-1.2137 Y2.2669  
G00 Z0.1000  
G00 X-1.3672 Y2.4958  
G01 Z-0.0021 F10    
G01 X-1.3708 Y2.4922  F20    
G01 X-1.3751 Y2.4893  
G01 X-1.3799 Y2.4874  
G01 X-1.3849 Y2.4864  
G01 X-1.5392 Y2.4864  
G01 X-1.6172 Y2.4083  
G01 X-1.6208 Y2.4047  
G01 X-1.6251 Y2.4018  
G01 X-1.6299 Y2.3999  
G01 X-1.6349 Y2.3989  
G01 X-1.9142 Y2.3989  
G01 X-2.0669 Y2.2462  
G01 X-2.0669 Y2.2207  
G01 X-2.0681 Y2.2143  
G01 X-2.0706 Y2.2083  
G01 X-2.0743 Y2.2029  
G01 X-2.0789 Y2.1983  
G01 X-2.0843 Y2.1946  
G01 X-2.0903 Y2.1921  
G01 X-2.0967 Y2.1909  
G01 X-2.1033 Y2.1909  
G01 X-2.1097 Y2.1921  
G01 X-2.1157 Y2.1946  
G01 X-2.1211 Y2.1983  
G01 X-2.1257 Y2.2029  
G01 X-2.1294 Y2.2083  
G01 X-2.1319 Y2.2143  
G01 X-2.1331 Y2.2207  
G01 X-2.1331 Y2.2793  
G01 X-2.1319 Y2.2857  
G01 X-2.1294 Y2.2917  
G01 X-2.1257 Y2.2971  
G01 X-2.1211 Y2.3017  
G01 X-2.1157 Y2.3054  
G01 X-2.1097 Y2.3079  
G01 X-2.1033 Y2.3091  
G01 X-2.0967 Y2.3091  
G01 X-2.0903 Y2.3079  
G01 X-2.0843 Y2.3054  
G01 X-2.0827 Y2.3043  
G01 X-1.9417 Y2.4453  
G01 X-1.9374 Y2.4482  
G01 X-1.9326 Y2.4501  
G01 X-1.9276 Y2.4511  
G01 X-1.6483 Y2.4511  
G01 X-1.5667 Y2.5328  
G01 X-1.5624 Y2.5357  
G01 X-1.5576 Y2.5376  
G01 X-1.5526 Y2.5386  
G01 X-1.3983 Y2.5386  
G01 X-0.9331 Y3.0038  
G01 X-0.9331 Y3.0137  
G01 X-0.9137 Y3.0331  
G01 X-0.8863 Y3.0331  
G01 X-0.8669 Y3.0137  
G01 X-0.8669 Y2.9863  
G01 X-0.8863 Y2.9669  
G01 X-0.8962 Y2.9669  
G01 X-1.3672 Y2.4958  
G00 Z0.1000  
G00 X-1.6297 Y2.5333  
G01 Z-0.0021 F10    
G01 X-1.6333 Y2.5297  F20    
G01 X-1.6376 Y2.5268  
G01 X-1.6424 Y2.5249  
G01 X-1.6474 Y2.5239  
G01 X-2.0669 Y2.5239  
G01 X-2.0669 Y2.5207  
G01 X-2.0681 Y2.5143  
G01 X-2.0706 Y2.5083  
G01 X-2.0743 Y2.5029  
G01 X-2.0789 Y2.4983  
G01 X-2.0843 Y2.4946  
G01 X-2.0903 Y2.4921  
G01 X-2.0967 Y2.4909  
G01 X-2.1033 Y2.4909  
G01 X-2.1097 Y2.4921  
G01 X-2.1157 Y2.4946  
G01 X-2.1211 Y2.4983  
G01 X-2.1257 Y2.5029  
G01 X-2.1294 Y2.5083  
G01 X-2.1319 Y2.5143  
G01 X-2.1331 Y2.5207  
G01 X-2.1331 Y2.5793  
G01 X-2.1319 Y2.5857  
G01 X-2.1294 Y2.5917  
G01 X-2.1257 Y2.5971  
G01 X-2.1211 Y2.6017  
G01 X-2.1157 Y2.6054  
G01 X-2.1097 Y2.6079  
G01 X-2.1033 Y2.6091  
G01 X-2.0967 Y2.6091  
G01 X-2.0903 Y2.6079  
G01 X-2.0843 Y2.6054  
G01 X-2.0789 Y2.6017  
G01 X-2.0743 Y2.5971  
G01 X-2.0706 Y2.5917  
G01 X-2.0681 Y2.5857  
G01 X-2.0669 Y2.5793  
G01 X-2.0669 Y2.5761  
G01 X-1.6608 Y2.5761  
G01 X-1.2167 Y3.0203  
G01 X-1.2124 Y3.0232  
G01 X-1.2076 Y3.0251  
G01 X-1.2026 Y3.0261  
G01 X-1.1707 Y3.0261  
G01 X-1.1637 Y3.0331  
G01 X-1.1363 Y3.0331  
G01 X-1.1169 Y3.0137  
G01 X-1.1169 Y2.9863  
G01 X-1.1363 Y2.9669  
G01 X-1.1637 Y2.9669  
G01 X-1.1707 Y2.9739  
G01 X-1.1892 Y2.9739  
G01 X-1.6297 Y2.5333  
G00 Z0.1000  
G00 X-1.7797 Y2.6333  
G01 Z-0.0021 F10    
G01 X-1.7833 Y2.6297  F20    
G01 X-1.7876 Y2.6268  
G01 X-1.7924 Y2.6249  
G01 X-1.7974 Y2.6239  
G01 X-2.1142 Y2.6239  
G01 X-2.1669 Y2.5712  
G01 X-2.1669 Y2.5207  
G01 X-2.1681 Y2.5143  
G01 X-2.1706 Y2.5083  
G01 X-2.1743 Y2.5029  
G01 X-2.1789 Y2.4983  
G01 X-2.1843 Y2.4946  
G01 X-2.1903 Y2.4921  
G01 X-2.1967 Y2.4909  
G01 X-2.2033 Y2.4909  
G01 X-2.2097 Y2.4921  
G01 X-2.2157 Y2.4946  
G01 X-2.2211 Y2.4983  
G01 X-2.2257 Y2.5029  
G01 X-2.2294 Y2.5083  
G01 X-2.2319 Y2.5143  
G01 X-2.2331 Y2.5207  
G01 X-2.2331 Y2.5793  
G01 X-2.2319 Y2.5857  
G01 X-2.2294 Y2.5917  
G01 X-2.2257 Y2.5971  
G01 X-2.2211 Y2.6017  
G01 X-2.2157 Y2.6054  
G01 X-2.2097 Y2.6079  
G01 X-2.2033 Y2.6091  
G01 X-2.2028 Y2.6091  
G01 X-2.1417 Y2.6703  
G01 X-2.1374 Y2.6732  
G01 X-2.1326 Y2.6751  
G01 X-2.1276 Y2.6761  
G01 X-1.8108 Y2.6761  
G01 X-1.4667 Y3.0203  
G01 X-1.4624 Y3.0232  
G01 X-1.4576 Y3.0251  
G01 X-1.4526 Y3.0261  
G01 X-1.4207 Y3.0261  
G01 X-1.4137 Y3.0331  
G01 X-1.3863 Y3.0331  
G01 X-1.3669 Y3.0137  
G01 X-1.3669 Y2.9863  
G01 X-1.3863 Y2.9669  
G01 X-1.4137 Y2.9669  
G01 X-1.4207 Y2.9739  
G01 X-1.4392 Y2.9739  
G01 X-1.7797 Y2.6333  
G00 Z0.1000  
G00 X-1.9672 Y2.6958  
G01 Z-0.0021 F10    
G01 X-1.9708 Y2.6922  F20    
G01 X-1.9751 Y2.6893  
G01 X-1.9799 Y2.6874  
G01 X-1.9849 Y2.6864  
G01 X-2.1517 Y2.6864  
G01 X-2.2669 Y2.5712  
G01 X-2.2669 Y2.5207  
G01 X-2.2681 Y2.5143  
G01 X-2.2706 Y2.5083  
G01 X-2.2743 Y2.5029  
G01 X-2.2789 Y2.4983  
G01 X-2.2843 Y2.4946  
G01 X-2.2903 Y2.4921  
G01 X-2.2967 Y2.4909  
G01 X-2.3033 Y2.4909  
G01 X-2.3097 Y2.4921  
G01 X-2.3157 Y2.4946  
G01 X-2.3211 Y2.4983  
G01 X-2.3257 Y2.5029  
G01 X-2.3294 Y2.5083  
G01 X-2.3319 Y2.5143  
G01 X-2.3331 Y2.5207  
G01 X-2.3331 Y2.5793  
G01 X-2.3319 Y2.5857  
G01 X-2.3294 Y2.5917  
G01 X-2.3257 Y2.5971  
G01 X-2.3211 Y2.6017  
G01 X-2.3157 Y2.6054  
G01 X-2.3097 Y2.6079  
G01 X-2.3033 Y2.6091  
G01 X-2.3028 Y2.6091  
G01 X-2.1792 Y2.7328  
G01 X-2.1749 Y2.7357  
G01 X-2.1701 Y2.7376  
G01 X-2.1651 Y2.7386  
G01 X-1.9983 Y2.7386  
G01 X-1.7167 Y3.0203  
G01 X-1.7124 Y3.0232  
G01 X-1.7076 Y3.0251  
G01 X-1.7026 Y3.0261  
G01 X-1.6707 Y3.0261  
G01 X-1.6637 Y3.0331  
G01 X-1.6363 Y3.0331  
G01 X-1.6169 Y3.0137  
G01 X-1.6169 Y2.9863  
G01 X-1.6363 Y2.9669  
G01 X-1.6637 Y2.9669  
G01 X-1.6707 Y2.9739  
G01 X-1.6892 Y2.9739  
G01 X-1.9672 Y2.6958  
G00 Z0.1000  
G00 X-1.9674 Y2.8999  
G01 Z-0.0021 F10    
G01 X-1.9724 Y2.8989  F20    
G01 X-2.0392 Y2.8989  
G01 X-2.3669 Y2.5712  
G01 X-2.3669 Y2.5207  
G01 X-2.3681 Y2.5143  
G01 X-2.3706 Y2.5083  
G01 X-2.3743 Y2.5029  
G01 X-2.3789 Y2.4983  
G01 X-2.3843 Y2.4946  
G01 X-2.3903 Y2.4921  
G01 X-2.3967 Y2.4909  
G01 X-2.4033 Y2.4909  
G01 X-2.4097 Y2.4921  
G01 X-2.4157 Y2.4946  
G01 X-2.4211 Y2.4983  
G01 X-2.4257 Y2.5029  
G01 X-2.4294 Y2.5083  
G01 X-2.4319 Y2.5143  
G01 X-2.4331 Y2.5207  
G01 X-2.4331 Y2.5793  
G01 X-2.4319 Y2.5857  
G01 X-2.4294 Y2.5917  
G01 X-2.4257 Y2.5971  
G01 X-2.4211 Y2.6017  
G01 X-2.4157 Y2.6054  
G01 X-2.4097 Y2.6079  
G01 X-2.4033 Y2.6091  
G01 X-2.4028 Y2.6091  
G01 X-2.0703 Y2.9417  
G01 X-2.0667 Y2.9453  
G01 X-2.0624 Y2.9482  
G01 X-2.0576 Y2.9501  
G01 X-2.0526 Y2.9511  
G01 X-1.9858 Y2.9511  
G01 X-1.9331 Y3.0038  
G01 X-1.9331 Y3.0137  
G01 X-1.9137 Y3.0331  
G01 X-1.8863 Y3.0331  
G01 X-1.8669 Y3.0137  
G01 X-1.8669 Y2.9863  
G01 X-1.8863 Y2.9669  
G01 X-1.8962 Y2.9669  
G01 X-1.9583 Y2.9047  
G01 X-1.9626 Y2.9018  
G01 X-1.9674 Y2.8999  
G00 Z0.1000  
G00 X-2.1169 Y2.9863  
G01 Z-0.0021 F10    
G01 X-2.1363 Y2.9669  F20    
G01 X-2.1462 Y2.9669  
G01 X-2.4739 Y2.6392  
G01 X-2.4739 Y2.5965  
G01 X-2.4706 Y2.5917  
G01 X-2.4681 Y2.5857  
G01 X-2.4669 Y2.5793  
G01 X-2.4669 Y2.5207  
G01 X-2.4681 Y2.5143  
G01 X-2.4706 Y2.5083  
G01 X-2.4743 Y2.5029  
G01 X-2.4789 Y2.4983  
G01 X-2.4843 Y2.4946  
G01 X-2.4903 Y2.4921  
G01 X-2.4967 Y2.4909  
G01 X-2.5033 Y2.4909  
G01 X-2.5097 Y2.4921  
G01 X-2.5157 Y2.4946  
G01 X-2.5211 Y2.4983  
G01 X-2.5257 Y2.5029  
G01 X-2.5294 Y2.5083  
G01 X-2.5319 Y2.5143  
G01 X-2.5331 Y2.5207  
G01 X-2.5331 Y2.5793  
G01 X-2.5319 Y2.5857  
G01 X-2.5294 Y2.5917  
G01 X-2.5261 Y2.5965  
G01 X-2.5261 Y2.6526  
G01 X-2.5251 Y2.6576  
G01 X-2.5232 Y2.6624  
G01 X-2.5203 Y2.6667  
G01 X-2.1831 Y3.0038  
G01 X-2.1831 Y3.0137  
G01 X-2.1637 Y3.0331  
G01 X-2.1363 Y3.0331  
G01 X-2.1169 Y3.0137  
G01 X-2.1169 Y2.9863  
G00 Z0.1000  
G00 X-2.3669 Y2.9863  
G01 Z-0.0021 F10    
G01 X-2.3739 Y2.9793  F20    
G01 X-2.3739 Y2.9599  
G01 X-2.3749 Y2.9549  
G01 X-2.3768 Y2.9501  
G01 X-2.3797 Y2.9458  
G01 X-2.3833 Y2.9422  
G01 X-2.5739 Y2.7517  
G01 X-2.5739 Y2.5965  
G01 X-2.5706 Y2.5917  
G01 X-2.5681 Y2.5857  
G01 X-2.5669 Y2.5793  
G01 X-2.5669 Y2.5207  
G01 X-2.5681 Y2.5143  
G01 X-2.5706 Y2.5083  
G01 X-2.5743 Y2.5029  
G01 X-2.5789 Y2.4983  
G01 X-2.5843 Y2.4946  
G01 X-2.5903 Y2.4921  
G01 X-2.5967 Y2.4909  
G01 X-2.6033 Y2.4909  
G01 X-2.6097 Y2.4921  
G01 X-2.6157 Y2.4946  
G01 X-2.6211 Y2.4983  
G01 X-2.6257 Y2.5029  
G01 X-2.6294 Y2.5083  
G01 X-2.6319 Y2.5143  
G01 X-2.6331 Y2.5207  
G01 X-2.6331 Y2.5793  
G01 X-2.6319 Y2.5857  
G01 X-2.6294 Y2.5917  
G01 X-2.6261 Y2.5965  
G01 X-2.6261 Y2.7651  
G01 X-2.6251 Y2.7701  
G01 X-2.6232 Y2.7749  
G01 X-2.6203 Y2.7792  
G01 X-2.4261 Y2.9733  
G01 X-2.4261 Y2.9793  
G01 X-2.4331 Y2.9863  
G01 X-2.4331 Y3.0137  
G01 X-2.4137 Y3.0331  
G01 X-2.3863 Y3.0331  
G01 X-2.3669 Y3.0137  
G01 X-2.3669 Y2.9863  
G00 Z0.1000  
G00 X-2.6169 Y2.9863  
G01 Z-0.0021 F10    
G01 X-2.6239 Y2.9793  F20    
G01 X-2.6239 Y2.7974  
G01 X-2.6249 Y2.7924  
G01 X-2.6268 Y2.7876  
G01 X-2.6297 Y2.7833  
G01 X-2.6739 Y2.7392  
G01 X-2.6739 Y2.5965  
G01 X-2.6706 Y2.5917  
G01 X-2.6681 Y2.5857  
G01 X-2.6669 Y2.5793  
G01 X-2.6669 Y2.5207  
G01 X-2.6681 Y2.5143  
G01 X-2.6706 Y2.5083  
G01 X-2.6743 Y2.5029  
G01 X-2.6789 Y2.4983  
G01 X-2.6843 Y2.4946  
G01 X-2.6903 Y2.4921  
G01 X-2.6967 Y2.4909  
G01 X-2.7033 Y2.4909  
G01 X-2.7097 Y2.4921  
G01 X-2.7157 Y2.4946  
G01 X-2.7211 Y2.4983  
G01 X-2.7257 Y2.5029  
G01 X-2.7294 Y2.5083  
G01 X-2.7319 Y2.5143  
G01 X-2.7331 Y2.5207  
G01 X-2.7331 Y2.5793  
G01 X-2.7319 Y2.5857  
G01 X-2.7294 Y2.5917  
G01 X-2.7261 Y2.5965  
G01 X-2.7261 Y2.7526  
G01 X-2.7251 Y2.7576  
G01 X-2.7232 Y2.7624  
G01 X-2.7203 Y2.7667  
G01 X-2.7167 Y2.7703  
G01 X-2.6761 Y2.8108  
G01 X-2.6761 Y2.9793  
G01 X-2.6831 Y2.9863  
G01 X-2.6831 Y3.0137  
G01 X-2.6637 Y3.0331  
G01 X-2.6363 Y3.0331  
G01 X-2.6169 Y3.0137  
G01 X-2.6169 Y2.9863  
G00 Z0.1000  
G00 X-2.7797 Y2.9167  
G01 Z-0.0021 F10    
G01 X-2.7768 Y2.9124  F20    
G01 X-2.7749 Y2.9076  
G01 X-2.7739 Y2.9026  
G01 X-2.7739 Y2.5965  
G01 X-2.7706 Y2.5917  
G01 X-2.7681 Y2.5857  
G01 X-2.7669 Y2.5793  
G01 X-2.7669 Y2.5207  
G01 X-2.7681 Y2.5143  
G01 X-2.7706 Y2.5083  
G01 X-2.7743 Y2.5029  
G01 X-2.7789 Y2.4983  
G01 X-2.7843 Y2.4946  
G01 X-2.7903 Y2.4921  
G01 X-2.7967 Y2.4909  
G01 X-2.8033 Y2.4909  
G01 X-2.8097 Y2.4921  
G01 X-2.8157 Y2.4946  
G01 X-2.8211 Y2.4983  
G01 X-2.8257 Y2.5029  
G01 X-2.8294 Y2.5083  
G01 X-2.8319 Y2.5143  
G01 X-2.8331 Y2.5207  
G01 X-2.8331 Y2.5793  
G01 X-2.8319 Y2.5857  
G01 X-2.8294 Y2.5917  
G01 X-2.8261 Y2.5965  
G01 X-2.8261 Y2.8892  
G01 X-2.9038 Y2.9669  
G01 X-2.9137 Y2.9669  
G01 X-2.9331 Y2.9863  
G01 X-2.9331 Y3.0137  
G01 X-2.9137 Y3.0331  
G01 X-2.8863 Y3.0331  
G01 X-2.8669 Y3.0137  
G01 X-2.8669 Y3.0038  
G01 X-2.7797 Y2.9167  
G00 Z0.1000  
G00 X-2.8797 Y2.7667  
G01 Z-0.0021 F10    
G01 X-2.8768 Y2.7624  F20    
G01 X-2.8749 Y2.7576  
G01 X-2.8739 Y2.7526  
G01 X-2.8739 Y2.5965  
G01 X-2.8706 Y2.5917  
G01 X-2.8681 Y2.5857  
G01 X-2.8669 Y2.5793  
G01 X-2.8669 Y2.5207  
G01 X-2.8681 Y2.5143  
G01 X-2.8706 Y2.5083  
G01 X-2.8743 Y2.5029  
G01 X-2.8789 Y2.4983  
G01 X-2.8843 Y2.4946  
G01 X-2.8903 Y2.4921  
G01 X-2.8967 Y2.4909  
G01 X-2.9033 Y2.4909  
G01 X-2.9097 Y2.4921  
G01 X-2.9157 Y2.4946  
G01 X-2.9211 Y2.4983  
G01 X-2.9257 Y2.5029  
G01 X-2.9294 Y2.5083  
G01 X-2.9319 Y2.5143  
G01 X-2.9331 Y2.5207  
G01 X-2.9331 Y2.5793  
G01 X-2.9319 Y2.5857  
G01 X-2.9294 Y2.5917  
G01 X-2.9261 Y2.5965  
G01 X-2.9261 Y2.7392  
G01 X-3.1538 Y2.9669  
G01 X-3.1637 Y2.9669  
G01 X-3.1831 Y2.9863  
G01 X-3.1831 Y3.0137  
G01 X-3.1637 Y3.0331  
G01 X-3.1363 Y3.0331  
G01 X-3.1169 Y3.0137  
G01 X-3.1169 Y3.0038  
G01 X-2.8797 Y2.7667  
G00 Z0.1000  
G00 X-2.7257 Y2.2971  
G01 Z-0.0021 F10    
G01 X-2.7211 Y2.3017  F20    
G01 X-2.7157 Y2.3054  
G01 X-2.7097 Y2.3079  
G01 X-2.7033 Y2.3091  
G01 X-2.6967 Y2.3091  
G01 X-2.6903 Y2.3079  
G01 X-2.6843 Y2.3054  
G01 X-2.6789 Y2.3017  
G01 X-2.6743 Y2.2971  
G01 X-2.6706 Y2.2917  
G01 X-2.6681 Y2.2857  
G01 X-2.6669 Y2.2793  
G01 X-2.6669 Y2.2761  
G01 X-2.6331 Y2.2761  
G01 X-2.6331 Y2.2793  
G01 X-2.6319 Y2.2857  
G01 X-2.6294 Y2.2917  
G01 X-2.6257 Y2.2971  
G01 X-2.6211 Y2.3017  
G01 X-2.6157 Y2.3054  
G01 X-2.6097 Y2.3079  
G01 X-2.6033 Y2.3091  
G01 X-2.5967 Y2.3091  
G01 X-2.5903 Y2.3079  
G01 X-2.5843 Y2.3054  
G01 X-2.5789 Y2.3017  
G01 X-2.5743 Y2.2971  
G01 X-2.5706 Y2.2917  
G01 X-2.5681 Y2.2857  
G01 X-2.5669 Y2.2793  
G01 X-2.5669 Y2.2207  
G01 X-2.5681 Y2.2143  
G01 X-2.5706 Y2.2083  
G01 X-2.5739 Y2.2035  
G01 X-2.5739 Y2.0207  
G01 X-2.5669 Y2.0137  
G01 X-2.5669 Y1.9863  
G01 X-2.5863 Y1.9669  
G01 X-2.6137 Y1.9669  
G01 X-2.6331 Y1.9863  
G01 X-2.6331 Y2.0137  
G01 X-2.6261 Y2.0207  
G01 X-2.6261 Y2.2035  
G01 X-2.6294 Y2.2083  
G01 X-2.6319 Y2.2143  
G01 X-2.6331 Y2.2207  
G01 X-2.6331 Y2.2239  
G01 X-2.6669 Y2.2239  
G01 X-2.6669 Y2.2207  
G01 X-2.6681 Y2.2143  
G01 X-2.6706 Y2.2083  
G01 X-2.6743 Y2.2029  
G01 X-2.6789 Y2.1983  
G01 X-2.6843 Y2.1946  
G01 X-2.6903 Y2.1921  
G01 X-2.6967 Y2.1909  
G01 X-2.7033 Y2.1909  
G01 X-2.7097 Y2.1921  
G01 X-2.7157 Y2.1946  
G01 X-2.7211 Y2.1983  
G01 X-2.7257 Y2.2029  
G01 X-2.7294 Y2.2083  
G01 X-2.7319 Y2.2143  
G01 X-2.7331 Y2.2207  
G01 X-2.7331 Y2.2793  
G01 X-2.7319 Y2.2857  
G01 X-2.7294 Y2.2917  
G01 X-2.7257 Y2.2971  
G00 Z0.1000  
G00 X-2.5257 Y2.2971  
G01 Z-0.0021 F10    
G01 X-2.5211 Y2.3017  F20    
G01 X-2.5157 Y2.3054  
G01 X-2.5097 Y2.3079  
G01 X-2.5033 Y2.3091  
G01 X-2.4967 Y2.3091  
G01 X-2.4903 Y2.3079  
G01 X-2.4843 Y2.3054  
G01 X-2.4789 Y2.3017  
G01 X-2.4743 Y2.2971  
G01 X-2.4706 Y2.2917  
G01 X-2.4681 Y2.2857  
G01 X-2.4669 Y2.2793  
G01 X-2.4669 Y2.2207  
G01 X-2.4681 Y2.2143  
G01 X-2.4706 Y2.2083  
G01 X-2.4739 Y2.2035  
G01 X-2.4739 Y2.1483  
G01 X-2.3017 Y1.9761  
G01 X-2.2335 Y1.9761  
G01 X-2.2175 Y1.9921  
G01 X-2.1825 Y1.9921  
G01 X-2.1579 Y1.9675  
G01 X-2.1579 Y1.9325  
G01 X-2.1825 Y1.9079  
G01 X-2.2175 Y1.9079  
G01 X-2.2335 Y1.9239  
G01 X-2.3151 Y1.9239  
G01 X-2.3201 Y1.9249  
G01 X-2.3249 Y1.9268  
G01 X-2.3292 Y1.9297  
G01 X-2.3328 Y1.9333  
G01 X-2.5203 Y2.1208  
G01 X-2.5232 Y2.1251  
G01 X-2.5251 Y2.1299  
G01 X-2.5261 Y2.1349  
G01 X-2.5261 Y2.2035  
G01 X-2.5294 Y2.2083  
G01 X-2.5319 Y2.2143  
G01 X-2.5331 Y2.2207  
G01 X-2.5331 Y2.2793  
G01 X-2.5319 Y2.2857  
G01 X-2.5294 Y2.2917  
G01 X-2.5257 Y2.2971  
G00 Z0.1000  
G00 X-0.5167 Y2.4922  
G01 Z-0.0021 F10    
G01 X-0.5203 Y2.4958  F20    
G01 X-0.5232 Y2.5001  
G01 X-0.5251 Y2.5049  
G01 X-0.5261 Y2.5099  
G01 X-0.5261 Y2.5559  
G01 X-0.5496 Y2.5794  
G01 X-0.5496 Y2.6206  
G01 X-0.5206 Y2.6496  
G01 X-0.4794 Y2.6496  
G01 X-0.4504 Y2.6206  
G01 X-0.4504 Y2.5794  
G01 X-0.4739 Y2.5559  
G01 X-0.4739 Y2.5233  
G01 X-0.1797 Y2.2292  
G01 X-0.1768 Y2.2249  
G01 X-0.1749 Y2.2201  
G01 X-0.1739 Y2.2151  
G01 X-0.1739 Y2.0207  
G01 X-0.1669 Y2.0137  
G01 X-0.1669 Y1.9863  
G01 X-0.1863 Y1.9669  
G01 X-0.2137 Y1.9669  
G01 X-0.2331 Y1.9863  
G01 X-0.2331 Y2.0137  
G01 X-0.2261 Y2.0207  
G01 X-0.2261 Y2.2017  
G01 X-0.5167 Y2.4922  
G00 Z0.1000  
G00 X-0.5191 Y2.0460  
G01 Z-0.0021 F10    
G01 X-0.5116 Y2.0484  F20    
G01 X-0.5039 Y2.0496  
G01 X-0.4961 Y2.0496  
G01 X-0.4884 Y2.0484  
G01 X-0.4809 Y2.0460  
G01 X-0.4740 Y2.0425  
G01 X-0.4677 Y2.0379  
G01 X-0.4621 Y2.0323  
G01 X-0.4576 Y2.0261  
G01 X-0.3974 Y2.0261  
G01 X-0.3924 Y2.0251  
G01 X-0.3876 Y2.0232  
G01 X-0.3833 Y2.0203  
G01 X-0.2308 Y1.8677  
G01 X-0.2288 Y1.8696  
G01 X-0.1711 Y1.8696  
G01 X-0.1304 Y1.8288  
G01 X-0.1304 Y1.7711  
G01 X-0.1711 Y1.7304  
G01 X-0.2288 Y1.7304  
G01 X-0.2696 Y1.7711  
G01 X-0.2696 Y1.8288  
G01 X-0.2677 Y1.8308  
G01 X-0.4108 Y1.9739  
G01 X-0.4576 Y1.9739  
G01 X-0.4621 Y1.9677  
G01 X-0.4677 Y1.9621  
G01 X-0.4740 Y1.9575  
G01 X-0.4809 Y1.9540  
G01 X-0.4884 Y1.9516  
G01 X-0.4961 Y1.9504  
G01 X-0.5039 Y1.9504  
G01 X-0.5116 Y1.9516  
G01 X-0.5191 Y1.9540  
G01 X-0.5260 Y1.9575  
G01 X-0.5323 Y1.9621  
G01 X-0.5379 Y1.9677  
G01 X-0.5425 Y1.9740  
G01 X-0.5460 Y1.9809  
G01 X-0.5484 Y1.9884  
G01 X-0.5496 Y1.9961  
G01 X-0.5496 Y2.0039  
G01 X-0.5484 Y2.0116  
G01 X-0.5460 Y2.0191  
G01 X-0.5425 Y2.0260  
G01 X-0.5379 Y2.0323  
G01 X-0.5323 Y2.0379  
G01 X-0.5260 Y2.0425  
G01 X-0.5191 Y2.0460  
G00 Z0.1000  
G00 X-0.0664 Y1.1952  
G01 Z-0.0021 F10    
G01 X-0.0702 Y1.1914  F20    
G01 X-0.1702 Y1.0914  
G01 X-0.1746 Y1.0884  
G01 X-0.1796 Y1.0864  
G01 X-0.1848 Y1.0854  
G01 X-0.9777 Y1.0854  
G01 X-0.9829 Y1.0864  
G01 X-0.9879 Y1.0884  
G01 X-0.9923 Y1.0914  
G01 X-0.9961 Y1.0952  
G01 X-1.0612 Y1.1604  
G01 X-1.4213 Y1.1604  
G01 X-1.4216 Y1.1600  
G01 X-1.4283 Y1.1552  
G01 X-1.4356 Y1.1514  
G01 X-1.4435 Y1.1489  
G01 X-1.4516 Y1.1476  
G01 X-1.5484 Y1.1476  
G01 X-1.5565 Y1.1489  
G01 X-1.5644 Y1.1514  
G01 X-1.5717 Y1.1552  
G01 X-1.5784 Y1.1600  
G01 X-1.5842 Y1.1659  
G01 X-1.5891 Y1.1725  
G01 X-1.5892 Y1.1729  
G01 X-1.8633 Y1.1729  
G01 X-1.8813 Y1.1549  
G01 X-1.8943 Y1.1549  
G01 X-2.0202 Y1.0289  
G01 X-2.0246 Y1.0259  
G01 X-2.0296 Y1.0239  
G01 X-2.0348 Y1.0229  
G01 X-2.4652 Y1.0229  
G01 X-2.4704 Y1.0239  
G01 X-2.4754 Y1.0259  
G01 X-2.4798 Y1.0289  
G01 X-2.4836 Y1.0327  
G01 X-3.0961 Y1.6452  
G01 X-3.0991 Y1.6496  
G01 X-3.1011 Y1.6546  
G01 X-3.1021 Y1.6598  
G01 X-3.1021 Y2.0277  
G01 X-3.1011 Y2.0329  
G01 X-3.0991 Y2.0379  
G01 X-3.0961 Y2.0423  
G01 X-3.0923 Y2.0461  
G01 X-2.9396 Y2.1987  
G01 X-2.9396 Y2.2402  
G01 X-2.9386 Y2.2454  
G01 X-2.9366 Y2.2504  
G01 X-2.9341 Y2.2540  
G01 X-2.9341 Y2.2794  
G01 X-2.9328 Y2.2860  
G01 X-2.9303 Y2.2922  
G01 X-2.9265 Y2.2978  
G01 X-2.9218 Y2.3025  
G01 X-2.9162 Y2.3063  
G01 X-2.9100 Y2.3088  
G01 X-2.9034 Y2.3101  
G01 X-2.9032 Y2.3101  
