(/Applications/pcbgcode.repo/pcb-gcode.ulp)
(Copyright 2005 - 2012 by John Johnson)
(See readme.txt for licensing terms.)
(This file generated from the board:)
(.../eagle/output_attenuator/zerod.brd)
(Current profile is .../pcbgcode.repo/profiles/mach.pp  )
(This file generated 10/16/14 8:44 PM)
(Settings from pcb-machine.h)
(spindle on time = 3.0000)
(  Tool Size)
(0.0078  )
(spindle speed = 30000.0000)
(tool change at 0.0000  0.0000  3.0000  )
(feed rate xy = F20    )
(feed rate z  = F10    )
(Z Axis Settings)
(  High     Up        Down     Drill)
(0.5000  	0.1000  	-0.0030 	-0.0320 )
(Settings from pcb-defaults.h)
(isolate min = 0.0010)
(isolate max = 0.0200)
(isolate step = 0.0050)
(Generated bottom outlines, bottom drill, )
(Unit of measure: inch)
(Inch Mode)
G20
(Absolute Coordinates)
G90
S30000
G00 Z0.5000  
G00 X0.0000  Y0.0000  
M03
G04 P3.000000
G00 Z0.1000  
G00 X-0.0481 Y0.3509  
G01 Z-0.0030 F10    
G01 X-0.2681 Y0.1309  F20    
G01 X-0.2709 Y0.1281  
G01 X-0.2742 Y0.1261  
G01 X-0.2780 Y0.1251  
G01 X-1.5220 Y0.1251  
G01 X-1.5258 Y0.1261  
G01 X-1.5291 Y0.1281  
G01 X-2.1691 Y0.7681  
G01 X-2.1719 Y0.7709  
G01 X-2.1739 Y0.7742  
G01 X-2.1749 Y0.7780  
G01 X-2.1749 Y0.8220  
G01 X-2.1739 Y0.8258  
G01 X-2.1719 Y0.8291  
G01 X-2.1319 Y0.8691  
G01 X-2.1291 Y0.8719  
G01 X-2.1258 Y0.8739  
G01 X-2.1220 Y0.8749  
G01 X-2.0580 Y0.8749  
G01 X-2.0542 Y0.8739  
G01 X-2.0509 Y0.8719  
G01 X-2.0087 Y0.8298  
G01 X-2.0030 Y0.8309  
G01 X-1.9970 Y0.8309  
G01 X-1.9910 Y0.8297  
G01 X-1.9854 Y0.8274  
G01 X-1.9803 Y0.8240  
G01 X-1.9760 Y0.8197  
G01 X-1.9726 Y0.8146  
G01 X-1.9703 Y0.8090  
G01 X-1.9691 Y0.8030  
G01 X-1.9691 Y0.7970  
G01 X-1.9702 Y0.7913  
G01 X-1.8138 Y0.6349  
G01 X-1.1862 Y0.6349  
G01 X-1.1373 Y0.6837  
G01 X-1.1379 Y0.6843  
G01 X-1.1379 Y0.7157  
G01 X-1.1157 Y0.7379  
G01 X-1.0843 Y0.7379  
G01 X-1.0621 Y0.7157  
G01 X-1.0621 Y0.6843  
G01 X-1.0843 Y0.6621  
G01 X-1.1157 Y0.6621  
G01 X-1.1163 Y0.6627  
G01 X-1.1709 Y0.6081  
G01 X-1.1742 Y0.6061  
G01 X-1.1780 Y0.6051  
G01 X-1.8220 Y0.6051  
G01 X-1.8258 Y0.6061  
G01 X-1.8291 Y0.6081  
G01 X-1.8319 Y0.6109  
G01 X-1.9913 Y0.7702  
G01 X-1.9970 Y0.7691  
G01 X-2.0030 Y0.7691  
G01 X-2.0090 Y0.7703  
G01 X-2.0146 Y0.7726  
G01 X-2.0197 Y0.7760  
G01 X-2.0240 Y0.7803  
G01 X-2.0274 Y0.7854  
G01 X-2.0297 Y0.7910  
G01 X-2.0309 Y0.7970  
G01 X-2.0309 Y0.8030  
G01 X-2.0298 Y0.8087  
G01 X-2.0662 Y0.8451  
G01 X-2.1138 Y0.8451  
G01 X-2.1451 Y0.8138  
G01 X-2.1451 Y0.7862  
G01 X-1.5138 Y0.1549  
G01 X-0.2862 Y0.1549  
G01 X-0.0749 Y0.3662  
G01 X-0.0749 Y1.1538  
G01 X-0.1462 Y1.2251  
G01 X-0.2220 Y1.2251  
G01 X-0.2258 Y1.2261  
G01 X-0.2291 Y1.2281  
G01 X-0.2319 Y1.2309  
G01 X-0.5719 Y1.5709  
G01 X-0.5739 Y1.5742  
G01 X-0.5749 Y1.5780  
G01 X-0.5749 Y1.6220  
G01 X-0.5739 Y1.6258  
G01 X-0.5719 Y1.6291  
G01 X-0.5691 Y1.6319  
G01 X-0.5149 Y1.6862  
G01 X-0.5149 Y1.7212  
G01 X-0.5309 Y1.7372  
G01 X-0.5309 Y1.7628  
G01 X-0.5128 Y1.7809  
G01 X-0.4872 Y1.7809  
G01 X-0.4691 Y1.7628  
G01 X-0.4691 Y1.7372  
G01 X-0.4851 Y1.7212  
G01 X-0.4851 Y1.6780  
G01 X-0.4861 Y1.6742  
G01 X-0.4881 Y1.6709  
G01 X-0.5451 Y1.6138  
G01 X-0.5451 Y1.5862  
G01 X-0.2138 Y1.2549  
G01 X-0.1380 Y1.2549  
G01 X-0.1342 Y1.2539  
G01 X-0.1309 Y1.2519  
G01 X-0.0509 Y1.1719  
G01 X-0.0481 Y1.1691  
G01 X-0.0461 Y1.1658  
G01 X-0.0451 Y1.1620  
G01 X-0.0451 Y0.3580  
G01 X-0.0461 Y0.3542  
G01 X-0.0481 Y0.3509  
G00 Z0.1000  
G00 X-0.1851 Y0.2780  
G01 Z-0.0030 F10    
G01 X-0.1861 Y0.2742  F20    
G01 X-0.1881 Y0.2709  
G01 X-0.2881 Y0.1709  
G01 X-0.2909 Y0.1681  
G01 X-0.2942 Y0.1661  
G01 X-0.2980 Y0.1651  
G01 X-0.6420 Y0.1651  
G01 X-0.6458 Y0.1661  
G01 X-0.6491 Y0.1681  
G01 X-0.7392 Y0.2581  
G01 X-0.7674 Y0.2581  
G01 X-0.7919 Y0.2826  
G01 X-0.7919 Y0.3174  
G01 X-0.7749 Y0.3344  
G01 X-0.7749 Y0.3656  
G01 X-0.7919 Y0.3826  
G01 X-0.7919 Y0.4174  
G01 X-0.7674 Y0.4419  
G01 X-0.7326 Y0.4419  
G01 X-0.7081 Y0.4174  
G01 X-0.7081 Y0.3826  
G01 X-0.7326 Y0.3581  
G01 X-0.7451 Y0.3581  
G01 X-0.7451 Y0.3419  
G01 X-0.7326 Y0.3419  
G01 X-0.7081 Y0.3174  
G01 X-0.7081 Y0.2826  
G01 X-0.7148 Y0.2759  
G01 X-0.6338 Y0.1949  
G01 X-0.3062 Y0.1949  
G01 X-0.2149 Y0.2862  
G01 X-0.2149 Y0.7338  
G01 X-0.2662 Y0.7851  
G01 X-0.5338 Y0.7851  
G01 X-0.6191 Y0.6998  
G01 X-0.6191 Y0.6872  
G01 X-0.6372 Y0.6691  
G01 X-0.6628 Y0.6691  
G01 X-0.6809 Y0.6872  
G01 X-0.6809 Y0.7128  
G01 X-0.6628 Y0.7309  
G01 X-0.6372 Y0.7309  
G01 X-0.6337 Y0.7274  
G01 X-0.5519 Y0.8091  
G01 X-0.5491 Y0.8119  
G01 X-0.5458 Y0.8139  
G01 X-0.5420 Y0.8149  
G01 X-0.2749 Y0.8149  
G01 X-0.2749 Y0.9020  
G01 X-0.2739 Y0.9058  
G01 X-0.2719 Y0.9091  
G01 X-0.1149 Y1.0662  
G01 X-0.1149 Y1.1338  
G01 X-0.1662 Y1.1851  
G01 X-0.2420 Y1.1851  
G01 X-0.2458 Y1.1861  
G01 X-0.2491 Y1.1881  
G01 X-0.6091 Y1.5481  
G01 X-0.6119 Y1.5509  
G01 X-0.6139 Y1.5542  
G01 X-0.6149 Y1.5580  
G01 X-0.6149 Y1.8620  
G01 X-0.6139 Y1.8658  
G01 X-0.6119 Y1.8691  
G01 X-0.0949 Y2.3862  
G01 X-0.0949 Y2.6938  
G01 X-0.2862 Y2.8851  
G01 X-0.8712 Y2.8851  
G01 X-0.8872 Y2.8691  
G01 X-0.9128 Y2.8691  
G01 X-0.9309 Y2.8872  
G01 X-0.9309 Y2.9098  
G01 X-0.9662 Y2.9451  
G01 X-1.0738 Y2.9451  
G01 X-1.1191 Y2.8998  
G01 X-1.1191 Y2.8872  
G01 X-1.1372 Y2.8691  
G01 X-1.1628 Y2.8691  
G01 X-1.1809 Y2.8872  
G01 X-1.1809 Y2.8998  
G01 X-1.2262 Y2.9451  
G01 X-1.3338 Y2.9451  
G01 X-1.3691 Y2.9098  
G01 X-1.3691 Y2.8872  
G01 X-1.3872 Y2.8691  
G01 X-1.4128 Y2.8691  
G01 X-1.4309 Y2.8872  
G01 X-1.4309 Y2.9098  
G01 X-1.4662 Y2.9451  
G01 X-1.5738 Y2.9451  
G01 X-1.6191 Y2.8998  
G01 X-1.6191 Y2.8872  
G01 X-1.6372 Y2.8691  
G01 X-1.6628 Y2.8691  
G01 X-1.6809 Y2.8872  
G01 X-1.6809 Y2.8998  
G01 X-1.7262 Y2.9451  
G01 X-1.8338 Y2.9451  
G01 X-1.8691 Y2.9098  
G01 X-1.8691 Y2.8872  
G01 X-1.8872 Y2.8691  
G01 X-1.9128 Y2.8691  
G01 X-1.9309 Y2.8872  
G01 X-1.9309 Y2.9098  
G01 X-1.9662 Y2.9451  
G01 X-2.0738 Y2.9451  
G01 X-2.1191 Y2.8998  
G01 X-2.1191 Y2.8872  
G01 X-2.1372 Y2.8691  
G01 X-2.1628 Y2.8691  
G01 X-2.1809 Y2.8872  
G01 X-2.1809 Y2.8998  
G01 X-2.2262 Y2.9451  
G01 X-2.3338 Y2.9451  
G01 X-2.3691 Y2.9098  
G01 X-2.3691 Y2.8872  
G01 X-2.3872 Y2.8691  
G01 X-2.4128 Y2.8691  
G01 X-2.4309 Y2.8872  
G01 X-2.4309 Y2.9098  
G01 X-2.4662 Y2.9451  
G01 X-2.5738 Y2.9451  
G01 X-2.6191 Y2.8998  
G01 X-2.6191 Y2.8872  
G01 X-2.6372 Y2.8691  
G01 X-2.6628 Y2.8691  
G01 X-2.6809 Y2.8872  
G01 X-2.6809 Y2.8998  
G01 X-2.7262 Y2.9451  
G01 X-2.7738 Y2.9451  
G01 X-2.8309 Y2.8881  
G01 X-2.8342 Y2.8861  
G01 X-2.8380 Y2.8851  
G01 X-2.8712 Y2.8851  
G01 X-2.8872 Y2.8691  
G01 X-2.9128 Y2.8691  
G01 X-2.9309 Y2.8872  
G01 X-2.9309 Y2.9098  
G01 X-2.9662 Y2.9451  
G01 X-3.0738 Y2.9451  
G01 X-3.1191 Y2.8998  
G01 X-3.1191 Y2.8872  
G01 X-3.1372 Y2.8691  
G01 X-3.1628 Y2.8691  
G01 X-3.1809 Y2.8872  
G01 X-3.1809 Y2.8998  
G01 X-3.2262 Y2.9451  
G01 X-3.2738 Y2.9451  
G01 X-3.3189 Y2.9000  
G01 X-2.8881 Y2.4691  
G01 X-2.8861 Y2.4658  
G01 X-2.8851 Y2.4620  
G01 X-2.8851 Y2.4149  
G01 X-2.1653 Y2.4149  
G01 X-2.1635 Y2.4216  
G01 X-2.1601 Y2.4297  
G01 X-2.1557 Y2.4372  
G01 X-2.1504 Y2.4442  
G01 X-2.1442 Y2.4504  
G01 X-2.1372 Y2.4557  
G01 X-2.1297 Y2.4601  
G01 X-2.1216 Y2.4635  
G01 X-2.1131 Y2.4658  
G01 X-2.1044 Y2.4669  
G01 X-2.0956 Y2.4669  
G01 X-2.0869 Y2.4658  
G01 X-2.0784 Y2.4635  
G01 X-2.0703 Y2.4601  
G01 X-2.0628 Y2.4557  
G01 X-2.0558 Y2.4504  
G01 X-2.0496 Y2.4442  
G01 X-2.0443 Y2.4372  
G01 X-2.0399 Y2.4297  
G01 X-2.0365 Y2.4216  
G01 X-2.0342 Y2.4131  
G01 X-2.0331 Y2.4044  
G01 X-2.0331 Y2.3956  
G01 X-2.0342 Y2.3869  
G01 X-2.0365 Y2.3784  
G01 X-2.0399 Y2.3703  
G01 X-2.0433 Y2.3644  
G01 X-1.9743 Y2.2953  
G01 X-1.9740 Y2.2957  
G01 X-1.9697 Y2.3000  
G01 X-1.9646 Y2.3034  
G01 X-1.9590 Y2.3057  
G01 X-1.9530 Y2.3069  
G01 X-1.9470 Y2.3069  
G01 X-1.9410 Y2.3057  
G01 X-1.9370 Y2.3041  
G01 X-1.8491 Y2.3919  
G01 X-1.8458 Y2.3939  
G01 X-1.8420 Y2.3949  
G01 X-1.4580 Y2.3949  
G01 X-1.4542 Y2.3939  
G01 X-1.4509 Y2.3919  
G01 X-1.4481 Y2.3891  
G01 X-1.3630 Y2.3041  
G01 X-1.3590 Y2.3057  
G01 X-1.3530 Y2.3069  
G01 X-1.3470 Y2.3069  
G01 X-1.3410 Y2.3057  
G01 X-1.3354 Y2.3034  
G01 X-1.3303 Y2.3000  
G01 X-1.3260 Y2.2957  
G01 X-1.3226 Y2.2906  
G01 X-1.3203 Y2.2850  
G01 X-1.3191 Y2.2790  
G01 X-1.3191 Y2.2210  
G01 X-1.3203 Y2.2150  
G01 X-1.3226 Y2.2094  
G01 X-1.3260 Y2.2043  
G01 X-1.3303 Y2.2000  
G01 X-1.3354 Y2.1966  
G01 X-1.3410 Y2.1943  
G01 X-1.3470 Y2.1931  
G01 X-1.3530 Y2.1931  
G01 X-1.3590 Y2.1943  
G01 X-1.3646 Y2.1966  
G01 X-1.3697 Y2.2000  
G01 X-1.3740 Y2.2043  
G01 X-1.3774 Y2.2094  
G01 X-1.3797 Y2.2150  
G01 X-1.3809 Y2.2210  
G01 X-1.3809 Y2.2790  
G01 X-1.3808 Y2.2797  
G01 X-1.4662 Y2.3651  
G01 X-1.8338 Y2.3651  
G01 X-1.9192 Y2.2797  
G01 X-1.9191 Y2.2790  
G01 X-1.9191 Y2.2210  
G01 X-1.9203 Y2.2150  
G01 X-1.9226 Y2.2094  
G01 X-1.9260 Y2.2043  
G01 X-1.9303 Y2.2000  
G01 X-1.9354 Y2.1966  
G01 X-1.9410 Y2.1943  
G01 X-1.9470 Y2.1931  
G01 X-1.9530 Y2.1931  
G01 X-1.9590 Y2.1943  
G01 X-1.9646 Y2.1966  
G01 X-1.9697 Y2.2000  
G01 X-1.9740 Y2.2043  
G01 X-1.9774 Y2.2094  
G01 X-1.9797 Y2.2150  
G01 X-1.9809 Y2.2210  
G01 X-1.9809 Y2.2598  
G01 X-2.0644 Y2.3433  
G01 X-2.0703 Y2.3399  
G01 X-2.0784 Y2.3365  
G01 X-2.0869 Y2.3342  
G01 X-2.0956 Y2.3331  
G01 X-2.1044 Y2.3331  
G01 X-2.1131 Y2.3342  
G01 X-2.1216 Y2.3365  
G01 X-2.1297 Y2.3399  
G01 X-2.1372 Y2.3443  
G01 X-2.1442 Y2.3496  
G01 X-2.1504 Y2.3558  
G01 X-2.1557 Y2.3628  
G01 X-2.1601 Y2.3703  
G01 X-2.1635 Y2.3784  
G01 X-2.1653 Y2.3851  
G01 X-2.8851 Y2.3851  
G01 X-2.8851 Y2.3580  
G01 X-2.8861 Y2.3542  
G01 X-2.8881 Y2.3509  
G01 X-2.8909 Y2.3481  
G01 X-3.3909 Y1.8481  
G01 X-3.3942 Y1.8461  
G01 X-3.3980 Y1.8451  
G01 X-3.4691 Y1.8451  
G01 X-3.4691 Y1.8372  
G01 X-3.4872 Y1.8191  
G01 X-3.5128 Y1.8191  
G01 X-3.5309 Y1.8372  
G01 X-3.5309 Y1.8628  
G01 X-3.5128 Y1.8809  
G01 X-3.4872 Y1.8809  
G01 X-3.4812 Y1.8749  
G01 X-3.4062 Y1.8749  
G01 X-2.9149 Y2.3662  
G01 X-2.9149 Y2.4538  
G01 X-3.3400 Y2.8789  
G01 X-3.5851 Y2.6338  
G01 X-3.5851 Y1.8062  
G01 X-3.0338 Y1.2549  
G01 X-1.9380 Y1.2549  
G01 X-1.9342 Y1.2539  
G01 X-1.9309 Y1.2519  
G01 X-1.9281 Y1.2491  
G01 X-1.8087 Y1.1298  
G01 X-1.8030 Y1.1309  
G01 X-1.7970 Y1.1309  
G01 X-1.7910 Y1.1297  
G01 X-1.7854 Y1.1274  
G01 X-1.7803 Y1.1240  
G01 X-1.7760 Y1.1197  
G01 X-1.7726 Y1.1146  
G01 X-1.7703 Y1.1090  
G01 X-1.7691 Y1.1030  
G01 X-1.7691 Y1.0970  
G01 X-1.7703 Y1.0910  
G01 X-1.7726 Y1.0854  
G01 X-1.7760 Y1.0803  
G01 X-1.7803 Y1.0760  
G01 X-1.7854 Y1.0726  
G01 X-1.7910 Y1.0703  
G01 X-1.7970 Y1.0691  
G01 X-1.8030 Y1.0691  
G01 X-1.8090 Y1.0703  
G01 X-1.8146 Y1.0726  
G01 X-1.8197 Y1.0760  
G01 X-1.8240 Y1.0803  
G01 X-1.8274 Y1.0854  
G01 X-1.8297 Y1.0910  
G01 X-1.8309 Y1.0970  
G01 X-1.8309 Y1.1030  
G01 X-1.8298 Y1.1087  
G01 X-1.9462 Y1.2251  
G01 X-3.0420 Y1.2251  
G01 X-3.0458 Y1.2261  
G01 X-3.0491 Y1.2281  
G01 X-3.6091 Y1.7881  
G01 X-3.6119 Y1.7909  
G01 X-3.6139 Y1.7942  
G01 X-3.6149 Y1.7980  
G01 X-3.6149 Y2.6420  
G01 X-3.6139 Y2.6458  
G01 X-3.6119 Y2.6491  
G01 X-3.3519 Y2.9091  
G01 X-3.3491 Y2.9119  
G01 X-3.2919 Y2.9691  
G01 X-3.2891 Y2.9719  
G01 X-3.2858 Y2.9739  
G01 X-3.2820 Y2.9749  
G01 X-3.2180 Y2.9749  
G01 X-3.2142 Y2.9739  
G01 X-3.2109 Y2.9719  
G01 X-3.1663 Y2.9274  
G01 X-3.1628 Y2.9309  
G01 X-3.1372 Y2.9309  
G01 X-3.1337 Y2.9274  
G01 X-3.0891 Y2.9719  
G01 X-3.0858 Y2.9739  
G01 X-3.0820 Y2.9749  
G01 X-2.9580 Y2.9749  
G01 X-2.9542 Y2.9739  
G01 X-2.9509 Y2.9719  
G01 X-2.9481 Y2.9691  
G01 X-2.9098 Y2.9309  
G01 X-2.8872 Y2.9309  
G01 X-2.8712 Y2.9149  
G01 X-2.8462 Y2.9149  
G01 X-2.7919 Y2.9691  
G01 X-2.7891 Y2.9719  
G01 X-2.7858 Y2.9739  
G01 X-2.7820 Y2.9749  
G01 X-2.7180 Y2.9749  
G01 X-2.7142 Y2.9739  
G01 X-2.7109 Y2.9719  
G01 X-2.6663 Y2.9274  
G01 X-2.6628 Y2.9309  
G01 X-2.6372 Y2.9309  
G01 X-2.6337 Y2.9274  
G01 X-2.5891 Y2.9719  
G01 X-2.5858 Y2.9739  
G01 X-2.5820 Y2.9749  
G01 X-2.4580 Y2.9749  
G01 X-2.4542 Y2.9739  
G01 X-2.4509 Y2.9719  
G01 X-2.4481 Y2.9691  
G01 X-2.4098 Y2.9309  
G01 X-2.3902 Y2.9309  
G01 X-2.3491 Y2.9719  
G01 X-2.3458 Y2.9739  
G01 X-2.3420 Y2.9749  
G01 X-2.2180 Y2.9749  
G01 X-2.2142 Y2.9739  
G01 X-2.2109 Y2.9719  
G01 X-2.2081 Y2.9691  
G01 X-2.1663 Y2.9274  
G01 X-2.1628 Y2.9309  
G01 X-2.1372 Y2.9309  
G01 X-2.1337 Y2.9274  
G01 X-2.0891 Y2.9719  
G01 X-2.0858 Y2.9739  
G01 X-2.0820 Y2.9749  
G01 X-1.9580 Y2.9749  
G01 X-1.9542 Y2.9739  
G01 X-1.9509 Y2.9719  
G01 X-1.9481 Y2.9691  
G01 X-1.9098 Y2.9309  
G01 X-1.8902 Y2.9309  
G01 X-1.8491 Y2.9719  
G01 X-1.8458 Y2.9739  
G01 X-1.8420 Y2.9749  
G01 X-1.7180 Y2.9749  
G01 X-1.7142 Y2.9739  
G01 X-1.7109 Y2.9719  
G01 X-1.7081 Y2.9691  
G01 X-1.6663 Y2.9274  
G01 X-1.6628 Y2.9309  
G01 X-1.6372 Y2.9309  
G01 X-1.6337 Y2.9274  
G01 X-1.5891 Y2.9719  
G01 X-1.5858 Y2.9739  
G01 X-1.5820 Y2.9749  
G01 X-1.4580 Y2.9749  
G01 X-1.4542 Y2.9739  
G01 X-1.4509 Y2.9719  
G01 X-1.4481 Y2.9691  
G01 X-1.4098 Y2.9309  
G01 X-1.3902 Y2.9309  
G01 X-1.3491 Y2.9719  
G01 X-1.3458 Y2.9739  
G01 X-1.3420 Y2.9749  
G01 X-1.2180 Y2.9749  
G01 X-1.2142 Y2.9739  
G01 X-1.2109 Y2.9719  
G01 X-1.2081 Y2.9691  
G01 X-1.1663 Y2.9274  
G01 X-1.1628 Y2.9309  
G01 X-1.1372 Y2.9309  
G01 X-1.1337 Y2.9274  
G01 X-1.0891 Y2.9719  
G01 X-1.0858 Y2.9739  
G01 X-1.0820 Y2.9749  
G01 X-0.9580 Y2.9749  
G01 X-0.9542 Y2.9739  
G01 X-0.9509 Y2.9719  
G01 X-0.9481 Y2.9691  
G01 X-0.9098 Y2.9309  
G01 X-0.8872 Y2.9309  
G01 X-0.8712 Y2.9149  
G01 X-0.2780 Y2.9149  
G01 X-0.2742 Y2.9139  
G01 X-0.2709 Y2.9119  
G01 X-0.2681 Y2.9091  
G01 X-0.0681 Y2.7091  
G01 X-0.0661 Y2.7058  
G01 X-0.0651 Y2.7020  
G01 X-0.0651 Y2.3780  
G01 X-0.0661 Y2.3742  
G01 X-0.0681 Y2.3709  
G01 X-0.0709 Y2.3681  
G01 X-0.5851 Y1.8538  
G01 X-0.5851 Y1.5662  
G01 X-0.2338 Y1.2149  
G01 X-0.1580 Y1.2149  
G01 X-0.1542 Y1.2139  
G01 X-0.1509 Y1.2119  
G01 X-0.1481 Y1.2091  
G01 X-0.0881 Y1.1491  
G01 X-0.0861 Y1.1458  
G01 X-0.0851 Y1.1420  
G01 X-0.0851 Y1.0580  
G01 X-0.0861 Y1.0542  
G01 X-0.0881 Y1.0509  
G01 X-0.0909 Y1.0481  
G01 X-0.2451 Y0.8938  
G01 X-0.2451 Y0.8062  
G01 X-0.1881 Y0.7491  
G01 X-0.1861 Y0.7458  
G01 X-0.1851 Y0.7420  
G01 X-0.1851 Y0.2780  
G00 Z0.1000  
G00 X-0.2281 Y0.2909  
G01 Z-0.0030 F10    
G01 X-0.2309 Y0.2881  F20    
G01 X-0.3109 Y0.2081  
G01 X-0.3142 Y0.2061  
G01 X-0.3180 Y0.2051  
G01 X-0.3820 Y0.2051  
G01 X-0.3858 Y0.2061  
G01 X-0.3891 Y0.2081  
G01 X-0.3919 Y0.2109  
G01 X-0.4392 Y0.2581  
G01 X-0.4674 Y0.2581  
G01 X-0.4919 Y0.2826  
G01 X-0.4919 Y0.2851  
G01 X-0.5081 Y0.2851  
G01 X-0.5081 Y0.2826  
G01 X-0.5326 Y0.2581  
G01 X-0.5674 Y0.2581  
G01 X-0.5919 Y0.2826  
G01 X-0.5919 Y0.2851  
G01 X-0.6081 Y0.2851  
G01 X-0.6081 Y0.2826  
G01 X-0.6326 Y0.2581  
G01 X-0.6674 Y0.2581  
G01 X-0.6919 Y0.2826  
G01 X-0.6919 Y0.3174  
G01 X-0.6749 Y0.3344  
G01 X-0.6749 Y0.3656  
G01 X-0.6919 Y0.3826  
G01 X-0.6919 Y0.4174  
G01 X-0.6674 Y0.4419  
G01 X-0.6326 Y0.4419  
G01 X-0.6081 Y0.4174  
G01 X-0.6081 Y0.4149  
G01 X-0.5919 Y0.4149  
G01 X-0.5919 Y0.4174  
G01 X-0.5674 Y0.4419  
G01 X-0.5326 Y0.4419  
G01 X-0.5081 Y0.4174  
G01 X-0.5081 Y0.4149  
G01 X-0.4919 Y0.4149  
G01 X-0.4919 Y0.4174  
G01 X-0.4674 Y0.4419  
G01 X-0.4326 Y0.4419  
G01 X-0.4081 Y0.4174  
G01 X-0.4081 Y0.3826  
G01 X-0.4326 Y0.3581  
G01 X-0.4674 Y0.3581  
G01 X-0.4919 Y0.3826  
G01 X-0.4919 Y0.3851  
G01 X-0.5081 Y0.3851  
G01 X-0.5081 Y0.3826  
G01 X-0.5326 Y0.3581  
G01 X-0.5674 Y0.3581  
G01 X-0.5919 Y0.3826  
G01 X-0.5919 Y0.3851  
G01 X-0.6081 Y0.3851  
G01 X-0.6081 Y0.3826  
G01 X-0.6326 Y0.3581  
G01 X-0.6451 Y0.3581  
G01 X-0.6451 Y0.3419  
G01 X-0.6326 Y0.3419  
G01 X-0.6081 Y0.3174  
G01 X-0.6081 Y0.3149  
G01 X-0.5919 Y0.3149  
G01 X-0.5919 Y0.3174  
G01 X-0.5674 Y0.3419  
G01 X-0.5326 Y0.3419  
G01 X-0.5081 Y0.3174  
G01 X-0.5081 Y0.3149  
G01 X-0.4919 Y0.3149  
G01 X-0.4919 Y0.3174  
G01 X-0.4674 Y0.3419  
G01 X-0.4326 Y0.3419  
G01 X-0.4081 Y0.3174  
G01 X-0.4081 Y0.2826  
G01 X-0.4148 Y0.2759  
G01 X-0.3738 Y0.2349  
G01 X-0.3262 Y0.2349  
G01 X-0.2549 Y0.3062  
G01 X-0.2549 Y0.7138  
G01 X-0.2862 Y0.7451  
G01 X-0.3338 Y0.7451  
G01 X-0.3691 Y0.7098  
G01 X-0.3691 Y0.6872  
G01 X-0.3872 Y0.6691  
G01 X-0.4128 Y0.6691  
G01 X-0.4288 Y0.6851  
G01 X-0.5212 Y0.6851  
G01 X-0.5372 Y0.6691  
G01 X-0.5628 Y0.6691  
G01 X-0.5663 Y0.6726  
G01 X-0.6109 Y0.6281  
G01 X-0.6142 Y0.6261  
G01 X-0.6180 Y0.6251  
G01 X-0.6820 Y0.6251  
G01 X-0.6858 Y0.6261  
G01 X-0.6891 Y0.6281  
G01 X-0.6919 Y0.6309  
G01 X-0.8262 Y0.7651  
G01 X-1.1138 Y0.7651  
G01 X-1.1909 Y0.6881  
G01 X-1.1942 Y0.6861  
G01 X-1.1980 Y0.6851  
G01 X-1.3621 Y0.6851  
G01 X-1.3621 Y0.6843  
G01 X-1.3843 Y0.6621  
G01 X-1.4157 Y0.6621  
G01 X-1.4379 Y0.6843  
G01 X-1.4379 Y0.7157  
G01 X-1.4157 Y0.7379  
G01 X-1.3843 Y0.7379  
G01 X-1.3621 Y0.7157  
G01 X-1.3621 Y0.7149  
G01 X-1.2062 Y0.7149  
G01 X-1.1319 Y0.7891  
G01 X-1.1291 Y0.7919  
G01 X-1.1258 Y0.7939  
G01 X-1.1220 Y0.7949  
G01 X-1.0149 Y0.7949  
G01 X-1.0149 Y1.5938  
G01 X-1.0402 Y1.6191  
G01 X-1.0628 Y1.6191  
G01 X-1.0809 Y1.6372  
G01 X-1.0809 Y1.6628  
G01 X-1.0749 Y1.6688  
G01 X-1.0749 Y2.0338  
G01 X-1.1291 Y2.0881  
G01 X-1.1319 Y2.0909  
G01 X-1.2370 Y2.1959  
G01 X-1.2410 Y2.1943  
G01 X-1.2455 Y2.1934  
G01 X-1.2909 Y2.1481  
G01 X-1.2942 Y2.1461  
G01 X-1.2980 Y2.1451  
G01 X-1.3820 Y2.1451  
G01 X-1.3858 Y2.1461  
G01 X-1.3891 Y2.1481  
G01 X-1.3919 Y2.1509  
G01 X-1.4262 Y2.1851  
G01 X-1.4338 Y2.1851  
G01 X-1.7101 Y1.9088  
G01 X-1.7101 Y1.8835  
G01 X-1.7251 Y1.8685  
G01 X-1.7251 Y1.7062  
G01 X-1.7068 Y1.6879  
G01 X-1.6843 Y1.6879  
G01 X-1.6621 Y1.6657  
G01 X-1.6621 Y1.6343  
G01 X-1.6843 Y1.6121  
G01 X-1.7068 Y1.6121  
G01 X-2.0509 Y1.2681  
G01 X-2.0542 Y1.2661  
G01 X-2.0580 Y1.2651  
G01 X-2.6820 Y1.2651  
G01 X-2.6858 Y1.2661  
G01 X-2.6891 Y1.2681  
G01 X-2.8402 Y1.4191  
G01 X-2.8628 Y1.4191  
G01 X-2.8809 Y1.4372  
G01 X-2.8809 Y1.4451  
G01 X-3.2020 Y1.4451  
G01 X-3.2058 Y1.4461  
G01 X-3.2091 Y1.4481  
G01 X-3.2119 Y1.4509  
G01 X-3.5719 Y1.8109  
G01 X-3.5739 Y1.8142  
G01 X-3.5749 Y1.8180  
G01 X-3.5749 Y1.8820  
G01 X-3.5739 Y1.8858  
G01 X-3.5719 Y1.8891  
G01 X-3.5691 Y1.8919  
G01 X-3.0669 Y2.3942  
G01 X-3.0669 Y2.4277  
G01 X-3.0277 Y2.4669  
G01 X-2.9723 Y2.4669  
G01 X-2.9331 Y2.4277  
G01 X-2.9331 Y2.3723  
G01 X-2.9723 Y2.3331  
G01 X-3.0277 Y2.3331  
G01 X-3.0568 Y2.3622  
G01 X-3.5451 Y1.8738  
G01 X-3.5451 Y1.8262  
G01 X-3.1938 Y1.4749  
G01 X-2.8688 Y1.4749  
G01 X-2.8628 Y1.4809  
G01 X-2.8372 Y1.4809  
G01 X-2.8191 Y1.4628  
G01 X-2.8191 Y1.4402  
G01 X-2.6738 Y1.2949  
G01 X-2.0662 Y1.2949  
G01 X-1.7323 Y1.6287  
G01 X-1.7379 Y1.6343  
G01 X-1.7379 Y1.6657  
G01 X-1.7323 Y1.6713  
G01 X-1.7519 Y1.6909  
G01 X-1.7539 Y1.6942  
G01 X-1.7549 Y1.6980  
G01 X-1.7549 Y1.8601  
G01 X-1.7665 Y1.8601  
G01 X-1.7899 Y1.8835  
G01 X-1.7899 Y1.9165  
G01 X-1.7665 Y1.9399  
G01 X-1.7335 Y1.9399  
G01 X-1.7273 Y1.9337  
G01 X-1.4645 Y2.1966  
G01 X-1.4646 Y2.1966  
G01 X-1.4697 Y2.2000  
G01 X-1.4740 Y2.2043  
G01 X-1.4774 Y2.2094  
G01 X-1.4797 Y2.2150  
G01 X-1.4809 Y2.2210  
G01 X-1.4809 Y2.2790  
G01 X-1.4808 Y2.2797  
G01 X-1.5262 Y2.3251  
G01 X-1.7738 Y2.3251  
G01 X-1.8192 Y2.2797  
G01 X-1.8191 Y2.2790  
G01 X-1.8191 Y2.2210  
G01 X-1.8203 Y2.2150  
G01 X-1.8226 Y2.2094  
G01 X-1.8260 Y2.2043  
G01 X-1.8303 Y2.2000  
G01 X-1.8354 Y2.1966  
G01 X-1.8410 Y2.1943  
G01 X-1.8470 Y2.1931  
G01 X-1.8530 Y2.1931  
G01 X-1.8590 Y2.1943  
G01 X-1.8630 Y2.1959  
G01 X-1.9109 Y2.1481  
G01 X-1.9142 Y2.1461  
G01 X-1.9180 Y2.1451  
G01 X-2.2538 Y2.1451  
G01 X-2.6109 Y1.7881  
G01 X-2.6142 Y1.7861  
G01 X-2.6180 Y1.7851  
G01 X-2.7212 Y1.7851  
G01 X-2.7372 Y1.7691  
G01 X-2.7628 Y1.7691  
G01 X-2.7788 Y1.7851  
G01 X-3.0538 Y1.7851  
G01 X-3.0681 Y1.7709  
G01 X-3.0709 Y1.7681  
G01 X-3.0742 Y1.7661  
G01 X-3.0780 Y1.7651  
G01 X-3.1220 Y1.7651  
G01 X-3.1258 Y1.7661  
G01 X-3.1291 Y1.7681  
G01 X-3.1691 Y1.8081  
G01 X-3.1719 Y1.8109  
G01 X-3.1739 Y1.8142  
G01 X-3.1749 Y1.8180  
G01 X-3.1749 Y1.8820  
G01 X-3.1739 Y1.8858  
G01 X-3.1719 Y1.8891  
G01 X-3.0119 Y2.0491  
G01 X-3.0091 Y2.0519  
G01 X-3.0058 Y2.0539  
G01 X-3.0020 Y2.0549  
G01 X-2.9309 Y2.0549  
G01 X-2.9309 Y2.0628  
G01 X-2.9128 Y2.0809  
G01 X-2.8872 Y2.0809  
G01 X-2.8691 Y2.0628  
G01 X-2.8691 Y2.0372  
G01 X-2.8872 Y2.0191  
G01 X-2.9128 Y2.0191  
G01 X-2.9188 Y2.0251  
G01 X-2.9938 Y2.0251  
G01 X-3.1451 Y1.8738  
G01 X-3.1451 Y1.8262  
G01 X-3.1138 Y1.7949  
G01 X-3.0862 Y1.7949  
G01 X-3.0691 Y1.8119  
G01 X-3.0658 Y1.8139  
G01 X-3.0620 Y1.8149  
G01 X-2.7788 Y1.8149  
G01 X-2.7628 Y1.8309  
G01 X-2.7372 Y1.8309  
G01 X-2.7212 Y1.8149  
G01 X-2.6262 Y1.8149  
G01 X-2.2719 Y2.1691  
G01 X-2.2691 Y2.1719  
G01 X-2.2658 Y2.1739  
G01 X-2.2620 Y2.1749  
G01 X-1.9262 Y2.1749  
G01 X-1.8808 Y2.2203  
G01 X-1.8809 Y2.2210  
G01 X-1.8809 Y2.2790  
G01 X-1.8797 Y2.2850  
G01 X-1.8774 Y2.2906  
G01 X-1.8740 Y2.2957  
G01 X-1.8697 Y2.3000  
G01 X-1.8646 Y2.3034  
G01 X-1.8590 Y2.3057  
G01 X-1.8530 Y2.3069  
G01 X-1.8470 Y2.3069  
G01 X-1.8410 Y2.3057  
G01 X-1.8370 Y2.3041  
G01 X-1.7919 Y2.3491  
G01 X-1.7891 Y2.3519  
G01 X-1.7858 Y2.3539  
G01 X-1.7820 Y2.3549  
G01 X-1.5180 Y2.3549  
G01 X-1.5142 Y2.3539  
G01 X-1.5109 Y2.3519  
G01 X-1.4630 Y2.3041  
G01 X-1.4590 Y2.3057  
G01 X-1.4530 Y2.3069  
G01 X-1.4470 Y2.3069  
G01 X-1.4410 Y2.3057  
G01 X-1.4354 Y2.3034  
G01 X-1.4303 Y2.3000  
G01 X-1.4260 Y2.2957  
G01 X-1.4226 Y2.2906  
G01 X-1.4203 Y2.2850  
G01 X-1.4191 Y2.2790  
G01 X-1.4191 Y2.2210  
G01 X-1.4192 Y2.2203  
G01 X-1.4081 Y2.2091  
G01 X-1.3738 Y2.1749  
G01 X-1.3062 Y2.1749  
G01 X-1.2751 Y2.2060  
G01 X-1.2774 Y2.2094  
G01 X-1.2797 Y2.2150  
G01 X-1.2809 Y2.2210  
G01 X-1.2809 Y2.2790  
G01 X-1.2797 Y2.2850  
G01 X-1.2774 Y2.2906  
G01 X-1.2740 Y2.2957  
G01 X-1.2697 Y2.3000  
G01 X-1.2646 Y2.3034  
G01 X-1.2590 Y2.3057  
G01 X-1.2530 Y2.3069  
G01 X-1.2470 Y2.3069  
G01 X-1.2410 Y2.3057  
G01 X-1.2354 Y2.3034  
G01 X-1.2303 Y2.3000  
G01 X-1.2260 Y2.2957  
G01 X-1.2226 Y2.2906  
G01 X-1.2203 Y2.2850  
G01 X-1.2191 Y2.2790  
G01 X-1.2191 Y2.2210  
G01 X-1.2192 Y2.2203  
G01 X-1.1138 Y2.1149  
G01 X-1.1062 Y2.1149  
G01 X-0.4944 Y2.7267  
G01 X-0.4979 Y2.7302  
G01 X-0.4979 Y2.7698  
G01 X-0.4698 Y2.7979  
G01 X-0.4302 Y2.7979  
G01 X-0.4021 Y2.7698  
G01 X-0.4021 Y2.7302  
G01 X-0.4302 Y2.7021  
G01 X-0.4698 Y2.7021  
G01 X-0.4733 Y2.7056  
G01 X-1.0881 Y2.0909  
G01 X-1.0889 Y2.0900  
G01 X-1.0481 Y2.0491  
G01 X-1.0461 Y2.0458  
G01 X-1.0451 Y2.0420  
G01 X-1.0451 Y1.6809  
G01 X-1.0372 Y1.6809  
G01 X-1.0191 Y1.6628  
G01 X-1.0191 Y1.6402  
G01 X-0.9909 Y1.6119  
G01 X-0.9881 Y1.6091  
G01 X-0.9861 Y1.6058  
G01 X-0.9851 Y1.6020  
G01 X-0.9851 Y0.7949  
G01 X-0.8180 Y0.7949  
G01 X-0.8142 Y0.7939  
G01 X-0.8109 Y0.7919  
G01 X-0.6738 Y0.6549  
G01 X-0.6262 Y0.6549  
G01 X-0.5809 Y0.7002  
G01 X-0.5809 Y0.7128  
G01 X-0.5628 Y0.7309  
G01 X-0.5372 Y0.7309  
G01 X-0.5212 Y0.7149  
G01 X-0.4288 Y0.7149  
G01 X-0.4128 Y0.7309  
G01 X-0.3902 Y0.7309  
G01 X-0.3491 Y0.7719  
G01 X-0.3458 Y0.7739  
G01 X-0.3420 Y0.7749  
G01 X-0.2780 Y0.7749  
G01 X-0.2742 Y0.7739  
G01 X-0.2709 Y0.7719  
G01 X-0.2681 Y0.7691  
G01 X-0.2281 Y0.7291  
G01 X-0.2261 Y0.7258  
G01 X-0.2251 Y0.7220  
G01 X-0.2251 Y0.2980  
G01 X-0.2261 Y0.2942  
G01 X-0.2281 Y0.2909  
G00 Z0.1000  
G00 X-0.3081 Y0.2826  
G01 Z-0.0030 F10    
G01 X-0.3326 Y0.2581  F20    
G01 X-0.3674 Y0.2581  
G01 X-0.3919 Y0.2826  
G01 X-0.3919 Y0.3174  
G01 X-0.3749 Y0.3344  
G01 X-0.3749 Y0.3656  
G01 X-0.3919 Y0.3826  
G01 X-0.3919 Y0.4174  
G01 X-0.3674 Y0.4419  
G01 X-0.3326 Y0.4419  
G01 X-0.3259 Y0.4352  
G01 X-0.3149 Y0.4462  
G01 X-0.3149 Y0.5651  
G01 X-1.8820 Y0.5651  
G01 X-1.8858 Y0.5661  
G01 X-1.8891 Y0.5681  
G01 X-1.8919 Y0.5709  
G01 X-2.0913 Y0.7702  
G01 X-2.0970 Y0.7691  
G01 X-2.1030 Y0.7691  
G01 X-2.1090 Y0.7703  
G01 X-2.1146 Y0.7726  
G01 X-2.1197 Y0.7760  
G01 X-2.1240 Y0.7803  
G01 X-2.1274 Y0.7854  
G01 X-2.1297 Y0.7910  
G01 X-2.1309 Y0.7970  
G01 X-2.1309 Y0.8030  
G01 X-2.1297 Y0.8090  
G01 X-2.1274 Y0.8146  
G01 X-2.1240 Y0.8197  
G01 X-2.1197 Y0.8240  
G01 X-2.1146 Y0.8274  
G01 X-2.1090 Y0.8297  
G01 X-2.1030 Y0.8309  
G01 X-2.0970 Y0.8309  
G01 X-2.0910 Y0.8297  
G01 X-2.0854 Y0.8274  
G01 X-2.0803 Y0.8240  
G01 X-2.0760 Y0.8197  
G01 X-2.0726 Y0.8146  
G01 X-2.0703 Y0.8090  
G01 X-2.0691 Y0.8030  
G01 X-2.0691 Y0.7970  
G01 X-2.0702 Y0.7913  
G01 X-1.8738 Y0.5949  
G01 X-0.3149 Y0.5949  
G01 X-0.3149 Y0.6712  
G01 X-0.3309 Y0.6872  
G01 X-0.3309 Y0.7128  
G01 X-0.3128 Y0.7309  
G01 X-0.2872 Y0.7309  
G01 X-0.2691 Y0.7128  
G01 X-0.2691 Y0.6872  
G01 X-0.2851 Y0.6712  
G01 X-0.2851 Y0.4380  
G01 X-0.2861 Y0.4342  
G01 X-0.2881 Y0.4309  
G01 X-0.3081 Y0.4108  
G01 X-0.3081 Y0.3826  
G01 X-0.3326 Y0.3581  
G01 X-0.3451 Y0.3581  
G01 X-0.3451 Y0.3419  
G01 X-0.3326 Y0.3419  
G01 X-0.3081 Y0.3174  
G01 X-0.3081 Y0.2826  
G00 Z0.1000  
G00 X-0.8081 Y0.2826  
G01 Z-0.0030 F10    
G01 X-0.8326 Y0.2581  F20    
G01 X-0.8674 Y0.2581  
G01 X-0.8919 Y0.2826  
G01 X-0.8919 Y0.3174  
G01 X-0.8674 Y0.3419  
G01 X-0.8326 Y0.3419  
G01 X-0.8081 Y0.3174  
G01 X-0.8081 Y0.2826  
G00 Z0.1000  
G00 X-0.9081 Y0.2826  
G01 Z-0.0030 F10    
G01 X-0.9326 Y0.2581  F20    
G01 X-0.9674 Y0.2581  
G01 X-0.9919 Y0.2826  
G01 X-0.9919 Y0.3174  
G01 X-0.9674 Y0.3419  
G01 X-0.9326 Y0.3419  
G01 X-0.9081 Y0.3174  
G01 X-0.9081 Y0.2826  
G00 Z0.1000  
G00 X-1.0081 Y0.2826  
G01 Z-0.0030 F10    
G01 X-1.0326 Y0.2581  F20    
G01 X-1.0674 Y0.2581  
G01 X-1.0919 Y0.2826  
G01 X-1.0919 Y0.3174  
G01 X-1.0674 Y0.3419  
G01 X-1.0326 Y0.3419  
G01 X-1.0081 Y0.3174  
G01 X-1.0081 Y0.2826  
G00 Z0.1000  
G00 X-1.0081 Y0.3826  
G01 Z-0.0030 F10    
G01 X-1.0326 Y0.3581  F20    
G01 X-1.0674 Y0.3581  
G01 X-1.0919 Y0.3826  
G01 X-1.0919 Y0.4174  
G01 X-1.0674 Y0.4419  
G01 X-1.0326 Y0.4419  
G01 X-1.0081 Y0.4174  
G01 X-1.0081 Y0.3826  
G00 Z0.1000  
G00 X-0.9919 Y0.3826  
G01 Z-0.0030 F10    
G01 X-0.9919 Y0.4174  F20    
G01 X-0.9674 Y0.4419  
G01 X-0.9326 Y0.4419  
G01 X-0.9081 Y0.4174  
G01 X-0.9081 Y0.3826  
G01 X-0.9326 Y0.3581  
G01 X-0.9674 Y0.3581  
G01 X-0.9919 Y0.3826  
G00 Z0.1000  
G00 X-0.8919 Y0.3826  
G01 Z-0.0030 F10    
G01 X-0.8919 Y0.4174  F20    
G01 X-0.8674 Y0.4419  
G01 X-0.8326 Y0.4419  
G01 X-0.8081 Y0.4174  
G01 X-0.8081 Y0.3826  
G01 X-0.8326 Y0.3581  
G01 X-0.8674 Y0.3581  
G01 X-0.8919 Y0.3826  
G00 Z0.1000  
G00 X-1.0496 Y1.0558  
G01 Z-0.0030 F10    
G01 X-1.0558 Y1.0496  F20    
G01 X-1.0628 Y1.0443  
G01 X-1.0703 Y1.0399  
G01 X-1.0784 Y1.0365  
G01 X-1.0869 Y1.0342  
G01 X-1.0956 Y1.0331  
G01 X-1.1044 Y1.0331  
G01 X-1.1131 Y1.0342  
G01 X-1.1216 Y1.0365  
G01 X-1.1297 Y1.0399  
G01 X-1.1372 Y1.0443  
G01 X-1.1442 Y1.0496  
G01 X-1.1504 Y1.0558  
G01 X-1.1557 Y1.0628  
G01 X-1.1601 Y1.0703  
G01 X-1.1635 Y1.0784  
G01 X-1.1653 Y1.0851  
G01 X-1.7251 Y1.0851  
G01 X-1.7251 Y1.0780  
G01 X-1.7261 Y1.0742  
G01 X-1.7281 Y1.0709  
G01 X-1.7309 Y1.0681  
G01 X-1.7851 Y1.0138  
G01 X-1.7851 Y0.8272  
G01 X-1.7803 Y0.8240  
G01 X-1.7760 Y0.8197  
G01 X-1.7726 Y0.8146  
G01 X-1.7703 Y0.8090  
G01 X-1.7691 Y0.8030  
G01 X-1.7691 Y0.7970  
G01 X-1.7703 Y0.7910  
G01 X-1.7726 Y0.7854  
G01 X-1.7760 Y0.7803  
G01 X-1.7803 Y0.7760  
G01 X-1.7854 Y0.7726  
G01 X-1.7910 Y0.7703  
G01 X-1.7970 Y0.7691  
G01 X-1.8030 Y0.7691  
G01 X-1.8090 Y0.7703  
G01 X-1.8146 Y0.7726  
G01 X-1.8197 Y0.7760  
G01 X-1.8240 Y0.7803  
G01 X-1.8272 Y0.7851  
G01 X-1.8728 Y0.7851  
G01 X-1.8760 Y0.7803  
G01 X-1.8803 Y0.7760  
G01 X-1.8854 Y0.7726  
G01 X-1.8910 Y0.7703  
G01 X-1.8970 Y0.7691  
G01 X-1.9030 Y0.7691  
G01 X-1.9090 Y0.7703  
G01 X-1.9146 Y0.7726  
G01 X-1.9197 Y0.7760  
G01 X-1.9240 Y0.7803  
G01 X-1.9274 Y0.7854  
G01 X-1.9297 Y0.7910  
G01 X-1.9309 Y0.7970  
G01 X-1.9309 Y0.8030  
G01 X-1.9297 Y0.8090  
G01 X-1.9274 Y0.8146  
G01 X-1.9240 Y0.8197  
G01 X-1.9197 Y0.8240  
G01 X-1.9146 Y0.8274  
G01 X-1.9090 Y0.8297  
G01 X-1.9030 Y0.8309  
G01 X-1.8970 Y0.8309  
G01 X-1.8910 Y0.8297  
G01 X-1.8854 Y0.8274  
G01 X-1.8803 Y0.8240  
G01 X-1.8760 Y0.8197  
G01 X-1.8728 Y0.8149  
G01 X-1.8272 Y0.8149  
G01 X-1.8240 Y0.8197  
G01 X-1.8197 Y0.8240  
G01 X-1.8149 Y0.8272  
G01 X-1.8149 Y1.0220  
G01 X-1.8139 Y1.0258  
G01 X-1.8119 Y1.0291  
G01 X-1.7549 Y1.0862  
G01 X-1.7549 Y1.2738  
G01 X-1.8002 Y1.3191  
G01 X-1.8128 Y1.3191  
G01 X-1.8309 Y1.3372  
G01 X-1.8309 Y1.3628  
G01 X-1.8128 Y1.3809  
G01 X-1.8002 Y1.3809  
G01 X-1.5291 Y1.6519  
G01 X-1.5258 Y1.6539  
G01 X-1.5220 Y1.6549  
G01 X-1.4809 Y1.6549  
G01 X-1.4809 Y1.6628  
G01 X-1.4628 Y1.6809  
G01 X-1.4372 Y1.6809  
G01 X-1.4191 Y1.6628  
G01 X-1.4191 Y1.6372  
G01 X-1.4372 Y1.6191  
G01 X-1.4628 Y1.6191  
G01 X-1.4688 Y1.6251  
G01 X-1.5138 Y1.6251  
G01 X-1.7726 Y1.3663  
G01 X-1.7691 Y1.3628  
G01 X-1.7691 Y1.3372  
G01 X-1.7726 Y1.3337  
G01 X-1.7281 Y1.2891  
G01 X-1.7261 Y1.2858  
G01 X-1.7251 Y1.2820  
G01 X-1.7251 Y1.1149  
G01 X-1.1653 Y1.1149  
G01 X-1.1635 Y1.1216  
G01 X-1.1601 Y1.1297  
G01 X-1.1557 Y1.1372  
G01 X-1.1504 Y1.1442  
G01 X-1.1442 Y1.1504  
G01 X-1.1372 Y1.1557  
G01 X-1.1297 Y1.1601  
G01 X-1.1216 Y1.1635  
G01 X-1.1131 Y1.1658  
G01 X-1.1044 Y1.1669  
G01 X-1.0956 Y1.1669  
G01 X-1.0869 Y1.1658  
G01 X-1.0784 Y1.1635  
G01 X-1.0703 Y1.1601  
G01 X-1.0628 Y1.1557  
G01 X-1.0558 Y1.1504  
G01 X-1.0496 Y1.1442  
G01 X-1.0443 Y1.1372  
G01 X-1.0399 Y1.1297  
G01 X-1.0365 Y1.1216  
G01 X-1.0342 Y1.1131  
G01 X-1.0331 Y1.1044  
G01 X-1.0331 Y1.0956  
G01 X-1.0342 Y1.0869  
G01 X-1.0365 Y1.0784  
G01 X-1.0399 Y1.0703  
G01 X-1.0443 Y1.0628  
G01 X-1.0496 Y1.0558  
G00 Z0.1000  
G00 X-0.9128 Y1.5691  
G01 Z-0.0030 F10    
G01 X-0.9309 Y1.5872  F20    
G01 X-0.9309 Y1.6128  
G01 X-0.9128 Y1.6309  
G01 X-0.8872 Y1.6309  
G01 X-0.8712 Y1.6149  
G01 X-0.6980 Y1.6149  
G01 X-0.6942 Y1.6139  
G01 X-0.6909 Y1.6119  
G01 X-0.2368 Y1.1578  
G01 X-0.2277 Y1.1669  
G01 X-0.1723 Y1.1669  
G01 X-0.1331 Y1.1277  
G01 X-0.1331 Y1.0723  
G01 X-0.1723 Y1.0331  
G01 X-0.2277 Y1.0331  
G01 X-0.2669 Y1.0723  
G01 X-0.2669 Y1.1277  
G01 X-0.2578 Y1.1368  
G01 X-0.7062 Y1.5851  
G01 X-0.8712 Y1.5851  
G01 X-0.8872 Y1.5691  
G01 X-0.9128 Y1.5691  
G00 Z0.1000  
G00 X-0.9128 Y1.7191  
G01 Z-0.0030 F10    
G01 X-0.9309 Y1.7372  F20    
G01 X-0.9309 Y1.7628  
G01 X-0.9149 Y1.7788  
G01 X-0.9149 Y2.1820  
G01 X-0.9139 Y2.1858  
G01 X-0.9119 Y2.1891  
G01 X-0.3844 Y2.7167  
G01 X-0.3979 Y2.7302  
G01 X-0.3979 Y2.7698  
G01 X-0.3698 Y2.7979  
G01 X-0.3302 Y2.7979  
G01 X-0.3021 Y2.7698  
G01 X-0.3021 Y2.7302  
G01 X-0.3302 Y2.7021  
G01 X-0.3568 Y2.7021  
G01 X-0.8851 Y2.1738  
G01 X-0.8851 Y1.7788  
G01 X-0.8691 Y1.7628  
G01 X-0.8691 Y1.7372  
G01 X-0.8872 Y1.7191  
G01 X-0.9128 Y1.7191  
G00 Z0.1000  
G00 X-0.5309 Y1.6128  
G01 Z-0.0030 F10    
G01 X-0.5128 Y1.6309  F20    
G01 X-0.4872 Y1.6309  
G01 X-0.4712 Y1.6149  
G01 X-0.2174 Y1.6149  
G01 X-0.2174 Y1.6279  
G01 X-0.1779 Y1.6674  
G01 X-0.1221 Y1.6674  
G01 X-0.0826 Y1.6279  
G01 X-0.0826 Y1.5721  
G01 X-0.1221 Y1.5326  
G01 X-0.1779 Y1.5326  
G01 X-0.2174 Y1.5721  
G01 X-0.2174 Y1.5851  
G01 X-0.4712 Y1.5851  
G01 X-0.4872 Y1.5691  
G01 X-0.5128 Y1.5691  
G01 X-0.5309 Y1.5872  
G01 X-0.5309 Y1.6128  
G00 Z0.1000  
G00 X-0.1779 Y1.7826  
G01 Z-0.0030 F10    
G01 X-0.2174 Y1.8221  F20    
G01 X-0.2174 Y1.8779  
G01 X-0.1779 Y1.9174  
G01 X-0.1749 Y1.9174  
G01 X-0.1749 Y2.1095  
G01 X-0.1809 Y2.1138  
G01 X-0.1862 Y2.1191  
G01 X-0.1905 Y2.1252  
G01 X-0.1939 Y2.1318  
G01 X-0.1962 Y2.1389  
G01 X-0.1974 Y2.1463  
G01 X-0.1974 Y2.1537  
G01 X-0.1962 Y2.1611  
G01 X-0.1939 Y2.1682  
G01 X-0.1905 Y2.1748  
G01 X-0.1862 Y2.1809  
G01 X-0.1809 Y2.1862  
G01 X-0.1748 Y2.1905  
G01 X-0.1682 Y2.1939  
G01 X-0.1611 Y2.1962  
G01 X-0.1537 Y2.1974  
G01 X-0.1463 Y2.1974  
G01 X-0.1389 Y2.1962  
G01 X-0.1318 Y2.1939  
G01 X-0.1252 Y2.1905  
G01 X-0.1191 Y2.1862  
G01 X-0.1138 Y2.1809  
G01 X-0.1095 Y2.1748  
G01 X-0.1061 Y2.1682  
G01 X-0.1038 Y2.1611  
G01 X-0.1026 Y2.1537  
G01 X-0.1026 Y2.1463  
G01 X-0.1038 Y2.1389  
G01 X-0.1061 Y2.1318  
G01 X-0.1095 Y2.1252  
G01 X-0.1138 Y2.1191  
G01 X-0.1191 Y2.1138  
G01 X-0.1252 Y2.1095  
G01 X-0.1318 Y2.1061  
G01 X-0.1389 Y2.1038  
G01 X-0.1451 Y2.1028  
G01 X-0.1451 Y1.9174  
G01 X-0.1221 Y1.9174  
G01 X-0.0826 Y1.8779  
G01 X-0.0826 Y1.8221  
G01 X-0.1221 Y1.7826  
G01 X-0.1779 Y1.7826  
G00 Z0.1000  
G00 X-0.1628 Y2.3691  
G01 Z-0.0030 F10    
G01 X-0.1809 Y2.3872  F20    
G01 X-0.1809 Y2.4128  
G01 X-0.1749 Y2.4188  
G01 X-0.1749 Y2.6538  
G01 X-0.2267 Y2.7056  
G01 X-0.2302 Y2.7021  
G01 X-0.2698 Y2.7021  
G01 X-0.2979 Y2.7302  
G01 X-0.2979 Y2.7698  
G01 X-0.2698 Y2.7979  
G01 X-0.2302 Y2.7979  
G01 X-0.2021 Y2.7698  
G01 X-0.2021 Y2.7302  
G01 X-0.2056 Y2.7267  
G01 X-0.1481 Y2.6691  
G01 X-0.1461 Y2.6658  
G01 X-0.1451 Y2.6620  
G01 X-0.1451 Y2.4309  
G01 X-0.1372 Y2.4309  
G01 X-0.1191 Y2.4128  
G01 X-0.1191 Y2.3872  
G01 X-0.1372 Y2.3691  
G01 X-0.1628 Y2.3691  
G00 Z0.1000  
G00 X-0.5191 Y2.3872  
G01 Z-0.0030 F10    
G01 X-0.5372 Y2.3691  F20    
G01 X-0.5451 Y2.3691  
G01 X-0.5451 Y2.3380  
G01 X-0.5461 Y2.3342  
G01 X-0.5481 Y2.3309  
G01 X-0.7059 Y2.1730  
G01 X-0.7026 Y2.1696  
G01 X-0.7026 Y2.1304  
G01 X-0.7304 Y2.1026  
G01 X-0.7696 Y2.1026  
G01 X-0.7974 Y2.1304  
G01 X-0.7974 Y2.1696  
G01 X-0.7696 Y2.1974  
G01 X-0.7304 Y2.1974  
G01 X-0.7270 Y2.1941  
G01 X-0.5749 Y2.3462  
G01 X-0.5749 Y2.3812  
G01 X-0.5809 Y2.3872  
G01 X-0.5809 Y2.4128  
G01 X-0.5628 Y2.4309  
G01 X-0.5372 Y2.4309  
G01 X-0.5191 Y2.4128  
G01 X-0.5191 Y2.3872  
G00 Z0.1000  
G00 X-0.9881 Y2.3909  
G01 Z-0.0030 F10    
G01 X-1.1191 Y2.2598  F20    
G01 X-1.1191 Y2.2210  
G01 X-1.1203 Y2.2150  
G01 X-1.1226 Y2.2094  
G01 X-1.1260 Y2.2043  
G01 X-1.1303 Y2.2000  
G01 X-1.1354 Y2.1966  
G01 X-1.1410 Y2.1943  
G01 X-1.1470 Y2.1931  
G01 X-1.1530 Y2.1931  
G01 X-1.1590 Y2.1943  
G01 X-1.1646 Y2.1966  
G01 X-1.1697 Y2.2000  
G01 X-1.1740 Y2.2043  
G01 X-1.1774 Y2.2094  
G01 X-1.1797 Y2.2150  
G01 X-1.1809 Y2.2210  
G01 X-1.1809 Y2.2790  
G01 X-1.1797 Y2.2850  
G01 X-1.1774 Y2.2906  
G01 X-1.1740 Y2.2957  
G01 X-1.1697 Y2.3000  
G01 X-1.1646 Y2.3034  
G01 X-1.1590 Y2.3057  
G01 X-1.1530 Y2.3069  
G01 X-1.1470 Y2.3069  
G01 X-1.1410 Y2.3057  
G01 X-1.1354 Y2.3034  
G01 X-1.1303 Y2.3000  
G01 X-1.1260 Y2.2957  
G01 X-1.1257 Y2.2953  
G01 X-1.0149 Y2.4062  
G01 X-1.0149 Y2.8712  
G01 X-1.0309 Y2.8872  
G01 X-1.0309 Y2.9128  
G01 X-1.0128 Y2.9309  
G01 X-0.9872 Y2.9309  
G01 X-0.9691 Y2.9128  
G01 X-0.9691 Y2.8872  
G01 X-0.9851 Y2.8712  
G01 X-0.9851 Y2.3980  
G01 X-0.9861 Y2.3942  
G01 X-0.9881 Y2.3909  
G00 Z0.1000  
G00 X-1.1260 Y2.5043  
G01 Z-0.0030 F10    
G01 X-1.1303 Y2.5000  F20    
G01 X-1.1354 Y2.4966  
G01 X-1.1410 Y2.4943  
G01 X-1.1470 Y2.4931  
G01 X-1.1530 Y2.4931  
G01 X-1.1590 Y2.4943  
G01 X-1.1646 Y2.4966  
G01 X-1.1697 Y2.5000  
G01 X-1.1740 Y2.5043  
G01 X-1.1774 Y2.5094  
G01 X-1.1797 Y2.5150  
G01 X-1.1809 Y2.5210  
G01 X-1.1809 Y2.5790  
G01 X-1.1797 Y2.5850  
G01 X-1.1774 Y2.5906  
G01 X-1.1749 Y2.5944  
G01 X-1.1749 Y2.8138  
G01 X-1.2337 Y2.8726  
G01 X-1.2372 Y2.8691  
G01 X-1.2628 Y2.8691  
G01 X-1.2809 Y2.8872  
G01 X-1.2809 Y2.9128  
G01 X-1.2628 Y2.9309  
G01 X-1.2372 Y2.9309  
G01 X-1.2191 Y2.9128  
G01 X-1.2191 Y2.9002  
G01 X-1.1481 Y2.8291  
G01 X-1.1461 Y2.8258  
G01 X-1.1451 Y2.8220  
G01 X-1.1451 Y2.6065  
G01 X-1.1410 Y2.6057  
G01 X-1.1354 Y2.6034  
G01 X-1.1303 Y2.6000  
G01 X-1.1260 Y2.5957  
G01 X-1.1226 Y2.5906  
G01 X-1.1203 Y2.5850  
G01 X-1.1191 Y2.5790  
G01 X-1.1191 Y2.5210  
G01 X-1.1203 Y2.5150  
G01 X-1.1226 Y2.5094  
G01 X-1.1260 Y2.5043  
G00 Z0.1000  
G00 X-1.2260 Y2.5043  
G01 Z-0.0030 F10    
G01 X-1.2303 Y2.5000  F20    
G01 X-1.2354 Y2.4966  
G01 X-1.2410 Y2.4943  
G01 X-1.2470 Y2.4931  
G01 X-1.2530 Y2.4931  
G01 X-1.2590 Y2.4943  
G01 X-1.2646 Y2.4966  
G01 X-1.2697 Y2.5000  
G01 X-1.2740 Y2.5043  
G01 X-1.2774 Y2.5094  
G01 X-1.2797 Y2.5150  
G01 X-1.2809 Y2.5210  
G01 X-1.2809 Y2.5790  
G01 X-1.2797 Y2.5850  
G01 X-1.2774 Y2.5906  
G01 X-1.2749 Y2.5944  
G01 X-1.2749 Y2.6538  
G01 X-1.4902 Y2.8691  
G01 X-1.5128 Y2.8691  
G01 X-1.5309 Y2.8872  
G01 X-1.5309 Y2.9128  
G01 X-1.5128 Y2.9309  
G01 X-1.4872 Y2.9309  
G01 X-1.4691 Y2.9128  
G01 X-1.4691 Y2.8902  
G01 X-1.2481 Y2.6691  
G01 X-1.2461 Y2.6658  
G01 X-1.2451 Y2.6620  
G01 X-1.2451 Y2.6065  
G01 X-1.2410 Y2.6057  
G01 X-1.2354 Y2.6034  
G01 X-1.2303 Y2.6000  
G01 X-1.2260 Y2.5957  
G01 X-1.2226 Y2.5906  
G01 X-1.2203 Y2.5850  
G01 X-1.2191 Y2.5790  
G01 X-1.2191 Y2.5210  
G01 X-1.2203 Y2.5150  
G01 X-1.2226 Y2.5094  
G01 X-1.2260 Y2.5043  
G00 Z0.1000  
G00 X-1.3260 Y2.5043  
G01 Z-0.0030 F10    
G01 X-1.3303 Y2.5000  F20    
G01 X-1.3354 Y2.4966  
G01 X-1.3410 Y2.4943  
G01 X-1.3470 Y2.4931  
G01 X-1.3530 Y2.4931  
G01 X-1.3590 Y2.4943  
G01 X-1.3646 Y2.4966  
G01 X-1.3697 Y2.5000  
G01 X-1.3740 Y2.5043  
G01 X-1.3774 Y2.5094  
G01 X-1.3797 Y2.5150  
G01 X-1.3809 Y2.5210  
G01 X-1.3809 Y2.5790  
G01 X-1.3808 Y2.5797  
G01 X-1.6262 Y2.8251  
G01 X-1.6820 Y2.8251  
G01 X-1.6858 Y2.8261  
G01 X-1.6891 Y2.8281  
G01 X-1.7337 Y2.8726  
G01 X-1.7372 Y2.8691  
G01 X-1.7628 Y2.8691  
G01 X-1.7809 Y2.8872  
G01 X-1.7809 Y2.9128  
G01 X-1.7628 Y2.9309  
G01 X-1.7372 Y2.9309  
G01 X-1.7191 Y2.9128  
G01 X-1.7191 Y2.9002  
G01 X-1.6738 Y2.8549  
G01 X-1.6180 Y2.8549  
G01 X-1.6142 Y2.8539  
G01 X-1.6109 Y2.8519  
G01 X-1.6081 Y2.8491  
G01 X-1.3630 Y2.6041  
G01 X-1.3590 Y2.6057  
G01 X-1.3530 Y2.6069  
G01 X-1.3470 Y2.6069  
G01 X-1.3410 Y2.6057  
G01 X-1.3354 Y2.6034  
G01 X-1.3303 Y2.6000  
G01 X-1.3260 Y2.5957  
G01 X-1.3226 Y2.5906  
G01 X-1.3203 Y2.5850  
G01 X-1.3191 Y2.5790  
G01 X-1.3191 Y2.5210  
G01 X-1.3203 Y2.5150  
G01 X-1.3226 Y2.5094  
G01 X-1.3260 Y2.5043  
G00 Z0.1000  
G00 X-1.4260 Y2.5043  
G01 Z-0.0030 F10    
G01 X-1.4303 Y2.5000  F20    
G01 X-1.4354 Y2.4966  
G01 X-1.4410 Y2.4943  
G01 X-1.4470 Y2.4931  
G01 X-1.4530 Y2.4931  
G01 X-1.4590 Y2.4943  
G01 X-1.4646 Y2.4966  
G01 X-1.4697 Y2.5000  
G01 X-1.4740 Y2.5043  
G01 X-1.4774 Y2.5094  
G01 X-1.4797 Y2.5150  
G01 X-1.4809 Y2.5210  
G01 X-1.4809 Y2.5636  
G01 X-1.5214 Y2.6203  
G01 X-1.6862 Y2.7851  
G01 X-1.8220 Y2.7851  
G01 X-1.8258 Y2.7861  
G01 X-1.8291 Y2.7881  
G01 X-1.8662 Y2.8251  
G01 X-1.9420 Y2.8251  
G01 X-1.9458 Y2.8261  
G01 X-1.9491 Y2.8281  
G01 X-1.9902 Y2.8691  
G01 X-2.0128 Y2.8691  
G01 X-2.0309 Y2.8872  
G01 X-2.0309 Y2.9128  
G01 X-2.0128 Y2.9309  
G01 X-1.9872 Y2.9309  
G01 X-1.9691 Y2.9128  
G01 X-1.9691 Y2.8902  
G01 X-1.9338 Y2.8549  
G01 X-1.8580 Y2.8549  
G01 X-1.8542 Y2.8539  
G01 X-1.8509 Y2.8519  
G01 X-1.8481 Y2.8491  
G01 X-1.8138 Y2.8149  
G01 X-1.6780 Y2.8149  
G01 X-1.6742 Y2.8139  
G01 X-1.6709 Y2.8119  
G01 X-1.6681 Y2.8091  
G01 X-1.5000 Y2.6410  
G01 X-1.4990 Y2.6403  
G01 X-1.4986 Y2.6397  
G01 X-1.4981 Y2.6391  
G01 X-1.4975 Y2.6381  
G01 X-1.4700 Y2.5997  
G01 X-1.4697 Y2.6000  
G01 X-1.4646 Y2.6034  
G01 X-1.4590 Y2.6057  
G01 X-1.4530 Y2.6069  
G01 X-1.4470 Y2.6069  
G01 X-1.4410 Y2.6057  
G01 X-1.4354 Y2.6034  
G01 X-1.4303 Y2.6000  
G01 X-1.4260 Y2.5957  
G01 X-1.4226 Y2.5906  
G01 X-1.4203 Y2.5850  
G01 X-1.4191 Y2.5790  
G01 X-1.4191 Y2.5210  
G01 X-1.4203 Y2.5150  
G01 X-1.4226 Y2.5094  
G01 X-1.4260 Y2.5043  
G00 Z0.1000  
G00 X-1.5260 Y2.5043  
G01 Z-0.0030 F10    
G01 X-1.5303 Y2.5000  F20    
G01 X-1.5354 Y2.4966  
G01 X-1.5410 Y2.4943  
G01 X-1.5470 Y2.4931  
G01 X-1.5530 Y2.4931  
G01 X-1.5590 Y2.4943  
G01 X-1.5646 Y2.4966  
G01 X-1.5697 Y2.5000  
G01 X-1.5740 Y2.5043  
G01 X-1.5774 Y2.5094  
G01 X-1.5797 Y2.5150  
G01 X-1.5809 Y2.5210  
G01 X-1.5809 Y2.5790  
G01 X-1.5797 Y2.5850  
G01 X-1.5774 Y2.5906  
G01 X-1.5740 Y2.5957  
G01 X-1.5711 Y2.5986  
G01 X-1.7060 Y2.6885  
G01 X-1.9535 Y2.7875  
G01 X-2.2511 Y2.8371  
G01 X-2.2517 Y2.8371  
G01 X-2.2527 Y2.8374  
G01 X-2.2538 Y2.8376  
G01 X-2.2544 Y2.8378  
G01 X-2.2550 Y2.8380  
G01 X-2.2559 Y2.8385  
G01 X-2.2569 Y2.8390  
G01 X-2.2574 Y2.8394  
G01 X-2.2579 Y2.8397  
G01 X-2.2587 Y2.8404  
G01 X-2.2595 Y2.8411  
G01 X-2.2599 Y2.8416  
G01 X-2.2603 Y2.8421  
G01 X-2.2609 Y2.8430  
G01 X-2.2615 Y2.8439  
G01 X-2.2617 Y2.8445  
G01 X-2.2620 Y2.8450  
G01 X-2.2623 Y2.8461  
G01 X-2.2627 Y2.8471  
G01 X-2.2627 Y2.8477  
G01 X-2.2629 Y2.8483  
G01 X-2.2629 Y2.8494  
G01 X-2.2630 Y2.8504  
G01 X-2.2629 Y2.8511  
G01 X-2.2629 Y2.8692  
G01 X-2.2809 Y2.8872  
G01 X-2.2809 Y2.9128  
G01 X-2.2628 Y2.9309  
G01 X-2.2372 Y2.9309  
G01 X-2.2191 Y2.9128  
G01 X-2.2191 Y2.8872  
G01 X-2.2371 Y2.8692  
G01 X-2.2371 Y2.8609  
G01 X-1.9482 Y2.8128  
G01 X-1.9468 Y2.8126  
G01 X-1.9465 Y2.8125  
G01 X-1.9462 Y2.8124  
G01 X-1.9449 Y2.8119  
G01 X-1.6955 Y2.7121  
G01 X-1.6943 Y2.7117  
G01 X-1.6940 Y2.7115  
G01 X-1.6936 Y2.7113  
G01 X-1.6926 Y2.7105  
G01 X-1.5432 Y2.6110  
G01 X-1.5421 Y2.6103  
G01 X-1.5418 Y2.6100  
G01 X-1.5414 Y2.6098  
G01 X-1.5406 Y2.6088  
G01 X-1.5397 Y2.6079  
G01 X-1.5395 Y2.6076  
G01 X-1.5392 Y2.6072  
G01 X-1.5386 Y2.6061  
G01 X-1.5380 Y2.6050  
G01 X-1.5379 Y2.6046  
G01 X-1.5378 Y2.6044  
G01 X-1.5354 Y2.6034  
G01 X-1.5303 Y2.6000  
G01 X-1.5260 Y2.5957  
G01 X-1.5226 Y2.5906  
G01 X-1.5203 Y2.5850  
G01 X-1.5191 Y2.5790  
G01 X-1.5191 Y2.5210  
G01 X-1.5203 Y2.5150  
G01 X-1.5226 Y2.5094  
G01 X-1.5260 Y2.5043  
G00 Z0.1000  
G00 X-1.6260 Y2.5043  
G01 Z-0.0030 F10    
G01 X-1.6303 Y2.5000  F20    
G01 X-1.6354 Y2.4966  
G01 X-1.6410 Y2.4943  
G01 X-1.6470 Y2.4931  
G01 X-1.6530 Y2.4931  
G01 X-1.6590 Y2.4943  
G01 X-1.6646 Y2.4966  
G01 X-1.6697 Y2.5000  
G01 X-1.6740 Y2.5043  
G01 X-1.6774 Y2.5094  
G01 X-1.6797 Y2.5150  
G01 X-1.6809 Y2.5210  
G01 X-1.6809 Y2.5756  
G01 X-1.9350 Y2.7355  
G01 X-2.4008 Y2.7851  
G01 X-2.4020 Y2.7851  
G01 X-2.4027 Y2.7853  
G01 X-2.4035 Y2.7854  
G01 X-2.4046 Y2.7858  
G01 X-2.4058 Y2.7861  
G01 X-2.4064 Y2.7865  
G01 X-2.4072 Y2.7868  
G01 X-2.4081 Y2.7875  
G01 X-2.4091 Y2.7881  
G01 X-2.4097 Y2.7886  
G01 X-2.4104 Y2.7891  
G01 X-2.4111 Y2.7900  
G01 X-2.4902 Y2.8691  
G01 X-2.5128 Y2.8691  
G01 X-2.5309 Y2.8872  
G01 X-2.5309 Y2.9128  
G01 X-2.5128 Y2.9309  
G01 X-2.4872 Y2.9309  
G01 X-2.4691 Y2.9128  
G01 X-2.4691 Y2.8902  
G01 X-2.3932 Y2.8143  
G01 X-1.9289 Y2.7649  
G01 X-1.9275 Y2.7648  
G01 X-1.9270 Y2.7647  
G01 X-1.9265 Y2.7646  
G01 X-1.9251 Y2.7641  
G01 X-1.9237 Y2.7637  
G01 X-1.9233 Y2.7634  
G01 X-1.9228 Y2.7632  
G01 X-1.9216 Y2.7623  
G01 X-1.6668 Y2.6019  
G01 X-1.6646 Y2.6034  
G01 X-1.6590 Y2.6057  
G01 X-1.6530 Y2.6069  
G01 X-1.6470 Y2.6069  
G01 X-1.6410 Y2.6057  
G01 X-1.6354 Y2.6034  
G01 X-1.6303 Y2.6000  
G01 X-1.6260 Y2.5957  
G01 X-1.6226 Y2.5906  
G01 X-1.6203 Y2.5850  
G01 X-1.6191 Y2.5790  
G01 X-1.6191 Y2.5210  
G01 X-1.6203 Y2.5150  
G01 X-1.6226 Y2.5094  
G01 X-1.6260 Y2.5043  
G00 Z0.1000  
G00 X-1.7260 Y2.5043  
G01 Z-0.0030 F10    
G01 X-1.7303 Y2.5000  F20    
G01 X-1.7354 Y2.4966  
G01 X-1.7410 Y2.4943  
G01 X-1.7470 Y2.4931  
G01 X-1.7530 Y2.4931  
G01 X-1.7590 Y2.4943  
G01 X-1.7646 Y2.4966  
G01 X-1.7697 Y2.5000  
G01 X-1.7740 Y2.5043  
G01 X-1.7774 Y2.5094  
G01 X-1.7797 Y2.5150  
G01 X-1.7809 Y2.5210  
G01 X-1.7809 Y2.5767  
G01 X-1.9453 Y2.6955  
G01 X-2.6006 Y2.7451  
G01 X-2.6020 Y2.7451  
G01 X-2.6025 Y2.7452  
G01 X-2.6031 Y2.7453  
G01 X-2.6044 Y2.7458  
G01 X-2.6058 Y2.7461  
G01 X-2.6062 Y2.7464  
G01 X-2.6068 Y2.7466  
G01 X-2.6079 Y2.7474  
G01 X-2.6091 Y2.7481  
G01 X-2.6096 Y2.7485  
G01 X-2.6100 Y2.7488  
G01 X-2.6109 Y2.7499  
G01 X-2.7337 Y2.8726  
G01 X-2.7372 Y2.8691  
G01 X-2.7628 Y2.8691  
G01 X-2.7809 Y2.8872  
G01 X-2.7809 Y2.9128  
G01 X-2.7628 Y2.9309  
G01 X-2.7372 Y2.9309  
G01 X-2.7191 Y2.9128  
G01 X-2.7191 Y2.9002  
G01 X-2.5934 Y2.7744  
G01 X-1.9406 Y2.7250  
G01 X-1.9404 Y2.7250  
G01 X-1.9387 Y2.7248  
G01 X-1.9369 Y2.7247  
G01 X-1.9367 Y2.7246  
G01 X-1.9365 Y2.7246  
G01 X-1.9349 Y2.7240  
G01 X-1.9332 Y2.7234  
G01 X-1.9331 Y2.7233  
G01 X-1.9329 Y2.7232  
G01 X-1.9314 Y2.7222  
G01 X-1.9300 Y2.7212  
G01 X-1.9298 Y2.7210  
G01 X-1.7658 Y2.6026  
G01 X-1.7646 Y2.6034  
G01 X-1.7590 Y2.6057  
G01 X-1.7530 Y2.6069  
G01 X-1.7470 Y2.6069  
G01 X-1.7410 Y2.6057  
G01 X-1.7354 Y2.6034  
G01 X-1.7303 Y2.6000  
G01 X-1.7260 Y2.5957  
G01 X-1.7226 Y2.5906  
G01 X-1.7203 Y2.5850  
G01 X-1.7191 Y2.5790  
G01 X-1.7191 Y2.5210  
G01 X-1.7203 Y2.5150  
G01 X-1.7226 Y2.5094  
G01 X-1.7260 Y2.5043  
G00 Z0.1000  
G00 X-1.8260 Y2.5043  
G01 Z-0.0030 F10    
G01 X-1.8303 Y2.5000  F20    
G01 X-1.8354 Y2.4966  
G01 X-1.8410 Y2.4943  
G01 X-1.8470 Y2.4931  
G01 X-1.8530 Y2.4931  
G01 X-1.8590 Y2.4943  
G01 X-1.8646 Y2.4966  
G01 X-1.8697 Y2.5000  
G01 X-1.8740 Y2.5043  
G01 X-1.8774 Y2.5094  
G01 X-1.8797 Y2.5150  
G01 X-1.8809 Y2.5210  
G01 X-1.8809 Y2.5790  
G01 X-1.8808 Y2.5797  
G01 X-1.9565 Y2.6555  
G01 X-2.8204 Y2.7051  
G01 X-2.8220 Y2.7051  
G01 X-2.8224 Y2.7052  
G01 X-2.8228 Y2.7052  
G01 X-2.8243 Y2.7057  
G01 X-2.8258 Y2.7061  
G01 X-2.8261 Y2.7063  
G01 X-2.8265 Y2.7065  
G01 X-2.8278 Y2.7073  
G01 X-2.8291 Y2.7081  
G01 X-2.8295 Y2.7084  
G01 X-2.8298 Y2.7086  
G01 X-2.8308 Y2.7098  
G01 X-2.9902 Y2.8691  
G01 X-3.0128 Y2.8691  
G01 X-3.0309 Y2.8872  
G01 X-3.0309 Y2.9128  
G01 X-3.0128 Y2.9309  
G01 X-2.9872 Y2.9309  
G01 X-2.9691 Y2.9128  
G01 X-2.9691 Y2.8902  
G01 X-2.8135 Y2.7345  
G01 X-1.9496 Y2.6849  
G01 X-1.9480 Y2.6849  
G01 X-1.9476 Y2.6848  
G01 X-1.9472 Y2.6848  
G01 X-1.9457 Y2.6843  
G01 X-1.9442 Y2.6839  
G01 X-1.9439 Y2.6837  
G01 X-1.9435 Y2.6835  
G01 X-1.9422 Y2.6827  
G01 X-1.9409 Y2.6819  
G01 X-1.9405 Y2.6816  
G01 X-1.9402 Y2.6814  
G01 X-1.9392 Y2.6802  
G01 X-1.8630 Y2.6041  
G01 X-1.8590 Y2.6057  
G01 X-1.8530 Y2.6069  
G01 X-1.8470 Y2.6069  
G01 X-1.8410 Y2.6057  
G01 X-1.8354 Y2.6034  
G01 X-1.8303 Y2.6000  
G01 X-1.8260 Y2.5957  
G01 X-1.8226 Y2.5906  
G01 X-1.8203 Y2.5850  
G01 X-1.8191 Y2.5790  
G01 X-1.8191 Y2.5210  
G01 X-1.8203 Y2.5150  
G01 X-1.8226 Y2.5094  
G01 X-1.8260 Y2.5043  
G00 Z0.1000  
G00 X-1.9260 Y2.5043  
G01 Z-0.0030 F10    
G01 X-1.9303 Y2.5000  F20    
G01 X-1.9354 Y2.4966  
G01 X-1.9410 Y2.4943  
G01 X-1.9470 Y2.4931  
G01 X-1.9530 Y2.4931  
G01 X-1.9590 Y2.4943  
G01 X-1.9646 Y2.4966  
G01 X-1.9697 Y2.5000  
G01 X-1.9740 Y2.5043  
G01 X-1.9774 Y2.5094  
G01 X-1.9797 Y2.5150  
G01 X-1.9809 Y2.5210  
G01 X-1.9809 Y2.5451  
G01 X-2.9020 Y2.5451  
G01 X-2.9058 Y2.5461  
G01 X-2.9091 Y2.5481  
G01 X-3.2337 Y2.8726  
G01 X-3.2372 Y2.8691  
G01 X-3.2628 Y2.8691  
G01 X-3.2809 Y2.8872  
G01 X-3.2809 Y2.9128  
G01 X-3.2628 Y2.9309  
G01 X-3.2372 Y2.9309  
G01 X-3.2191 Y2.9128  
G01 X-3.2191 Y2.9002  
G01 X-2.8938 Y2.5749  
G01 X-1.9809 Y2.5749  
G01 X-1.9809 Y2.5790  
G01 X-1.9797 Y2.5850  
G01 X-1.9774 Y2.5906  
G01 X-1.9740 Y2.5957  
G01 X-1.9697 Y2.6000  
G01 X-1.9646 Y2.6034  
G01 X-1.9590 Y2.6057  
G01 X-1.9530 Y2.6069  
G01 X-1.9470 Y2.6069  
G01 X-1.9410 Y2.6057  
G01 X-1.9354 Y2.6034  
G01 X-1.9303 Y2.6000  
G01 X-1.9260 Y2.5957  
G01 X-1.9226 Y2.5906  
G01 X-1.9203 Y2.5850  
G01 X-1.9191 Y2.5790  
G01 X-1.9191 Y2.5210  
G01 X-1.9203 Y2.5150  
G01 X-1.9226 Y2.5094  
G01 X-1.9260 Y2.5043  
G00 Z0.1000  
G00 X-1.7740 Y2.2957  
G01 Z-0.0030 F10    
G01 X-1.7697 Y2.3000  F20    
G01 X-1.7646 Y2.3034  
G01 X-1.7590 Y2.3057  
G01 X-1.7530 Y2.3069  
G01 X-1.7470 Y2.3069  
G01 X-1.7410 Y2.3057  
G01 X-1.7354 Y2.3034  
G01 X-1.7303 Y2.3000  
G01 X-1.7260 Y2.2957  
G01 X-1.7226 Y2.2906  
G01 X-1.7203 Y2.2850  
G01 X-1.7191 Y2.2790  
G01 X-1.7191 Y2.2749  
G01 X-1.6809 Y2.2749  
G01 X-1.6809 Y2.2790  
G01 X-1.6797 Y2.2850  
G01 X-1.6774 Y2.2906  
G01 X-1.6740 Y2.2957  
G01 X-1.6697 Y2.3000  
G01 X-1.6646 Y2.3034  
G01 X-1.6590 Y2.3057  
G01 X-1.6530 Y2.3069  
G01 X-1.6470 Y2.3069  
G01 X-1.6410 Y2.3057  
G01 X-1.6354 Y2.3034  
G01 X-1.6303 Y2.3000  
G01 X-1.6260 Y2.2957  
G01 X-1.6226 Y2.2906  
G01 X-1.6203 Y2.2850  
G01 X-1.6191 Y2.2790  
G01 X-1.6191 Y2.2210  
G01 X-1.6203 Y2.2150  
G01 X-1.6226 Y2.2094  
G01 X-1.6260 Y2.2043  
G01 X-1.6303 Y2.2000  
G01 X-1.6354 Y2.1966  
G01 X-1.6410 Y2.1943  
G01 X-1.6470 Y2.1931  
G01 X-1.6530 Y2.1931  
G01 X-1.6590 Y2.1943  
G01 X-1.6646 Y2.1966  
G01 X-1.6697 Y2.2000  
G01 X-1.6740 Y2.2043  
G01 X-1.6774 Y2.2094  
G01 X-1.6797 Y2.2150  
G01 X-1.6809 Y2.2210  
G01 X-1.6809 Y2.2451  
G01 X-1.7191 Y2.2451  
G01 X-1.7191 Y2.2210  
G01 X-1.7203 Y2.2150  
G01 X-1.7226 Y2.2094  
G01 X-1.7260 Y2.2043  
G01 X-1.7303 Y2.2000  
G01 X-1.7354 Y2.1966  
G01 X-1.7410 Y2.1943  
G01 X-1.7470 Y2.1931  
G01 X-1.7530 Y2.1931  
G01 X-1.7590 Y2.1943  
G01 X-1.7630 Y2.1959  
G01 X-1.8509 Y2.1081  
G01 X-1.8542 Y2.1061  
G01 X-1.8580 Y2.1051  
G01 X-2.2338 Y2.1051  
G01 X-2.3251 Y2.0138  
G01 X-2.3251 Y1.8188  
G01 X-2.3191 Y1.8128  
G01 X-2.3191 Y1.7872  
G01 X-2.3372 Y1.7691  
G01 X-2.3628 Y1.7691  
G01 X-2.3809 Y1.7872  
G01 X-2.3809 Y1.8128  
G01 X-2.3628 Y1.8309  
G01 X-2.3549 Y1.8309  
G01 X-2.3549 Y2.0220  
G01 X-2.3539 Y2.0258  
G01 X-2.3519 Y2.0291  
G01 X-2.2519 Y2.1291  
G01 X-2.2491 Y2.1319  
G01 X-2.2458 Y2.1339  
G01 X-2.2420 Y2.1349  
G01 X-1.8662 Y2.1349  
G01 X-1.7808 Y2.2203  
G01 X-1.7809 Y2.2210  
G01 X-1.7809 Y2.2790  
G01 X-1.7797 Y2.2850  
G01 X-1.7774 Y2.2906  
G01 X-1.7740 Y2.2957  
G00 Z0.1000  
G00 X-1.5740 Y2.2957  
G01 Z-0.0030 F10    
G01 X-1.5697 Y2.3000  F20    
G01 X-1.5646 Y2.3034  
G01 X-1.5590 Y2.3057  
G01 X-1.5530 Y2.3069  
G01 X-1.5470 Y2.3069  
G01 X-1.5410 Y2.3057  
G01 X-1.5354 Y2.3034  
G01 X-1.5303 Y2.3000  
G01 X-1.5260 Y2.2957  
G01 X-1.5226 Y2.2906  
G01 X-1.5203 Y2.2850  
G01 X-1.5191 Y2.2790  
G01 X-1.5191 Y2.2210  
G01 X-1.5203 Y2.2150  
G01 X-1.5226 Y2.2094  
G01 X-1.5260 Y2.2043  
G01 X-1.5303 Y2.2000  
G01 X-1.5354 Y2.1966  
G01 X-1.5410 Y2.1943  
G01 X-1.5470 Y2.1931  
G01 X-1.5530 Y2.1931  
G01 X-1.5590 Y2.1943  
G01 X-1.5630 Y2.1959  
G01 X-1.7681 Y1.9909  
G01 X-1.7709 Y1.9881  
G01 X-1.7742 Y1.9861  
G01 X-1.7780 Y1.9851  
G01 X-1.8101 Y1.9851  
G01 X-1.8101 Y1.9835  
G01 X-1.8335 Y1.9601  
G01 X-1.8665 Y1.9601  
G01 X-1.8899 Y1.9835  
G01 X-1.8899 Y2.0165  
G01 X-1.8665 Y2.0399  
G01 X-1.8335 Y2.0399  
G01 X-1.8101 Y2.0165  
G01 X-1.8101 Y2.0149  
G01 X-1.7862 Y2.0149  
G01 X-1.5808 Y2.2203  
G01 X-1.5809 Y2.2210  
G01 X-1.5809 Y2.2790  
G01 X-1.5797 Y2.2850  
G01 X-1.5774 Y2.2906  
G01 X-1.5740 Y2.2957  
G00 Z0.1000  
G00 X-1.9335 Y1.9399  
G01 Z-0.0030 F10    
G01 X-1.9101 Y1.9165  F20    
G01 X-1.9101 Y1.8835  
G01 X-1.9335 Y1.8601  
G01 X-1.9451 Y1.8601  
G01 X-1.9451 Y1.6980  
G01 X-1.9461 Y1.6942  
G01 X-1.9481 Y1.6909  
G01 X-1.9677 Y1.6713  
G01 X-1.9621 Y1.6657  
G01 X-1.9621 Y1.6343  
G01 X-1.9843 Y1.6121  
G01 X-2.0068 Y1.6121  
G01 X-2.1709 Y1.4481  
G01 X-2.1742 Y1.4461  
G01 X-2.1780 Y1.4451  
G01 X-2.4191 Y1.4451  
G01 X-2.4191 Y1.4372  
G01 X-2.4372 Y1.4191  
G01 X-2.4628 Y1.4191  
G01 X-2.4809 Y1.4372  
G01 X-2.4809 Y1.4628  
G01 X-2.4628 Y1.4809  
G01 X-2.4372 Y1.4809  
G01 X-2.4312 Y1.4749  
G01 X-2.1862 Y1.4749  
G01 X-2.0323 Y1.6287  
G01 X-2.0379 Y1.6343  
G01 X-2.0379 Y1.6657  
G01 X-2.0157 Y1.6879  
G01 X-1.9932 Y1.6879  
G01 X-1.9749 Y1.7062  
G01 X-1.9749 Y1.8685  
G01 X-1.9899 Y1.8835  
G01 X-1.9899 Y1.9088  
G01 X-2.0662 Y1.9851  
G01 X-2.1968 Y1.9851  
G01 X-2.2000 Y1.9803  
G01 X-2.2043 Y1.9760  
G01 X-2.2094 Y1.9726  
G01 X-2.2150 Y1.9703  
G01 X-2.2210 Y1.9691  
G01 X-2.2790 Y1.9691  
G01 X-2.2850 Y1.9703  
G01 X-2.2906 Y1.9726  
G01 X-2.2957 Y1.9760  
G01 X-2.3000 Y1.9803  
G01 X-2.3034 Y1.9854  
G01 X-2.3057 Y1.9910  
G01 X-2.3069 Y1.9970  
G01 X-2.3069 Y2.0030  
G01 X-2.3057 Y2.0090  
G01 X-2.3034 Y2.0146  
G01 X-2.3000 Y2.0197  
G01 X-2.2957 Y2.0240  
G01 X-2.2906 Y2.0274  
G01 X-2.2850 Y2.0297  
G01 X-2.2790 Y2.0309  
G01 X-2.2210 Y2.0309  
G01 X-2.2150 Y2.0297  
G01 X-2.2094 Y2.0274  
G01 X-2.2043 Y2.0240  
G01 X-2.2000 Y2.0197  
G01 X-2.1968 Y2.0149  
G01 X-2.0580 Y2.0149  
G01 X-2.0542 Y2.0139  
G01 X-2.0509 Y2.0119  
G01 X-1.9727 Y1.9337  
G01 X-1.9665 Y1.9399  
G01 X-1.9335 Y1.9399  
G00 Z0.1000  
G00 X-2.5000 Y1.9803  
G01 Z-0.0030 F10    
G01 X-2.5043 Y1.9760  F20    
G01 X-2.5094 Y1.9726  
G01 X-2.5150 Y1.9703  
G01 X-2.5210 Y1.9691  
G01 X-2.5790 Y1.9691  
G01 X-2.5850 Y1.9703  
G01 X-2.5906 Y1.9726  
G01 X-2.5957 Y1.9760  
G01 X-2.6000 Y1.9803  
G01 X-2.6032 Y1.9851  
G01 X-2.7620 Y1.9851  
G01 X-2.7658 Y1.9861  
G01 X-2.7691 Y1.9881  
G01 X-2.8000 Y2.0189  
G01 X-2.9709 Y1.8481  
G01 X-2.9742 Y1.8461  
G01 X-2.9780 Y1.8451  
G01 X-3.0691 Y1.8451  
G01 X-3.0691 Y1.8372  
G01 X-3.0872 Y1.8191  
G01 X-3.1128 Y1.8191  
G01 X-3.1309 Y1.8372  
G01 X-3.1309 Y1.8628  
G01 X-3.1128 Y1.8809  
G01 X-3.0872 Y1.8809  
G01 X-3.0812 Y1.8749  
G01 X-2.9862 Y1.8749  
G01 X-2.8274 Y2.0337  
G01 X-2.8309 Y2.0372  
G01 X-2.8309 Y2.0628  
G01 X-2.8128 Y2.0809  
G01 X-2.7872 Y2.0809  
G01 X-2.7691 Y2.0628  
G01 X-2.7691 Y2.0372  
G01 X-2.7726 Y2.0337  
G01 X-2.7538 Y2.0149  
G01 X-2.6032 Y2.0149  
G01 X-2.6000 Y2.0197  
G01 X-2.5957 Y2.0240  
G01 X-2.5906 Y2.0274  
G01 X-2.5850 Y2.0297  
G01 X-2.5790 Y2.0309  
G01 X-2.5210 Y2.0309  
G01 X-2.5150 Y2.0297  
G01 X-2.5094 Y2.0274  
G01 X-2.5043 Y2.0240  
G01 X-2.5000 Y2.0197  
G01 X-2.4966 Y2.0146  
G01 X-2.4943 Y2.0090  
G01 X-2.4931 Y2.0030  
G01 X-2.4931 Y1.9970  
G01 X-2.4943 Y1.9910  
G01 X-2.4966 Y1.9854  
G01 X-2.5000 Y1.9803  
G00 Z0.1000  
G00 X-2.8191 Y2.1122  
G01 Z-0.0030 F10    
G01 X-2.8372 Y2.0941  F20    
G01 X-2.8628 Y2.0941  
G01 X-2.8738 Y2.1051  
G01 X-2.9738 Y2.1051  
G01 X-3.1851 Y1.8938  
G01 X-3.1851 Y1.8062  
G01 X-3.1338 Y1.7549  
G01 X-3.0580 Y1.7549  
G01 X-3.0542 Y1.7539  
G01 X-3.0509 Y1.7519  
G01 X-3.0481 Y1.7491  
G01 X-2.6738 Y1.3749  
G01 X-2.2188 Y1.3749  
G01 X-2.2128 Y1.3809  
G01 X-2.1872 Y1.3809  
G01 X-2.1691 Y1.3628  
G01 X-2.1691 Y1.3372  
G01 X-2.1872 Y1.3191  
G01 X-2.2128 Y1.3191  
G01 X-2.2309 Y1.3372  
G01 X-2.2309 Y1.3451  
G01 X-2.6820 Y1.3451  
G01 X-2.6858 Y1.3461  
G01 X-2.6891 Y1.3481  
G01 X-3.0662 Y1.7251  
G01 X-3.1420 Y1.7251  
G01 X-3.1458 Y1.7261  
G01 X-3.1491 Y1.7281  
G01 X-3.2091 Y1.7881  
G01 X-3.2119 Y1.7909  
G01 X-3.2139 Y1.7942  
G01 X-3.2149 Y1.7980  
G01 X-3.2149 Y1.9020  
G01 X-3.2139 Y1.9058  
G01 X-3.2119 Y1.9091  
G01 X-2.9919 Y2.1291  
G01 X-2.9891 Y2.1319  
G01 X-2.9858 Y2.1339  
G01 X-2.9820 Y2.1349  
G01 X-2.8809 Y2.1349  
G01 X-2.8809 Y2.1378  
G01 X-2.8628 Y2.1559  
G01 X-2.8372 Y2.1559  
G01 X-2.8191 Y2.1378  
G01 X-2.8191 Y2.1122  
G00 Z0.1000  
G00 X-2.1240 Y1.1197  
G01 Z-0.0030 F10    
G01 X-2.1197 Y1.1240  F20    
G01 X-2.1146 Y1.1274  
G01 X-2.1090 Y1.1297  
G01 X-2.1030 Y1.1309  
G01 X-2.0970 Y1.1309  
G01 X-2.0910 Y1.1297  
G01 X-2.0854 Y1.1274  
G01 X-2.0803 Y1.1240  
G01 X-2.0760 Y1.1197  
G01 X-2.0726 Y1.1146  
G01 X-2.0703 Y1.1090  
G01 X-2.0691 Y1.1030  
G01 X-2.0691 Y1.0970  
G01 X-2.0703 Y1.0910  
G01 X-2.0726 Y1.0854  
G01 X-2.0760 Y1.0803  
G01 X-2.0803 Y1.0760  
G01 X-2.0854 Y1.0726  
G01 X-2.0910 Y1.0703  
G01 X-2.0970 Y1.0691  
G01 X-2.1030 Y1.0691  
G01 X-2.1090 Y1.0703  
G01 X-2.1146 Y1.0726  
G01 X-2.1197 Y1.0760  
G01 X-2.1240 Y1.0803  
G01 X-2.1274 Y1.0854  
G01 X-2.1297 Y1.0910  
G01 X-2.1309 Y1.0970  
G01 X-2.1309 Y1.1030  
G01 X-2.1297 Y1.1090  
G01 X-2.1274 Y1.1146  
G01 X-2.1240 Y1.1197  
G00 Z0.1000  
G00 X-2.0240 Y1.1197  
G01 Z-0.0030 F10    
G01 X-2.0197 Y1.1240  F20    
G01 X-2.0146 Y1.1274  
G01 X-2.0090 Y1.1297  
G01 X-2.0030 Y1.1309  
G01 X-1.9970 Y1.1309  
G01 X-1.9910 Y1.1297  
G01 X-1.9854 Y1.1274  
G01 X-1.9803 Y1.1240  
G01 X-1.9760 Y1.1197  
G01 X-1.9726 Y1.1146  
G01 X-1.9703 Y1.1090  
G01 X-1.9691 Y1.1030  
G01 X-1.9691 Y1.0970  
G01 X-1.9703 Y1.0910  
G01 X-1.9726 Y1.0854  
G01 X-1.9760 Y1.0803  
G01 X-1.9803 Y1.0760  
G01 X-1.9854 Y1.0726  
G01 X-1.9910 Y1.0703  
G01 X-1.9970 Y1.0691  
G01 X-2.0030 Y1.0691  
G01 X-2.0090 Y1.0703  
G01 X-2.0146 Y1.0726  
G01 X-2.0197 Y1.0760  
G01 X-2.0240 Y1.0803  
G01 X-2.0274 Y1.0854  
G01 X-2.0297 Y1.0910  
G01 X-2.0309 Y1.0970  
G01 X-2.0309 Y1.1030  
G01 X-2.0297 Y1.1090  
G01 X-2.0274 Y1.1146  
G01 X-2.0240 Y1.1197  
G00 Z0.1000  
G00 X-1.9240 Y1.1197  
G01 Z-0.0030 F10    
G01 X-1.9197 Y1.1240  F20    
G01 X-1.9146 Y1.1274  
G01 X-1.9090 Y1.1297  
G01 X-1.9030 Y1.1309  
G01 X-1.8970 Y1.1309  
G01 X-1.8910 Y1.1297  
G01 X-1.8854 Y1.1274  
G01 X-1.8803 Y1.1240  
G01 X-1.8760 Y1.1197  
G01 X-1.8726 Y1.1146  
G01 X-1.8703 Y1.1090  
G01 X-1.8691 Y1.1030  
G01 X-1.8691 Y1.0970  
G01 X-1.8703 Y1.0910  
G01 X-1.8726 Y1.0854  
G01 X-1.8760 Y1.0803  
G01 X-1.8803 Y1.0760  
G01 X-1.8854 Y1.0726  
G01 X-1.8910 Y1.0703  
G01 X-1.8970 Y1.0691  
G01 X-1.9030 Y1.0691  
G01 X-1.9090 Y1.0703  
G01 X-1.9146 Y1.0726  
G01 X-1.9197 Y1.0760  
G01 X-1.9240 Y1.0803  
G01 X-1.9274 Y1.0854  
G01 X-1.9297 Y1.0910  
G01 X-1.9309 Y1.0970  
G01 X-1.9309 Y1.1030  
G01 X-1.9297 Y1.1090  
G01 X-1.9274 Y1.1146  
G01 X-1.9240 Y1.1197  
G00 Z0.1000  
G00 X-0.0441 Y0.3478  
G01 Z-0.0030 F10    
G01 X-0.2641 Y0.1278  F20    
G01 X-0.2678 Y0.1241  
G01 X-0.2723 Y0.1215  
G01 X-0.2774 Y0.1201  
G01 X-1.5226 Y0.1201  
G01 X-1.5277 Y0.1215  
G01 X-1.5322 Y0.1241  
G01 X-2.1722 Y0.7641  
G01 X-2.1759 Y0.7678  
G01 X-2.1785 Y0.7723  
G01 X-2.1799 Y0.7774  
G01 X-2.1799 Y0.8226  
G01 X-2.1785 Y0.8277  
G01 X-2.1759 Y0.8322  
G01 X-2.1359 Y0.8722  
G01 X-2.1322 Y0.8759  
G01 X-2.1277 Y0.8785  
G01 X-2.1226 Y0.8799  
G01 X-2.0574 Y0.8799  
G01 X-2.0523 Y0.8785  
G01 X-2.0478 Y0.8759  
G01 X-2.0071 Y0.8352  
G01 X-2.0035 Y0.8359  
G01 X-1.9965 Y0.8359  
G01 X-1.9895 Y0.8345  
G01 X-1.9830 Y0.8318  
G01 X-1.9771 Y0.8279  
G01 X-1.9721 Y0.8229  
G01 X-1.9682 Y0.8170  
G01 X-1.9655 Y0.8105  
G01 X-1.9641 Y0.8035  
G01 X-1.9641 Y0.7965  
G01 X-1.9648 Y0.7929  
G01 X-1.8118 Y0.6399  
G01 X-1.1882 Y0.6399  
G01 X-1.1429 Y0.6852  
G01 X-1.1429 Y0.7178  
G01 X-1.1178 Y0.7429  
G01 X-1.0822 Y0.7429  
G01 X-1.0571 Y0.7178  
G01 X-1.0571 Y0.6822  
G01 X-1.0822 Y0.6571  
G01 X-1.1148 Y0.6571  
G01 X-1.1678 Y0.6041  
G01 X-1.1723 Y0.6015  
G01 X-1.1774 Y0.6001  
G01 X-1.8226 Y0.6001  
G01 X-1.8277 Y0.6015  
G01 X-1.8322 Y0.6041  
G01 X-1.8359 Y0.6078  
G01 X-1.9929 Y0.7648  
G01 X-1.9965 Y0.7641  
G01 X-2.0035 Y0.7641  
G01 X-2.0105 Y0.7655  
G01 X-2.0170 Y0.7682  
G01 X-2.0229 Y0.7721  
G01 X-2.0279 Y0.7771  
G01 X-2.0318 Y0.7830  
G01 X-2.0345 Y0.7895  
G01 X-2.0359 Y0.7965  
G01 X-2.0359 Y0.8035  
G01 X-2.0352 Y0.8071  
G01 X-2.0682 Y0.8401  
G01 X-2.1118 Y0.8401  
G01 X-2.1401 Y0.8118  
G01 X-2.1401 Y0.7882  
G01 X-1.5118 Y0.1599  
G01 X-0.2882 Y0.1599  
G01 X-0.0799 Y0.3682  
G01 X-0.0799 Y1.1518  
G01 X-0.1482 Y1.2201  
G01 X-0.2226 Y1.2201  
G01 X-0.2277 Y1.2215  
G01 X-0.2322 Y1.2241  
G01 X-0.2359 Y1.2278  
G01 X-0.5759 Y1.5678  
G01 X-0.5785 Y1.5723  
G01 X-0.5799 Y1.5774  
G01 X-0.5799 Y1.6226  
G01 X-0.5785 Y1.6277  
G01 X-0.5759 Y1.6322  
G01 X-0.5722 Y1.6359  
G01 X-0.5199 Y1.6882  
G01 X-0.5199 Y1.7191  
G01 X-0.5359 Y1.7351  
G01 X-0.5359 Y1.7649  
G01 X-0.5149 Y1.7859  
G01 X-0.4851 Y1.7859  
G01 X-0.4641 Y1.7649  
G01 X-0.4641 Y1.7351  
G01 X-0.4801 Y1.7191  
G01 X-0.4801 Y1.6774  
G01 X-0.4815 Y1.6723  
G01 X-0.4841 Y1.6678  
G01 X-0.5401 Y1.6118  
G01 X-0.5401 Y1.5882  
G01 X-0.2118 Y1.2599  
G01 X-0.1374 Y1.2599  
G01 X-0.1323 Y1.2585  
G01 X-0.1278 Y1.2559  
G01 X-0.0478 Y1.1759  
G01 X-0.0441 Y1.1722  
G01 X-0.0415 Y1.1677  
G01 X-0.0401 Y1.1626  
G01 X-0.0401 Y0.3574  
G01 X-0.0415 Y0.3523  
G01 X-0.0441 Y0.3478  
G00 Z0.1000  
G00 X-0.1801 Y0.2774  
G01 Z-0.0030 F10    
G01 X-0.1815 Y0.2723  F20    
G01 X-0.1841 Y0.2678  
G01 X-0.2841 Y0.1678  
G01 X-0.2878 Y0.1641  
G01 X-0.2923 Y0.1615  
G01 X-0.2974 Y0.1601  
G01 X-0.6426 Y0.1601  
G01 X-0.6477 Y0.1615  
G01 X-0.6522 Y0.1641  
G01 X-0.7412 Y0.2531  
G01 X-0.7694 Y0.2531  
G01 X-0.7969 Y0.2806  
G01 X-0.7969 Y0.3194  
G01 X-0.7799 Y0.3364  
G01 X-0.7799 Y0.3636  
G01 X-0.7969 Y0.3806  
G01 X-0.7969 Y0.4194  
G01 X-0.7694 Y0.4469  
G01 X-0.7306 Y0.4469  
G01 X-0.7031 Y0.4194  
G01 X-0.7031 Y0.3806  
G01 X-0.7306 Y0.3531  
G01 X-0.7401 Y0.3531  
G01 X-0.7401 Y0.3469  
G01 X-0.7306 Y0.3469  
G01 X-0.7031 Y0.3194  
G01 X-0.7031 Y0.2806  
G01 X-0.7078 Y0.2759  
G01 X-0.6318 Y0.1999  
G01 X-0.3082 Y0.1999  
G01 X-0.2199 Y0.2882  
G01 X-0.2199 Y0.7318  
G01 X-0.2682 Y0.7801  
G01 X-0.5318 Y0.7801  
G01 X-0.6141 Y0.6978  
G01 X-0.6141 Y0.6851  
G01 X-0.6351 Y0.6641  
G01 X-0.6649 Y0.6641  
G01 X-0.6859 Y0.6851  
G01 X-0.6859 Y0.7149  
G01 X-0.6649 Y0.7359  
G01 X-0.6351 Y0.7359  
G01 X-0.6337 Y0.7345  
G01 X-0.5559 Y0.8122  
G01 X-0.5522 Y0.8159  
G01 X-0.5477 Y0.8185  
G01 X-0.5426 Y0.8199  
G01 X-0.2799 Y0.8199  
G01 X-0.2799 Y0.9026  
G01 X-0.2785 Y0.9077  
G01 X-0.2759 Y0.9122  
G01 X-0.1199 Y1.0682  
G01 X-0.1199 Y1.1318  
G01 X-0.1682 Y1.1801  
G01 X-0.2426 Y1.1801  
G01 X-0.2477 Y1.1815  
G01 X-0.2522 Y1.1841  
G01 X-0.6122 Y1.5441  
G01 X-0.6159 Y1.5478  
G01 X-0.6185 Y1.5523  
G01 X-0.6199 Y1.5574  
G01 X-0.6199 Y1.8626  
G01 X-0.6185 Y1.8677  
G01 X-0.6159 Y1.8722  
G01 X-0.0999 Y2.3882  
G01 X-0.0999 Y2.6918  
G01 X-0.2882 Y2.8801  
G01 X-0.8691 Y2.8801  
G01 X-0.8851 Y2.8641  
G01 X-0.9149 Y2.8641  
G01 X-0.9359 Y2.8851  
G01 X-0.9359 Y2.9078  
G01 X-0.9682 Y2.9401  
G01 X-1.0718 Y2.9401  
G01 X-1.1141 Y2.8978  
G01 X-1.1141 Y2.8851  
G01 X-1.1351 Y2.8641  
G01 X-1.1649 Y2.8641  
G01 X-1.1859 Y2.8851  
G01 X-1.1859 Y2.8978  
G01 X-1.2282 Y2.9401  
G01 X-1.3318 Y2.9401  
G01 X-1.3641 Y2.9078  
G01 X-1.3641 Y2.8851  
G01 X-1.3851 Y2.8641  
G01 X-1.4149 Y2.8641  
G01 X-1.4359 Y2.8851  
G01 X-1.4359 Y2.9078  
G01 X-1.4682 Y2.9401  
G01 X-1.5718 Y2.9401  
G01 X-1.6141 Y2.8978  
G01 X-1.6141 Y2.8851  
G01 X-1.6351 Y2.8641  
G01 X-1.6649 Y2.8641  
G01 X-1.6859 Y2.8851  
G01 X-1.6859 Y2.8978  
G01 X-1.7282 Y2.9401  
G01 X-1.8318 Y2.9401  
G01 X-1.8641 Y2.9078  
G01 X-1.8641 Y2.8851  
G01 X-1.8851 Y2.8641  
G01 X-1.9149 Y2.8641  
G01 X-1.9359 Y2.8851  
G01 X-1.9359 Y2.9078  
G01 X-1.9682 Y2.9401  
G01 X-2.0718 Y2.9401  
G01 X-2.1141 Y2.8978  
G01 X-2.1141 Y2.8851  
G01 X-2.1351 Y2.8641  
G01 X-2.1649 Y2.8641  
G01 X-2.1859 Y2.8851  
G01 X-2.1859 Y2.8978  
G01 X-2.2282 Y2.9401  
G01 X-2.3318 Y2.9401  
G01 X-2.3641 Y2.9078  
G01 X-2.3641 Y2.8851  
G01 X-2.3851 Y2.8641  
G01 X-2.4149 Y2.8641  
G01 X-2.4359 Y2.8851  
G01 X-2.4359 Y2.9078  
G01 X-2.4682 Y2.9401  
G01 X-2.5718 Y2.9401  
G01 X-2.6141 Y2.8978  
G01 X-2.6141 Y2.8851  
G01 X-2.6351 Y2.8641  
G01 X-2.6649 Y2.8641  
G01 X-2.6859 Y2.8851  
G01 X-2.6859 Y2.8978  
G01 X-2.7282 Y2.9401  
G01 X-2.7718 Y2.9401  
G01 X-2.8278 Y2.8841  
G01 X-2.8323 Y2.8815  
G01 X-2.8374 Y2.8801  
G01 X-2.8691 Y2.8801  
G01 X-2.8851 Y2.8641  
G01 X-2.9149 Y2.8641  
G01 X-2.9359 Y2.8851  
G01 X-2.9359 Y2.9078  
G01 X-2.9682 Y2.9401  
G01 X-3.0718 Y2.9401  
G01 X-3.1141 Y2.8978  
G01 X-3.1141 Y2.8851  
G01 X-3.1351 Y2.8641  
G01 X-3.1649 Y2.8641  
G01 X-3.1859 Y2.8851  
G01 X-3.1859 Y2.8978  
G01 X-3.2282 Y2.9401  
G01 X-3.2718 Y2.9401  
G01 X-3.3119 Y2.9000  
G01 X-2.8841 Y2.4722  
G01 X-2.8815 Y2.4677  
G01 X-2.8801 Y2.4626  
G01 X-2.8801 Y2.4199  
G01 X-2.1691 Y2.4199  
G01 X-2.1682 Y2.4232  
G01 X-2.1646 Y2.4319  
G01 X-2.1599 Y2.4400  
G01 X-2.1542 Y2.4475  
G01 X-2.1475 Y2.4542  
G01 X-2.1400 Y2.4599  
G01 X-2.1319 Y2.4646  
G01 X-2.1232 Y2.4682  
G01 X-2.1141 Y2.4707  
G01 X-2.1047 Y2.4719  
G01 X-2.0953 Y2.4719  
G01 X-2.0859 Y2.4707  
G01 X-2.0768 Y2.4682  
G01 X-2.0681 Y2.4646  
G01 X-2.0600 Y2.4599  
G01 X-2.0525 Y2.4542  
G01 X-2.0458 Y2.4475  
G01 X-2.0401 Y2.4400  
G01 X-2.0354 Y2.4319  
G01 X-2.0318 Y2.4232  
G01 X-2.0293 Y2.4141  
G01 X-2.0281 Y2.4047  
G01 X-2.0281 Y2.3953  
G01 X-2.0293 Y2.3859  
G01 X-2.0318 Y2.3768  
G01 X-2.0354 Y2.3681  
G01 X-2.0371 Y2.3652  
G01 X-1.9743 Y2.3025  
G01 X-1.9729 Y2.3039  
G01 X-1.9670 Y2.3078  
G01 X-1.9605 Y2.3105  
G01 X-1.9535 Y2.3119  
G01 X-1.9465 Y2.3119  
G01 X-1.9395 Y2.3105  
G01 X-1.9382 Y2.3100  
G01 X-1.8522 Y2.3959  
G01 X-1.8477 Y2.3985  
G01 X-1.8426 Y2.3999  
G01 X-1.4574 Y2.3999  
G01 X-1.4523 Y2.3985  
G01 X-1.4478 Y2.3959  
G01 X-1.4441 Y2.3922  
G01 X-1.3618 Y2.3100  
G01 X-1.3605 Y2.3105  
G01 X-1.3535 Y2.3119  
G01 X-1.3465 Y2.3119  
G01 X-1.3395 Y2.3105  
G01 X-1.3330 Y2.3078  
G01 X-1.3271 Y2.3039  
G01 X-1.3221 Y2.2989  
G01 X-1.3182 Y2.2930  
G01 X-1.3155 Y2.2865  
G01 X-1.3141 Y2.2795  
G01 X-1.3141 Y2.2205  
G01 X-1.3155 Y2.2135  
G01 X-1.3182 Y2.2070  
G01 X-1.3221 Y2.2011  
G01 X-1.3271 Y2.1961  
G01 X-1.3330 Y2.1922  
G01 X-1.3395 Y2.1895  
G01 X-1.3465 Y2.1881  
G01 X-1.3535 Y2.1881  
G01 X-1.3605 Y2.1895  
G01 X-1.3670 Y2.1922  
G01 X-1.3729 Y2.1961  
G01 X-1.3779 Y2.2011  
G01 X-1.3818 Y2.2070  
G01 X-1.3845 Y2.2135  
G01 X-1.3859 Y2.2205  
G01 X-1.3859 Y2.2778  
G01 X-1.4682 Y2.3601  
G01 X-1.8318 Y2.3601  
G01 X-1.9141 Y2.2778  
G01 X-1.9141 Y2.2205  
G01 X-1.9155 Y2.2135  
G01 X-1.9182 Y2.2070  
G01 X-1.9221 Y2.2011  
G01 X-1.9271 Y2.1961  
G01 X-1.9330 Y2.1922  
G01 X-1.9395 Y2.1895  
G01 X-1.9465 Y2.1881  
G01 X-1.9535 Y2.1881  
G01 X-1.9605 Y2.1895  
G01 X-1.9670 Y2.1922  
G01 X-1.9729 Y2.1961  
G01 X-1.9779 Y2.2011  
G01 X-1.9818 Y2.2070  
G01 X-1.9845 Y2.2135  
G01 X-1.9859 Y2.2205  
G01 X-1.9859 Y2.2578  
G01 X-2.0652 Y2.3371  
G01 X-2.0681 Y2.3354  
G01 X-2.0768 Y2.3318  
G01 X-2.0859 Y2.3293  
G01 X-2.0953 Y2.3281  
G01 X-2.1047 Y2.3281  
G01 X-2.1141 Y2.3293  
G01 X-2.1232 Y2.3318  
G01 X-2.1319 Y2.3354  
G01 X-2.1400 Y2.3401  
G01 X-2.1475 Y2.3458  
G01 X-2.1542 Y2.3525  
G01 X-2.1599 Y2.3600  
G01 X-2.1646 Y2.3681  
G01 X-2.1682 Y2.3768  
G01 X-2.1691 Y2.3801  
G01 X-2.8801 Y2.3801  
G01 X-2.8801 Y2.3574  
G01 X-2.8815 Y2.3523  
G01 X-2.8841 Y2.3478  
G01 X-2.8878 Y2.3441  
G01 X-3.3878 Y1.8441  
G01 X-3.3923 Y1.8415  
G01 X-3.3974 Y1.8401  
G01 X-3.4641 Y1.8401  
G01 X-3.4641 Y1.8351  
G01 X-3.4851 Y1.8141  
G01 X-3.5149 Y1.8141  
G01 X-3.5359 Y1.8351  
G01 X-3.5359 Y1.8649  
G01 X-3.5149 Y1.8859  
G01 X-3.4851 Y1.8859  
G01 X-3.4791 Y1.8799  
G01 X-3.4082 Y1.8799  
G01 X-2.9199 Y2.3682  
G01 X-2.9199 Y2.4518  
G01 X-3.3400 Y2.8719  
G01 X-3.5801 Y2.6318  
G01 X-3.5801 Y1.8082  
G01 X-3.0318 Y1.2599  
G01 X-1.9374 Y1.2599  
G01 X-1.9323 Y1.2585  
G01 X-1.9278 Y1.2559  
G01 X-1.9241 Y1.2522  
G01 X-1.8071 Y1.1352  
G01 X-1.8035 Y1.1359  
G01 X-1.7965 Y1.1359  
G01 X-1.7895 Y1.1345  
G01 X-1.7830 Y1.1318  
G01 X-1.7771 Y1.1279  
G01 X-1.7721 Y1.1229  
G01 X-1.7682 Y1.1170  
G01 X-1.7655 Y1.1105  
G01 X-1.7641 Y1.1035  
G01 X-1.7641 Y1.0965  
G01 X-1.7655 Y1.0895  
G01 X-1.7682 Y1.0830  
G01 X-1.7721 Y1.0771  
G01 X-1.7771 Y1.0721  
G01 X-1.7830 Y1.0682  
G01 X-1.7895 Y1.0655  
G01 X-1.7965 Y1.0641  
G01 X-1.8035 Y1.0641  
G01 X-1.8105 Y1.0655  
G01 X-1.8170 Y1.0682  
G01 X-1.8229 Y1.0721  
G01 X-1.8279 Y1.0771  
G01 X-1.8318 Y1.0830  
G01 X-1.8345 Y1.0895  
G01 X-1.8359 Y1.0965  
G01 X-1.8359 Y1.1035  
G01 X-1.8352 Y1.1071  
G01 X-1.9482 Y1.2201  
G01 X-3.0426 Y1.2201  
G01 X-3.0477 Y1.2215  
G01 X-3.0522 Y1.2241  
G01 X-3.6122 Y1.7841  
G01 X-3.6159 Y1.7878  
G01 X-3.6185 Y1.7923  
G01 X-3.6199 Y1.7974  
G01 X-3.6199 Y2.6426  
G01 X-3.6185 Y2.6477  
G01 X-3.6159 Y2.6522  
G01 X-3.3559 Y2.9122  
G01 X-3.3522 Y2.9159  
G01 X-3.2959 Y2.9722  
G01 X-3.2922 Y2.9759  
G01 X-3.2877 Y2.9785  
G01 X-3.2826 Y2.9799  
G01 X-3.2174 Y2.9799  
G01 X-3.2123 Y2.9785  
G01 X-3.2078 Y2.9759  
G01 X-3.1663 Y2.9345  
G01 X-3.1649 Y2.9359  
G01 X-3.1351 Y2.9359  
G01 X-3.1337 Y2.9345  
G01 X-3.0922 Y2.9759  
G01 X-3.0877 Y2.9785  
G01 X-3.0826 Y2.9799  
G01 X-2.9574 Y2.9799  
G01 X-2.9523 Y2.9785  
G01 X-2.9478 Y2.9759  
G01 X-2.9441 Y2.9722  
G01 X-2.9078 Y2.9359  
G01 X-2.8851 Y2.9359  
G01 X-2.8691 Y2.9199  
G01 X-2.8482 Y2.9199  
G01 X-2.7959 Y2.9722  
G01 X-2.7922 Y2.9759  
G01 X-2.7877 Y2.9785  
G01 X-2.7826 Y2.9799  
G01 X-2.7174 Y2.9799  
G01 X-2.7123 Y2.9785  
G01 X-2.7078 Y2.9759  
G01 X-2.6663 Y2.9345  
G01 X-2.6649 Y2.9359  
G01 X-2.6351 Y2.9359  
G01 X-2.6337 Y2.9345  
G01 X-2.5922 Y2.9759  
G01 X-2.5877 Y2.9785  
G01 X-2.5826 Y2.9799  
G01 X-2.4574 Y2.9799  
G01 X-2.4523 Y2.9785  
G01 X-2.4478 Y2.9759  
G01 X-2.4441 Y2.9722  
G01 X-2.4078 Y2.9359  
G01 X-2.3922 Y2.9359  
G01 X-2.3522 Y2.9759  
G01 X-2.3477 Y2.9785  
G01 X-2.3426 Y2.9799  
G01 X-2.2174 Y2.9799  
G01 X-2.2123 Y2.9785  
G01 X-2.2078 Y2.9759  
G01 X-2.2041 Y2.9722  
G01 X-2.1663 Y2.9345  
G01 X-2.1649 Y2.9359  
G01 X-2.1351 Y2.9359  
G01 X-2.1337 Y2.9345  
G01 X-2.0922 Y2.9759  
G01 X-2.0877 Y2.9785  
G01 X-2.0826 Y2.9799  
G01 X-1.9574 Y2.9799  
G01 X-1.9523 Y2.9785  
G01 X-1.9478 Y2.9759  
G01 X-1.9441 Y2.9722  
G01 X-1.9078 Y2.9359  
G01 X-1.8922 Y2.9359  
G01 X-1.8522 Y2.9759  
G01 X-1.8477 Y2.9785  
G01 X-1.8426 Y2.9799  
G01 X-1.7174 Y2.9799  
G01 X-1.7123 Y2.9785  
G01 X-1.7078 Y2.9759  
G01 X-1.7041 Y2.9722  
G01 X-1.6663 Y2.9345  
G01 X-1.6649 Y2.9359  
G01 X-1.6351 Y2.9359  
G01 X-1.6337 Y2.9345  
G01 X-1.5922 Y2.9759  
G01 X-1.5877 Y2.9785  
G01 X-1.5826 Y2.9799  
G01 X-1.4574 Y2.9799  
G01 X-1.4523 Y2.9785  
G01 X-1.4478 Y2.9759  
G01 X-1.4441 Y2.9722  
G01 X-1.4078 Y2.9359  
G01 X-1.3922 Y2.9359  
G01 X-1.3522 Y2.9759  
G01 X-1.3477 Y2.9785  
G01 X-1.3426 Y2.9799  
G01 X-1.2174 Y2.9799  
G01 X-1.2123 Y2.9785  
G01 X-1.2078 Y2.9759  
G01 X-1.2041 Y2.9722  
G01 X-1.1663 Y2.9345  
G01 X-1.1649 Y2.9359  
G01 X-1.1351 Y2.9359  
G01 X-1.1337 Y2.9345  
G01 X-1.0922 Y2.9759  
G01 X-1.0877 Y2.9785  
G01 X-1.0826 Y2.9799  
G01 X-0.9574 Y2.9799  
G01 X-0.9523 Y2.9785  
G01 X-0.9478 Y2.9759  
G01 X-0.9441 Y2.9722  
G01 X-0.9078 Y2.9359  
G01 X-0.8851 Y2.9359  
G01 X-0.8691 Y2.9199  
G01 X-0.2774 Y2.9199  
G01 X-0.2723 Y2.9185  
G01 X-0.2678 Y2.9159  
G01 X-0.2641 Y2.9122  
G01 X-0.0641 Y2.7122  
G01 X-0.0615 Y2.7077  
G01 X-0.0601 Y2.7026  
G01 X-0.0601 Y2.3774  
G01 X-0.0615 Y2.3723  
G01 X-0.0641 Y2.3678  
G01 X-0.0678 Y2.3641  
G01 X-0.5801 Y1.8518  
G01 X-0.5801 Y1.5682  
G01 X-0.2318 Y1.2199  
G01 X-0.1574 Y1.2199  
G01 X-0.1523 Y1.2185  
G01 X-0.1478 Y1.2159  
G01 X-0.1441 Y1.2122  
G01 X-0.0841 Y1.1522  
G01 X-0.0815 Y1.1477  
G01 X-0.0801 Y1.1426  
G01 X-0.0801 Y1.0574  
G01 X-0.0815 Y1.0523  
G01 X-0.0841 Y1.0478  
G01 X-0.0878 Y1.0441  
G01 X-0.2401 Y0.8918  
G01 X-0.2401 Y0.8082  
G01 X-0.1841 Y0.7522  
G01 X-0.1815 Y0.7477  
G01 X-0.1801 Y0.7426  
G01 X-0.1801 Y0.2774  
G00 Z0.1000  
G00 X-0.2241 Y0.2878  
G01 Z-0.0030 F10    
G01 X-0.2278 Y0.2841  F20    
G01 X-0.3078 Y0.2041  
G01 X-0.3123 Y0.2015  
G01 X-0.3174 Y0.2001  
G01 X-0.3826 Y0.2001  
G01 X-0.3877 Y0.2015  
G01 X-0.3922 Y0.2041  
G01 X-0.3959 Y0.2078  
G01 X-0.4412 Y0.2531  
G01 X-0.4694 Y0.2531  
G01 X-0.4964 Y0.2801  
G01 X-0.5036 Y0.2801  
G01 X-0.5306 Y0.2531  
G01 X-0.5694 Y0.2531  
G01 X-0.5964 Y0.2801  
G01 X-0.6036 Y0.2801  
G01 X-0.6306 Y0.2531  
G01 X-0.6694 Y0.2531  
G01 X-0.6969 Y0.2806  
G01 X-0.6969 Y0.3194  
G01 X-0.6799 Y0.3364  
G01 X-0.6799 Y0.3636  
G01 X-0.6969 Y0.3806  
G01 X-0.6969 Y0.4194  
G01 X-0.6694 Y0.4469  
G01 X-0.6306 Y0.4469  
G01 X-0.6036 Y0.4199  
G01 X-0.5964 Y0.4199  
G01 X-0.5694 Y0.4469  
G01 X-0.5306 Y0.4469  
G01 X-0.5036 Y0.4199  
G01 X-0.4964 Y0.4199  
G01 X-0.4694 Y0.4469  
G01 X-0.4306 Y0.4469  
G01 X-0.4031 Y0.4194  
G01 X-0.4031 Y0.3806  
G01 X-0.4306 Y0.3531  
G01 X-0.4694 Y0.3531  
G01 X-0.4964 Y0.3801  
G01 X-0.5036 Y0.3801  
G01 X-0.5306 Y0.3531  
G01 X-0.5694 Y0.3531  
G01 X-0.5964 Y0.3801  
G01 X-0.6036 Y0.3801  
G01 X-0.6306 Y0.3531  
G01 X-0.6401 Y0.3531  
G01 X-0.6401 Y0.3469  
G01 X-0.6306 Y0.3469  
G01 X-0.6036 Y0.3199  
G01 X-0.5964 Y0.3199  
G01 X-0.5694 Y0.3469  
G01 X-0.5306 Y0.3469  
G01 X-0.5036 Y0.3199  
G01 X-0.4964 Y0.3199  
G01 X-0.4694 Y0.3469  
G01 X-0.4306 Y0.3469  
G01 X-0.4031 Y0.3194  
G01 X-0.4031 Y0.2806  
G01 X-0.4078 Y0.2759  
G01 X-0.3718 Y0.2399  
G01 X-0.3282 Y0.2399  
G01 X-0.2599 Y0.3082  
G01 X-0.2599 Y0.7118  
G01 X-0.2882 Y0.7401  
G01 X-0.3318 Y0.7401  
G01 X-0.3641 Y0.7078  
G01 X-0.3641 Y0.6851  
G01 X-0.3851 Y0.6641  
G01 X-0.4149 Y0.6641  
G01 X-0.4309 Y0.6801  
G01 X-0.5191 Y0.6801  
G01 X-0.5351 Y0.6641  
G01 X-0.5649 Y0.6641  
G01 X-0.5663 Y0.6655  
G01 X-0.6078 Y0.6241  
G01 X-0.6123 Y0.6215  
G01 X-0.6174 Y0.6201  
G01 X-0.6826 Y0.6201  
G01 X-0.6877 Y0.6215  
G01 X-0.6922 Y0.6241  
G01 X-0.6959 Y0.6278  
G01 X-0.8282 Y0.7601  
G01 X-1.1118 Y0.7601  
G01 X-1.1878 Y0.6841  
G01 X-1.1923 Y0.6815  
G01 X-1.1974 Y0.6801  
G01 X-1.3592 Y0.6801  
G01 X-1.3822 Y0.6571  
G01 X-1.4178 Y0.6571  
G01 X-1.4429 Y0.6822  
G01 X-1.4429 Y0.7178  
G01 X-1.4178 Y0.7429  
G01 X-1.3822 Y0.7429  
G01 X-1.3592 Y0.7199  
G01 X-1.2082 Y0.7199  
G01 X-1.1359 Y0.7922  
G01 X-1.1322 Y0.7959  
G01 X-1.1277 Y0.7985  
G01 X-1.1226 Y0.7999  
G01 X-1.0199 Y0.7999  
G01 X-1.0199 Y1.5918  
G01 X-1.0422 Y1.6141  
G01 X-1.0649 Y1.6141  
G01 X-1.0859 Y1.6351  
G01 X-1.0859 Y1.6649  
G01 X-1.0799 Y1.6709  
G01 X-1.0799 Y2.0318  
G01 X-1.1322 Y2.0841  
G01 X-1.1359 Y2.0878  
G01 X-1.2382 Y2.1900  
G01 X-1.2395 Y2.1895  
G01 X-1.2431 Y2.1888  
G01 X-1.2878 Y2.1441  
G01 X-1.2923 Y2.1415  
G01 X-1.2974 Y2.1401  
G01 X-1.3826 Y2.1401  
G01 X-1.3877 Y2.1415  
G01 X-1.3922 Y2.1441  
G01 X-1.3959 Y2.1478  
G01 X-1.4282 Y2.1801  
G01 X-1.4318 Y2.1801  
G01 X-1.7051 Y1.9068  
G01 X-1.7051 Y1.8814  
G01 X-1.7201 Y1.8664  
G01 X-1.7201 Y1.7082  
G01 X-1.7048 Y1.6929  
G01 X-1.6822 Y1.6929  
G01 X-1.6571 Y1.6678  
G01 X-1.6571 Y1.6322  
G01 X-1.6822 Y1.6071  
G01 X-1.7048 Y1.6071  
G01 X-2.0478 Y1.2641  
G01 X-2.0523 Y1.2615  
G01 X-2.0574 Y1.2601  
G01 X-2.6826 Y1.2601  
G01 X-2.6877 Y1.2615  
G01 X-2.6922 Y1.2641  
G01 X-2.8422 Y1.4141  
G01 X-2.8649 Y1.4141  
G01 X-2.8859 Y1.4351  
G01 X-2.8859 Y1.4401  
G01 X-3.2026 Y1.4401  
G01 X-3.2077 Y1.4415  
G01 X-3.2122 Y1.4441  
G01 X-3.2159 Y1.4478  
G01 X-3.5759 Y1.8078  
G01 X-3.5785 Y1.8123  
G01 X-3.5799 Y1.8174  
G01 X-3.5799 Y1.8826  
G01 X-3.5785 Y1.8877  
G01 X-3.5759 Y1.8922  
G01 X-3.5722 Y1.8959  
G01 X-3.0719 Y2.3962  
G01 X-3.0719 Y2.4298  
G01 X-3.0298 Y2.4719  
G01 X-2.9702 Y2.4719  
G01 X-2.9281 Y2.4298  
G01 X-2.9281 Y2.3702  
G01 X-2.9702 Y2.3281  
G01 X-3.0298 Y2.3281  
G01 X-3.0568 Y2.3551  
G01 X-3.5401 Y1.8718  
G01 X-3.5401 Y1.8282  
G01 X-3.1918 Y1.4799  
G01 X-2.8709 Y1.4799  
G01 X-2.8649 Y1.4859  
G01 X-2.8351 Y1.4859  
G01 X-2.8141 Y1.4649  
G01 X-2.8141 Y1.4422  
G01 X-2.6718 Y1.2999  
G01 X-2.0682 Y1.2999  
G01 X-1.7394 Y1.6287  
G01 X-1.7429 Y1.6322  
G01 X-1.7429 Y1.6678  
G01 X-1.7394 Y1.6713  
G01 X-1.7559 Y1.6878  
G01 X-1.7585 Y1.6923  
G01 X-1.7599 Y1.6974  
G01 X-1.7599 Y1.8551  
G01 X-1.7686 Y1.8551  
G01 X-1.7949 Y1.8814  
G01 X-1.7949 Y1.9186  
G01 X-1.7686 Y1.9449  
G01 X-1.7314 Y1.9449  
G01 X-1.7273 Y1.9408  
G01 X-1.4724 Y2.1958  
G01 X-1.4729 Y2.1961  
G01 X-1.4779 Y2.2011  
G01 X-1.4818 Y2.2070  
G01 X-1.4845 Y2.2135  
G01 X-1.4859 Y2.2205  
G01 X-1.4859 Y2.2778  
G01 X-1.5282 Y2.3201  
G01 X-1.7718 Y2.3201  
G01 X-1.8141 Y2.2778  
G01 X-1.8141 Y2.2205  
G01 X-1.8155 Y2.2135  
G01 X-1.8182 Y2.2070  
G01 X-1.8221 Y2.2011  
G01 X-1.8271 Y2.1961  
G01 X-1.8330 Y2.1922  
G01 X-1.8395 Y2.1895  
G01 X-1.8465 Y2.1881  
G01 X-1.8535 Y2.1881  
G01 X-1.8605 Y2.1895  
G01 X-1.8618 Y2.1900  
G01 X-1.9078 Y2.1441  
G01 X-1.9123 Y2.1415  
G01 X-1.9174 Y2.1401  
G01 X-2.2518 Y2.1401  
G01 X-2.6078 Y1.7841  
G01 X-2.6123 Y1.7815  
G01 X-2.6174 Y1.7801  
G01 X-2.7191 Y1.7801  
G01 X-2.7351 Y1.7641  
G01 X-2.7649 Y1.7641  
G01 X-2.7809 Y1.7801  
G01 X-3.0518 Y1.7801  
G01 X-3.0641 Y1.7678  
G01 X-3.0678 Y1.7641  
G01 X-3.0723 Y1.7615  
G01 X-3.0774 Y1.7601  
G01 X-3.1226 Y1.7601  
G01 X-3.1277 Y1.7615  
G01 X-3.1322 Y1.7641  
G01 X-3.1722 Y1.8041  
G01 X-3.1759 Y1.8078  
G01 X-3.1785 Y1.8123  
G01 X-3.1799 Y1.8174  
G01 X-3.1799 Y1.8826  
G01 X-3.1785 Y1.8877  
G01 X-3.1759 Y1.8922  
G01 X-3.0159 Y2.0522  
G01 X-3.0122 Y2.0559  
G01 X-3.0077 Y2.0585  
G01 X-3.0026 Y2.0599  
G01 X-2.9359 Y2.0599  
G01 X-2.9359 Y2.0649  
G01 X-2.9149 Y2.0859  
G01 X-2.8851 Y2.0859  
G01 X-2.8641 Y2.0649  
G01 X-2.8641 Y2.0351  
G01 X-2.8851 Y2.0141  
G01 X-2.9149 Y2.0141  
G01 X-2.9209 Y2.0201  
G01 X-2.9918 Y2.0201  
G01 X-3.1401 Y1.8718  
G01 X-3.1401 Y1.8282  
G01 X-3.1118 Y1.7999  
G01 X-3.0882 Y1.7999  
G01 X-3.0722 Y1.8159  
G01 X-3.0677 Y1.8185  
G01 X-3.0626 Y1.8199  
G01 X-2.7809 Y1.8199  
G01 X-2.7649 Y1.8359  
G01 X-2.7351 Y1.8359  
G01 X-2.7191 Y1.8199  
G01 X-2.6282 Y1.8199  
G01 X-2.2759 Y2.1722  
G01 X-2.2722 Y2.1759  
G01 X-2.2677 Y2.1785  
G01 X-2.2626 Y2.1799  
G01 X-1.9282 Y2.1799  
G01 X-1.8859 Y2.2222  
G01 X-1.8859 Y2.2795  
G01 X-1.8845 Y2.2865  
G01 X-1.8818 Y2.2930  
G01 X-1.8779 Y2.2989  
G01 X-1.8729 Y2.3039  
G01 X-1.8670 Y2.3078  
G01 X-1.8605 Y2.3105  
G01 X-1.8535 Y2.3119  
G01 X-1.8465 Y2.3119  
G01 X-1.8395 Y2.3105  
G01 X-1.8382 Y2.3100  
G01 X-1.7959 Y2.3522  
G01 X-1.7922 Y2.3559  
G01 X-1.7877 Y2.3585  
G01 X-1.7826 Y2.3599  
G01 X-1.5174 Y2.3599  
G01 X-1.5123 Y2.3585  
G01 X-1.5078 Y2.3559  
G01 X-1.4618 Y2.3100  
G01 X-1.4605 Y2.3105  
G01 X-1.4535 Y2.3119  
G01 X-1.4465 Y2.3119  
G01 X-1.4395 Y2.3105  
G01 X-1.4330 Y2.3078  
G01 X-1.4271 Y2.3039  
G01 X-1.4221 Y2.2989  
G01 X-1.4182 Y2.2930  
G01 X-1.4155 Y2.2865  
G01 X-1.4141 Y2.2795  
G01 X-1.4141 Y2.2222  
G01 X-1.4041 Y2.2122  
G01 X-1.3718 Y2.1799  
G01 X-1.3082 Y2.1799  
G01 X-1.2815 Y2.2066  
G01 X-1.2818 Y2.2070  
G01 X-1.2845 Y2.2135  
G01 X-1.2859 Y2.2205  
G01 X-1.2859 Y2.2795  
G01 X-1.2845 Y2.2865  
G01 X-1.2818 Y2.2930  
G01 X-1.2779 Y2.2989  
G01 X-1.2729 Y2.3039  
G01 X-1.2670 Y2.3078  
G01 X-1.2605 Y2.3105  
G01 X-1.2535 Y2.3119  
G01 X-1.2465 Y2.3119  
G01 X-1.2395 Y2.3105  
G01 X-1.2330 Y2.3078  
G01 X-1.2271 Y2.3039  
G01 X-1.2221 Y2.2989  
G01 X-1.2182 Y2.2930  
G01 X-1.2155 Y2.2865  
G01 X-1.2141 Y2.2795  
G01 X-1.2141 Y2.2222  
G01 X-1.1118 Y2.1199  
G01 X-1.1082 Y2.1199  
G01 X-0.5015 Y2.7267  
G01 X-0.5029 Y2.7281  
G01 X-0.5029 Y2.7719  
G01 X-0.4719 Y2.8029  
G01 X-0.4281 Y2.8029  
G01 X-0.4000 Y2.7748  
G01 X-0.3719 Y2.8029  
G01 X-0.3281 Y2.8029  
G01 X-0.3000 Y2.7748  
G01 X-0.2719 Y2.8029  
G01 X-0.2281 Y2.8029  
G01 X-0.1971 Y2.7719  
G01 X-0.1971 Y2.7281  
G01 X-0.1985 Y2.7267  
G01 X-0.1441 Y2.6722  
G01 X-0.1415 Y2.6677  
G01 X-0.1401 Y2.6626  
G01 X-0.1401 Y2.4359  
G01 X-0.1351 Y2.4359  
G01 X-0.1141 Y2.4149  
G01 X-0.1141 Y2.3851  
G01 X-0.1351 Y2.3641  
G01 X-0.1649 Y2.3641  
G01 X-0.1859 Y2.3851  
G01 X-0.1859 Y2.4149  
G01 X-0.1799 Y2.4209  
G01 X-0.1799 Y2.6518  
G01 X-0.2267 Y2.6985  
G01 X-0.2281 Y2.6971  
G01 X-0.2719 Y2.6971  
G01 X-0.3000 Y2.7252  
G01 X-0.3281 Y2.6971  
G01 X-0.3548 Y2.6971  
G01 X-0.8801 Y2.1718  
G01 X-0.8801 Y1.7809  
G01 X-0.8641 Y1.7649  
G01 X-0.8641 Y1.7351  
G01 X-0.8851 Y1.7141  
G01 X-0.9149 Y1.7141  
G01 X-0.9359 Y1.7351  
G01 X-0.9359 Y1.7649  
G01 X-0.9199 Y1.7809  
G01 X-0.9199 Y2.1826  
G01 X-0.9185 Y2.1877  
G01 X-0.9159 Y2.1922  
G01 X-0.3915 Y2.7167  
G01 X-0.4000 Y2.7252  
G01 X-0.4281 Y2.6971  
G01 X-0.4719 Y2.6971  
G01 X-0.4733 Y2.6985  
G01 X-1.0819 Y2.0900  
G01 X-1.0441 Y2.0522  
G01 X-1.0415 Y2.0477  
G01 X-1.0401 Y2.0426  
G01 X-1.0401 Y1.6859  
G01 X-1.0351 Y1.6859  
G01 X-1.0141 Y1.6649  
G01 X-1.0141 Y1.6422  
G01 X-0.9878 Y1.6159  
G01 X-0.9841 Y1.6122  
G01 X-0.9815 Y1.6077  
G01 X-0.9801 Y1.6026  
G01 X-0.9801 Y0.7999  
G01 X-0.8174 Y0.7999  
G01 X-0.8123 Y0.7985  
G01 X-0.8078 Y0.7959  
G01 X-0.6718 Y0.6599  
G01 X-0.6282 Y0.6599  
G01 X-0.5859 Y0.7022  
G01 X-0.5859 Y0.7149  
G01 X-0.5649 Y0.7359  
G01 X-0.5351 Y0.7359  
G01 X-0.5191 Y0.7199  
G01 X-0.4309 Y0.7199  
G01 X-0.4149 Y0.7359  
G01 X-0.3922 Y0.7359  
G01 X-0.3522 Y0.7759  
G01 X-0.3477 Y0.7785  
G01 X-0.3426 Y0.7799  
G01 X-0.2774 Y0.7799  
G01 X-0.2723 Y0.7785  
G01 X-0.2678 Y0.7759  
G01 X-0.2641 Y0.7722  
G01 X-0.2241 Y0.7322  
G01 X-0.2215 Y0.7277  
G01 X-0.2201 Y0.7226  
G01 X-0.2201 Y0.2974  
G01 X-0.2215 Y0.2923  
G01 X-0.2241 Y0.2878  
G00 Z0.1000  
G00 X-0.3031 Y0.2806  
G01 Z-0.0030 F10    
G01 X-0.3306 Y0.2531  F20    
G01 X-0.3694 Y0.2531  
G01 X-0.3969 Y0.2806  
G01 X-0.3969 Y0.3194  
G01 X-0.3799 Y0.3364  
G01 X-0.3799 Y0.3636  
G01 X-0.3969 Y0.3806  
G01 X-0.3969 Y0.4194  
G01 X-0.3694 Y0.4469  
G01 X-0.3306 Y0.4469  
G01 X-0.3259 Y0.4422  
G01 X-0.3199 Y0.4482  
G01 X-0.3199 Y0.5601  
G01 X-1.8826 Y0.5601  
G01 X-1.8877 Y0.5615  
G01 X-1.8922 Y0.5641  
G01 X-1.8959 Y0.5678  
G01 X-2.0929 Y0.7648  
G01 X-2.0965 Y0.7641  
G01 X-2.1035 Y0.7641  
G01 X-2.1105 Y0.7655  
G01 X-2.1170 Y0.7682  
G01 X-2.1229 Y0.7721  
G01 X-2.1279 Y0.7771  
G01 X-2.1318 Y0.7830  
G01 X-2.1345 Y0.7895  
G01 X-2.1359 Y0.7965  
G01 X-2.1359 Y0.8035  
G01 X-2.1345 Y0.8105  
G01 X-2.1318 Y0.8170  
G01 X-2.1279 Y0.8229  
G01 X-2.1229 Y0.8279  
G01 X-2.1170 Y0.8318  
G01 X-2.1105 Y0.8345  
G01 X-2.1035 Y0.8359  
G01 X-2.0965 Y0.8359  
G01 X-2.0895 Y0.8345  
G01 X-2.0830 Y0.8318  
G01 X-2.0771 Y0.8279  
G01 X-2.0721 Y0.8229  
G01 X-2.0682 Y0.8170  
G01 X-2.0655 Y0.8105  
G01 X-2.0641 Y0.8035  
G01 X-2.0641 Y0.7965  
G01 X-2.0648 Y0.7929  
G01 X-1.8718 Y0.5999  
G01 X-0.3199 Y0.5999  
G01 X-0.3199 Y0.6691  
G01 X-0.3359 Y0.6851  
G01 X-0.3359 Y0.7149  
G01 X-0.3149 Y0.7359  
G01 X-0.2851 Y0.7359  
G01 X-0.2641 Y0.7149  
G01 X-0.2641 Y0.6851  
G01 X-0.2801 Y0.6691  
G01 X-0.2801 Y0.4374  
G01 X-0.2815 Y0.4323  
G01 X-0.2841 Y0.4278  
G01 X-0.3031 Y0.4088  
G01 X-0.3031 Y0.3806  
G01 X-0.3306 Y0.3531  
G01 X-0.3401 Y0.3531  
G01 X-0.3401 Y0.3469  
G01 X-0.3306 Y0.3469  
G01 X-0.3031 Y0.3194  
G01 X-0.3031 Y0.2806  
G00 Z0.1000  
G00 X-0.8031 Y0.2806  
G01 Z-0.0030 F10    
G01 X-0.8306 Y0.2531  F20    
G01 X-0.8694 Y0.2531  
G01 X-0.8969 Y0.2806  
G01 X-0.8969 Y0.3194  
G01 X-0.8694 Y0.3469  
G01 X-0.8306 Y0.3469  
G01 X-0.8031 Y0.3194  
G01 X-0.8031 Y0.2806  
G00 Z0.1000  
G00 X-0.9031 Y0.2806  
G01 Z-0.0030 F10    
G01 X-0.9306 Y0.2531  F20    
G01 X-0.9694 Y0.2531  
G01 X-0.9969 Y0.2806  
G01 X-0.9969 Y0.3194  
G01 X-0.9694 Y0.3469  
G01 X-0.9306 Y0.3469  
G01 X-0.9031 Y0.3194  
G01 X-0.9031 Y0.2806  
G00 Z0.1000  
G00 X-1.0031 Y0.2806  
G01 Z-0.0030 F10    
G01 X-1.0306 Y0.2531  F20    
G01 X-1.0694 Y0.2531  
G01 X-1.0969 Y0.2806  
G01 X-1.0969 Y0.3194  
G01 X-1.0694 Y0.3469  
G01 X-1.0306 Y0.3469  
G01 X-1.0031 Y0.3194  
G01 X-1.0031 Y0.2806  
G00 Z0.1000  
G00 X-1.0031 Y0.3806  
G01 Z-0.0030 F10    
G01 X-1.0306 Y0.3531  F20    
G01 X-1.0694 Y0.3531  
G01 X-1.0969 Y0.3806  
G01 X-1.0969 Y0.4194  
G01 X-1.0694 Y0.4469  
G01 X-1.0306 Y0.4469  
G01 X-1.0031 Y0.4194  
G01 X-1.0031 Y0.3806  
G00 Z0.1000  
G00 X-0.9969 Y0.3806  
G01 Z-0.0030 F10    
G01 X-0.9969 Y0.4194  F20    
G01 X-0.9694 Y0.4469  
G01 X-0.9306 Y0.4469  
G01 X-0.9031 Y0.4194  
G01 X-0.9031 Y0.3806  
G01 X-0.9306 Y0.3531  
G01 X-0.9694 Y0.3531  
G01 X-0.9969 Y0.3806  
G00 Z0.1000  
G00 X-0.8969 Y0.3806  
G01 Z-0.0030 F10    
G01 X-0.8969 Y0.4194  F20    
G01 X-0.8694 Y0.4469  
G01 X-0.8306 Y0.4469  
G01 X-0.8031 Y0.4194  
G01 X-0.8031 Y0.3806  
G01 X-0.8306 Y0.3531  
G01 X-0.8694 Y0.3531  
G01 X-0.8969 Y0.3806  
G00 Z0.1000  
G00 X-1.0458 Y1.0525  
G01 Z-0.0030 F10    
G01 X-1.0525 Y1.0458  F20    
G01 X-1.0600 Y1.0401  
G01 X-1.0681 Y1.0354  
G01 X-1.0768 Y1.0318  
G01 X-1.0859 Y1.0293  
G01 X-1.0953 Y1.0281  
G01 X-1.1047 Y1.0281  
G01 X-1.1141 Y1.0293  
G01 X-1.1232 Y1.0318  
G01 X-1.1319 Y1.0354  
G01 X-1.1400 Y1.0401  
G01 X-1.1475 Y1.0458  
G01 X-1.1542 Y1.0525  
G01 X-1.1599 Y1.0600  
G01 X-1.1646 Y1.0681  
G01 X-1.1682 Y1.0768  
G01 X-1.1691 Y1.0801  
G01 X-1.7201 Y1.0801  
G01 X-1.7201 Y1.0774  
G01 X-1.7215 Y1.0723  
G01 X-1.7241 Y1.0678  
G01 X-1.7278 Y1.0641  
G01 X-1.7801 Y1.0118  
G01 X-1.7801 Y0.8299  
G01 X-1.7771 Y0.8279  
G01 X-1.7721 Y0.8229  
G01 X-1.7682 Y0.8170  
G01 X-1.7655 Y0.8105  
G01 X-1.7641 Y0.8035  
G01 X-1.7641 Y0.7965  
G01 X-1.7655 Y0.7895  
G01 X-1.7682 Y0.7830  
G01 X-1.7721 Y0.7771  
G01 X-1.7771 Y0.7721  
G01 X-1.7830 Y0.7682  
G01 X-1.7895 Y0.7655  
G01 X-1.7965 Y0.7641  
G01 X-1.8035 Y0.7641  
G01 X-1.8105 Y0.7655  
G01 X-1.8170 Y0.7682  
G01 X-1.8229 Y0.7721  
G01 X-1.8279 Y0.7771  
G01 X-1.8299 Y0.7801  
G01 X-1.8701 Y0.7801  
G01 X-1.8721 Y0.7771  
G01 X-1.8771 Y0.7721  
G01 X-1.8830 Y0.7682  
G01 X-1.8895 Y0.7655  
G01 X-1.8965 Y0.7641  
G01 X-1.9035 Y0.7641  
G01 X-1.9105 Y0.7655  
G01 X-1.9170 Y0.7682  
G01 X-1.9229 Y0.7721  
G01 X-1.9279 Y0.7771  
G01 X-1.9318 Y0.7830  
G01 X-1.9345 Y0.7895  
G01 X-1.9359 Y0.7965  
G01 X-1.9359 Y0.8035  
G01 X-1.9345 Y0.8105  
G01 X-1.9318 Y0.8170  
G01 X-1.9279 Y0.8229  
G01 X-1.9229 Y0.8279  
G01 X-1.9170 Y0.8318  
G01 X-1.9105 Y0.8345  
G01 X-1.9035 Y0.8359  
G01 X-1.8965 Y0.8359  
G01 X-1.8895 Y0.8345  
G01 X-1.8830 Y0.8318  
G01 X-1.8771 Y0.8279  
G01 X-1.8721 Y0.8229  
G01 X-1.8701 Y0.8199  
G01 X-1.8299 Y0.8199  
G01 X-1.8279 Y0.8229  
G01 X-1.8229 Y0.8279  
G01 X-1.8199 Y0.8299  
G01 X-1.8199 Y1.0226  
G01 X-1.8185 Y1.0277  
G01 X-1.8159 Y1.0322  
G01 X-1.7599 Y1.0882  
G01 X-1.7599 Y1.2718  
G01 X-1.8022 Y1.3141  
G01 X-1.8149 Y1.3141  
G01 X-1.8359 Y1.3351  
G01 X-1.8359 Y1.3649  
G01 X-1.8149 Y1.3859  
G01 X-1.8022 Y1.3859  
G01 X-1.5322 Y1.6559  
G01 X-1.5277 Y1.6585  
G01 X-1.5226 Y1.6599  
G01 X-1.4859 Y1.6599  
G01 X-1.4859 Y1.6649  
G01 X-1.4649 Y1.6859  
G01 X-1.4351 Y1.6859  
G01 X-1.4141 Y1.6649  
G01 X-1.4141 Y1.6351  
G01 X-1.4351 Y1.6141  
G01 X-1.4649 Y1.6141  
G01 X-1.4709 Y1.6201  
G01 X-1.5118 Y1.6201  
G01 X-1.7655 Y1.3663  
G01 X-1.7641 Y1.3649  
G01 X-1.7641 Y1.3351  
G01 X-1.7655 Y1.3337  
G01 X-1.7241 Y1.2922  
G01 X-1.7215 Y1.2877  
G01 X-1.7201 Y1.2826  
G01 X-1.7201 Y1.1199  
G01 X-1.1691 Y1.1199  
G01 X-1.1682 Y1.1232  
G01 X-1.1646 Y1.1319  
G01 X-1.1599 Y1.1400  
G01 X-1.1542 Y1.1475  
G01 X-1.1475 Y1.1542  
G01 X-1.1400 Y1.1599  
G01 X-1.1319 Y1.1646  
G01 X-1.1232 Y1.1682  
G01 X-1.1141 Y1.1707  
G01 X-1.1047 Y1.1719  
G01 X-1.0953 Y1.1719  
G01 X-1.0859 Y1.1707  
G01 X-1.0768 Y1.1682  
G01 X-1.0681 Y1.1646  
G01 X-1.0600 Y1.1599  
G01 X-1.0525 Y1.1542  
G01 X-1.0458 Y1.1475  
G01 X-1.0401 Y1.1400  
G01 X-1.0354 Y1.1319  
G01 X-1.0318 Y1.1232  
G01 X-1.0293 Y1.1141  
G01 X-1.0281 Y1.1047  
G01 X-1.0281 Y1.0953  
G01 X-1.0293 Y1.0859  
G01 X-1.0318 Y1.0768  
G01 X-1.0354 Y1.0681  
G01 X-1.0401 Y1.0600  
G01 X-1.0458 Y1.0525  
G00 Z0.1000  
G00 X-0.9149 Y1.5641  
G01 Z-0.0030 F10    
G01 X-0.9359 Y1.5851  F20    
G01 X-0.9359 Y1.6149  
G01 X-0.9149 Y1.6359  
G01 X-0.8851 Y1.6359  
G01 X-0.8691 Y1.6199  
G01 X-0.6974 Y1.6199  
G01 X-0.6923 Y1.6185  
G01 X-0.6878 Y1.6159  
G01 X-0.2368 Y1.1649  
G01 X-0.2298 Y1.1719  
G01 X-0.1702 Y1.1719  
G01 X-0.1281 Y1.1298  
G01 X-0.1281 Y1.0702  
G01 X-0.1702 Y1.0281  
G01 X-0.2298 Y1.0281  
G01 X-0.2719 Y1.0702  
G01 X-0.2719 Y1.1298  
G01 X-0.2649 Y1.1368  
G01 X-0.7082 Y1.5801  
G01 X-0.8691 Y1.5801  
G01 X-0.8851 Y1.5641  
G01 X-0.9149 Y1.5641  
G00 Z0.1000  
G00 X-0.5359 Y1.5851  
G01 Z-0.0030 F10    
G01 X-0.5359 Y1.6149  F20    
G01 X-0.5149 Y1.6359  
G01 X-0.4851 Y1.6359  
G01 X-0.4691 Y1.6199  
G01 X-0.2224 Y1.6199  
G01 X-0.2224 Y1.6300  
G01 X-0.1800 Y1.6724  
G01 X-0.1200 Y1.6724  
G01 X-0.0776 Y1.6300  
G01 X-0.0776 Y1.5700  
G01 X-0.1200 Y1.5276  
G01 X-0.1800 Y1.5276  
G01 X-0.2224 Y1.5700  
G01 X-0.2224 Y1.5801  
G01 X-0.4691 Y1.5801  
G01 X-0.4851 Y1.5641  
G01 X-0.5149 Y1.5641  
G01 X-0.5359 Y1.5851  
G00 Z0.1000  
G00 X-0.2224 Y1.8200  
G01 Z-0.0030 F10    
G01 X-0.2224 Y1.8800  F20    
G01 X-0.1800 Y1.9224  
G01 X-0.1799 Y2.1070  
G01 X-0.1841 Y2.1100  
G01 X-0.1900 Y2.1159  
G01 X-0.1948 Y2.1225  
G01 X-0.1986 Y2.1299  
G01 X-0.2011 Y2.1377  
G01 X-0.2024 Y2.1459  
G01 X-0.2024 Y2.1541  
G01 X-0.2011 Y2.1623  
G01 X-0.1986 Y2.1701  
G01 X-0.1948 Y2.1775  
G01 X-0.1900 Y2.1841  
G01 X-0.1841 Y2.1900  
G01 X-0.1775 Y2.1948  
G01 X-0.1701 Y2.1986  
G01 X-0.1623 Y2.2011  
G01 X-0.1541 Y2.2024  
G01 X-0.1459 Y2.2024  
G01 X-0.1377 Y2.2011  
G01 X-0.1299 Y2.1986  
G01 X-0.1225 Y2.1948  
G01 X-0.1159 Y2.1900  
G01 X-0.1100 Y2.1841  
G01 X-0.1052 Y2.1775  
G01 X-0.1014 Y2.1701  
G01 X-0.0989 Y2.1623  
G01 X-0.0976 Y2.1541  
G01 X-0.0976 Y2.1459  
G01 X-0.0989 Y2.1377  
G01 X-0.1014 Y2.1299  
G01 X-0.1052 Y2.1225  
G01 X-0.1100 Y2.1159  
G01 X-0.1159 Y2.1100  
G01 X-0.1225 Y2.1052  
G01 X-0.1299 Y2.1014  
G01 X-0.1377 Y2.0989  
G01 X-0.1401 Y2.0985  
G01 X-0.1401 Y1.9224  
G01 X-0.1200 Y1.9224  
G01 X-0.0776 Y1.8800  
G01 X-0.0776 Y1.8200  
G01 X-0.1200 Y1.7776  
G01 X-0.1800 Y1.7776  
G01 X-0.2224 Y1.8200  
G00 Z0.1000  
G00 X-0.6976 Y2.1283  
G01 Z-0.0030 F10    
G01 X-0.7283 Y2.0976  F20    
G01 X-0.7717 Y2.0976  
G01 X-0.8024 Y2.1283  
G01 X-0.8024 Y2.1717  
G01 X-0.7717 Y2.2024  
G01 X-0.7283 Y2.2024  
G01 X-0.7270 Y2.2011  
G01 X-0.5799 Y2.3482  
G01 X-0.5799 Y2.3791  
G01 X-0.5859 Y2.3851  
G01 X-0.5859 Y2.4149  
G01 X-0.5649 Y2.4359  
G01 X-0.5351 Y2.4359  
G01 X-0.5141 Y2.4149  
G01 X-0.5141 Y2.3851  
G01 X-0.5351 Y2.3641  
G01 X-0.5401 Y2.3641  
G01 X-0.5401 Y2.3374  
G01 X-0.5415 Y2.3323  
G01 X-0.5441 Y2.3278  
G01 X-0.6989 Y2.1730  
G01 X-0.6976 Y2.1717  
G01 X-0.6976 Y2.1283  
G00 Z0.1000  
G00 X-1.1221 Y2.2011  
G01 Z-0.0030 F10    
G01 X-1.1271 Y2.1961  F20    
G01 X-1.1330 Y2.1922  
G01 X-1.1395 Y2.1895  
G01 X-1.1465 Y2.1881  
G01 X-1.1535 Y2.1881  
G01 X-1.1605 Y2.1895  
G01 X-1.1670 Y2.1922  
G01 X-1.1729 Y2.1961  
G01 X-1.1779 Y2.2011  
G01 X-1.1818 Y2.2070  
G01 X-1.1845 Y2.2135  
G01 X-1.1859 Y2.2205  
G01 X-1.1859 Y2.2795  
G01 X-1.1845 Y2.2865  
G01 X-1.1818 Y2.2930  
G01 X-1.1779 Y2.2989  
G01 X-1.1729 Y2.3039  
G01 X-1.1670 Y2.3078  
G01 X-1.1605 Y2.3105  
G01 X-1.1535 Y2.3119  
G01 X-1.1465 Y2.3119  
G01 X-1.1395 Y2.3105  
G01 X-1.1330 Y2.3078  
G01 X-1.1271 Y2.3039  
G01 X-1.1257 Y2.3025  
G01 X-1.0199 Y2.4082  
G01 X-1.0199 Y2.8691  
G01 X-1.0359 Y2.8851  
G01 X-1.0359 Y2.9149  
G01 X-1.0149 Y2.9359  
G01 X-0.9851 Y2.9359  
G01 X-0.9641 Y2.9149  
G01 X-0.9641 Y2.8851  
G01 X-0.9801 Y2.8691  
G01 X-0.9801 Y2.3974  
G01 X-0.9815 Y2.3923  
G01 X-0.9841 Y2.3878  
G01 X-1.1141 Y2.2578  
G01 X-1.1141 Y2.2205  
G01 X-1.1155 Y2.2135  
G01 X-1.1182 Y2.2070  
G01 X-1.1221 Y2.2011  
G00 Z0.1000  
G00 X-1.1221 Y2.5011  
G01 Z-0.0030 F10    
G01 X-1.1271 Y2.4961  F20    
G01 X-1.1330 Y2.4922  
G01 X-1.1395 Y2.4895  
G01 X-1.1465 Y2.4881  
G01 X-1.1535 Y2.4881  
G01 X-1.1605 Y2.4895  
G01 X-1.1670 Y2.4922  
G01 X-1.1729 Y2.4961  
G01 X-1.1779 Y2.5011  
G01 X-1.1818 Y2.5070  
G01 X-1.1845 Y2.5135  
G01 X-1.1859 Y2.5205  
G01 X-1.1859 Y2.5795  
G01 X-1.1845 Y2.5865  
G01 X-1.1818 Y2.5930  
G01 X-1.1799 Y2.5959  
G01 X-1.1799 Y2.8118  
G01 X-1.2337 Y2.8655  
G01 X-1.2351 Y2.8641  
G01 X-1.2649 Y2.8641  
G01 X-1.2859 Y2.8851  
G01 X-1.2859 Y2.9149  
G01 X-1.2649 Y2.9359  
G01 X-1.2351 Y2.9359  
G01 X-1.2141 Y2.9149  
G01 X-1.2141 Y2.9022  
G01 X-1.1441 Y2.8322  
G01 X-1.1415 Y2.8277  
G01 X-1.1401 Y2.8226  
G01 X-1.1401 Y2.6106  
G01 X-1.1395 Y2.6105  
G01 X-1.1330 Y2.6078  
G01 X-1.1271 Y2.6039  
G01 X-1.1221 Y2.5989  
G01 X-1.1182 Y2.5930  
G01 X-1.1155 Y2.5865  
G01 X-1.1141 Y2.5795  
G01 X-1.1141 Y2.5205  
G01 X-1.1155 Y2.5135  
G01 X-1.1182 Y2.5070  
G01 X-1.1221 Y2.5011  
G00 Z0.1000  
G00 X-1.2221 Y2.5011  
G01 Z-0.0030 F10    
G01 X-1.2271 Y2.4961  F20    
G01 X-1.2330 Y2.4922  
G01 X-1.2395 Y2.4895  
G01 X-1.2465 Y2.4881  
G01 X-1.2535 Y2.4881  
G01 X-1.2605 Y2.4895  
G01 X-1.2670 Y2.4922  
G01 X-1.2729 Y2.4961  
G01 X-1.2779 Y2.5011  
G01 X-1.2818 Y2.5070  
G01 X-1.2845 Y2.5135  
G01 X-1.2859 Y2.5205  
G01 X-1.2859 Y2.5795  
G01 X-1.2845 Y2.5865  
G01 X-1.2818 Y2.5930  
G01 X-1.2799 Y2.5959  
G01 X-1.2799 Y2.6518  
G01 X-1.4922 Y2.8641  
G01 X-1.5149 Y2.8641  
G01 X-1.5359 Y2.8851  
G01 X-1.5359 Y2.9149  
G01 X-1.5149 Y2.9359  
G01 X-1.4851 Y2.9359  
G01 X-1.4641 Y2.9149  
G01 X-1.4641 Y2.8922  
G01 X-1.2441 Y2.6722  
G01 X-1.2415 Y2.6677  
G01 X-1.2401 Y2.6626  
G01 X-1.2401 Y2.6106  
G01 X-1.2395 Y2.6105  
G01 X-1.2330 Y2.6078  
G01 X-1.2271 Y2.6039  
G01 X-1.2221 Y2.5989  
G01 X-1.2182 Y2.5930  
G01 X-1.2155 Y2.5865  
G01 X-1.2141 Y2.5795  
G01 X-1.2141 Y2.5205  
G01 X-1.2155 Y2.5135  
G01 X-1.2182 Y2.5070  
G01 X-1.2221 Y2.5011  
G00 Z0.1000  
G00 X-1.3221 Y2.5011  
G01 Z-0.0030 F10    
G01 X-1.3271 Y2.4961  F20    
G01 X-1.3330 Y2.4922  
G01 X-1.3395 Y2.4895  
G01 X-1.3465 Y2.4881  
G01 X-1.3535 Y2.4881  
G01 X-1.3605 Y2.4895  
G01 X-1.3670 Y2.4922  
G01 X-1.3729 Y2.4961  
G01 X-1.3779 Y2.5011  
G01 X-1.3818 Y2.5070  
G01 X-1.3845 Y2.5135  
G01 X-1.3859 Y2.5205  
G01 X-1.3859 Y2.5778  
G01 X-1.6282 Y2.8201  
G01 X-1.6826 Y2.8201  
G01 X-1.6877 Y2.8215  
G01 X-1.6922 Y2.8241  
G01 X-1.7337 Y2.8655  
G01 X-1.7351 Y2.8641  
G01 X-1.7649 Y2.8641  
G01 X-1.7859 Y2.8851  
G01 X-1.7859 Y2.9149  
G01 X-1.7649 Y2.9359  
G01 X-1.7351 Y2.9359  
G01 X-1.7141 Y2.9149  
G01 X-1.7141 Y2.9022  
G01 X-1.6718 Y2.8599  
G01 X-1.6174 Y2.8599  
G01 X-1.6123 Y2.8585  
G01 X-1.6078 Y2.8559  
G01 X-1.6041 Y2.8522  
G01 X-1.3618 Y2.6100  
G01 X-1.3605 Y2.6105  
G01 X-1.3535 Y2.6119  
G01 X-1.3465 Y2.6119  
G01 X-1.3395 Y2.6105  
G01 X-1.3330 Y2.6078  
G01 X-1.3271 Y2.6039  
G01 X-1.3221 Y2.5989  
G01 X-1.3182 Y2.5930  
G01 X-1.3155 Y2.5865  
G01 X-1.3141 Y2.5795  
G01 X-1.3141 Y2.5205  
G01 X-1.3155 Y2.5135  
G01 X-1.3182 Y2.5070  
G01 X-1.3221 Y2.5011  
G00 Z0.1000  
G00 X-1.4221 Y2.5011  
G01 Z-0.0030 F10    
G01 X-1.4271 Y2.4961  F20    
G01 X-1.4330 Y2.4922  
G01 X-1.4395 Y2.4895  
G01 X-1.4465 Y2.4881  
G01 X-1.4535 Y2.4881  
G01 X-1.4605 Y2.4895  
G01 X-1.4670 Y2.4922  
G01 X-1.4729 Y2.4961  
G01 X-1.4779 Y2.5011  
G01 X-1.4818 Y2.5070  
G01 X-1.4845 Y2.5135  
G01 X-1.4859 Y2.5205  
G01 X-1.4859 Y2.5620  
G01 X-1.5252 Y2.6171  
G01 X-1.6882 Y2.7801  
G01 X-1.8226 Y2.7801  
G01 X-1.8277 Y2.7815  
G01 X-1.8322 Y2.7841  
G01 X-1.8682 Y2.8201  
G01 X-1.9426 Y2.8201  
G01 X-1.9477 Y2.8215  
G01 X-1.9522 Y2.8241  
G01 X-1.9922 Y2.8641  
G01 X-2.0149 Y2.8641  
G01 X-2.0359 Y2.8851  
G01 X-2.0359 Y2.9149  
G01 X-2.0149 Y2.9359  
G01 X-1.9851 Y2.9359  
G01 X-1.9641 Y2.9149  
G01 X-1.9641 Y2.8922  
G01 X-1.9318 Y2.8599  
G01 X-1.8574 Y2.8599  
G01 X-1.8523 Y2.8585  
G01 X-1.8478 Y2.8559  
G01 X-1.8441 Y2.8522  
G01 X-1.8118 Y2.8199  
G01 X-1.6774 Y2.8199  
G01 X-1.6723 Y2.8185  
G01 X-1.6678 Y2.8159  
G01 X-1.6641 Y2.8122  
G01 X-1.4966 Y2.6448  
G01 X-1.4953 Y2.6437  
G01 X-1.4948 Y2.6429  
G01 X-1.4941 Y2.6422  
G01 X-1.4932 Y2.6408  
G01 X-1.4688 Y2.6066  
G01 X-1.4670 Y2.6078  
G01 X-1.4605 Y2.6105  
G01 X-1.4535 Y2.6119  
G01 X-1.4465 Y2.6119  
G01 X-1.4395 Y2.6105  
G01 X-1.4330 Y2.6078  
G01 X-1.4271 Y2.6039  
G01 X-1.4221 Y2.5989  
G01 X-1.4182 Y2.5930  
G01 X-1.4155 Y2.5865  
G01 X-1.4141 Y2.5795  
G01 X-1.4141 Y2.5205  
G01 X-1.4155 Y2.5135  
G01 X-1.4182 Y2.5070  
G01 X-1.4221 Y2.5011  
G00 Z0.1000  
G00 X-1.5221 Y2.5011  
G01 Z-0.0030 F10    
G01 X-1.5271 Y2.4961  F20    
G01 X-1.5330 Y2.4922  
G01 X-1.5395 Y2.4895  
G01 X-1.5465 Y2.4881  
G01 X-1.5535 Y2.4881  
G01 X-1.5605 Y2.4895  
G01 X-1.5670 Y2.4922  
G01 X-1.5729 Y2.4961  
G01 X-1.5779 Y2.5011  
G01 X-1.5818 Y2.5070  
G01 X-1.5845 Y2.5135  
G01 X-1.5859 Y2.5205  
G01 X-1.5859 Y2.5795  
G01 X-1.5845 Y2.5865  
G01 X-1.5818 Y2.5930  
G01 X-1.5787 Y2.5976  
G01 X-1.7084 Y2.6841  
G01 X-1.9549 Y2.7827  
G01 X-2.2515 Y2.8321  
G01 X-2.2524 Y2.8321  
G01 X-2.2538 Y2.8325  
G01 X-2.2553 Y2.8327  
G01 X-2.2561 Y2.8331  
G01 X-2.2569 Y2.8333  
G01 X-2.2582 Y2.8341  
G01 X-2.2596 Y2.8347  
G01 X-2.2602 Y2.8352  
G01 X-2.2610 Y2.8357  
G01 X-2.2620 Y2.8367  
G01 X-2.2632 Y2.8377  
G01 X-2.2637 Y2.8384  
G01 X-2.2643 Y2.8390  
G01 X-2.2651 Y2.8403  
G01 X-2.2659 Y2.8415  
G01 X-2.2662 Y2.8423  
G01 X-2.2667 Y2.8431  
G01 X-2.2671 Y2.8445  
G01 X-2.2676 Y2.8459  
G01 X-2.2677 Y2.8468  
G01 X-2.2679 Y2.8476  
G01 X-2.2679 Y2.8491  
G01 X-2.2680 Y2.8506  
G01 X-2.2679 Y2.8515  
G01 X-2.2679 Y2.8671  
G01 X-2.2859 Y2.8851  
G01 X-2.2859 Y2.9149  
G01 X-2.2649 Y2.9359  
G01 X-2.2351 Y2.9359  
G01 X-2.2141 Y2.9149  
G01 X-2.2141 Y2.8851  
G01 X-2.2321 Y2.8671  
G01 X-2.2321 Y2.8652  
G01 X-1.9475 Y2.8177  
G01 X-1.9455 Y2.8175  
G01 X-1.9451 Y2.8173  
G01 X-1.9447 Y2.8173  
G01 X-1.9430 Y2.8165  
G01 X-1.6938 Y2.7168  
G01 X-1.6920 Y2.7162  
G01 X-1.6916 Y2.7159  
G01 X-1.6912 Y2.7157  
G01 X-1.6897 Y2.7146  
G01 X-1.5406 Y2.6152  
G01 X-1.5390 Y2.6143  
G01 X-1.5386 Y2.6139  
G01 X-1.5381 Y2.6136  
G01 X-1.5369 Y2.6122  
G01 X-1.5357 Y2.6110  
G01 X-1.5354 Y2.6105  
G01 X-1.5350 Y2.6100  
G01 X-1.5342 Y2.6085  
G01 X-1.5341 Y2.6083  
G01 X-1.5330 Y2.6078  
G01 X-1.5271 Y2.6039  
G01 X-1.5221 Y2.5989  
G01 X-1.5182 Y2.5930  
G01 X-1.5155 Y2.5865  
G01 X-1.5141 Y2.5795  
G01 X-1.5141 Y2.5205  
G01 X-1.5155 Y2.5135  
G01 X-1.5182 Y2.5070  
G01 X-1.5221 Y2.5011  
G00 Z0.1000  
G00 X-1.6221 Y2.5011  
G01 Z-0.0030 F10    
G01 X-1.6271 Y2.4961  F20    
G01 X-1.6330 Y2.4922  
G01 X-1.6395 Y2.4895  
G01 X-1.6465 Y2.4881  
G01 X-1.6535 Y2.4881  
G01 X-1.6605 Y2.4895  
G01 X-1.6670 Y2.4922  
G01 X-1.6729 Y2.4961  
G01 X-1.6779 Y2.5011  
G01 X-1.6818 Y2.5070  
G01 X-1.6845 Y2.5135  
G01 X-1.6859 Y2.5205  
G01 X-1.6859 Y2.5728  
G01 X-1.7183 Y2.5932  
G01 X-1.7182 Y2.5930  
G01 X-1.7155 Y2.5865  
G01 X-1.7141 Y2.5795  
G01 X-1.7141 Y2.5205  
G01 X-1.7155 Y2.5135  
G01 X-1.7182 Y2.5070  
G01 X-1.7221 Y2.5011  
G01 X-1.7271 Y2.4961  
G01 X-1.7330 Y2.4922  
G01 X-1.7395 Y2.4895  
G01 X-1.7465 Y2.4881  
G01 X-1.7535 Y2.4881  
G01 X-1.7605 Y2.4895  
G01 X-1.7670 Y2.4922  
G01 X-1.7729 Y2.4961  
G01 X-1.7779 Y2.5011  
G01 X-1.7818 Y2.5070  
G01 X-1.7845 Y2.5135  
G01 X-1.7859 Y2.5205  
G01 X-1.7859 Y2.5742  
G01 X-1.9303 Y2.6785  
G01 X-1.8618 Y2.6100  
G01 X-1.8605 Y2.6105  
G01 X-1.8535 Y2.6119  
G01 X-1.8465 Y2.6119  
G01 X-1.8395 Y2.6105  
G01 X-1.8330 Y2.6078  
G01 X-1.8271 Y2.6039  
G01 X-1.8221 Y2.5989  
G01 X-1.8182 Y2.5930  
G01 X-1.8155 Y2.5865  
G01 X-1.8141 Y2.5795  
G01 X-1.8141 Y2.5205  
G01 X-1.8155 Y2.5135  
G01 X-1.8182 Y2.5070  
G01 X-1.8221 Y2.5011  
G01 X-1.8271 Y2.4961  
G01 X-1.8330 Y2.4922  
G01 X-1.8395 Y2.4895  
G01 X-1.8465 Y2.4881  
G01 X-1.8535 Y2.4881  
G01 X-1.8605 Y2.4895  
G01 X-1.8670 Y2.4922  
G01 X-1.8729 Y2.4961  
G01 X-1.8779 Y2.5011  
G01 X-1.8818 Y2.5070  
G01 X-1.8845 Y2.5135  
G01 X-1.8859 Y2.5205  
G01 X-1.8859 Y2.5778  
G01 X-1.9587 Y2.6506  
G01 X-2.8206 Y2.7001  
G01 X-2.8226 Y2.7001  
G01 X-2.8232 Y2.7002  
G01 X-2.8238 Y2.7003  
G01 X-2.8257 Y2.7009  
G01 X-2.8277 Y2.7015  
G01 X-2.8282 Y2.7017  
G01 X-2.8287 Y2.7019  
G01 X-2.8304 Y2.7031  
G01 X-2.8322 Y2.7041  
G01 X-2.8326 Y2.7045  
G01 X-2.8331 Y2.7048  
G01 X-2.8345 Y2.7063  
G01 X-2.9922 Y2.8641  
G01 X-3.0149 Y2.8641  
G01 X-3.0359 Y2.8851  
G01 X-3.0359 Y2.9149  
G01 X-3.0149 Y2.9359  
G01 X-2.9851 Y2.9359  
G01 X-2.9641 Y2.9149  
G01 X-2.9641 Y2.8922  
G01 X-2.8113 Y2.7394  
G01 X-1.9494 Y2.6899  
G01 X-1.9474 Y2.6899  
G01 X-1.9468 Y2.6898  
G01 X-1.9462 Y2.6897  
G01 X-1.9456 Y2.6895  
G01 X-1.9471 Y2.6906  
G01 X-2.6008 Y2.7401  
G01 X-2.6026 Y2.7401  
G01 X-2.6034 Y2.7403  
G01 X-2.6041 Y2.7404  
G01 X-2.6059 Y2.7410  
G01 X-2.6077 Y2.7415  
G01 X-2.6083 Y2.7418  
G01 X-2.6091 Y2.7421  
G01 X-2.6106 Y2.7431  
G01 X-2.6122 Y2.7441  
G01 X-2.6128 Y2.7446  
G01 X-2.6134 Y2.7450  
G01 X-2.6146 Y2.7465  
G01 X-2.7337 Y2.8655  
G01 X-2.7351 Y2.8641  
G01 X-2.7649 Y2.8641  
G01 X-2.7859 Y2.8851  
G01 X-2.7859 Y2.9149  
G01 X-2.7649 Y2.9359  
G01 X-2.7351 Y2.9359  
G01 X-2.7141 Y2.9149  
G01 X-2.7141 Y2.9022  
G01 X-2.5911 Y2.7793  
G01 X-1.9408 Y2.7300  
G01 X-1.9406 Y2.7301  
G01 X-1.9382 Y2.7298  
G01 X-1.9359 Y2.7296  
G01 X-1.9356 Y2.7296  
G01 X-1.9354 Y2.7295  
G01 X-1.9340 Y2.7290  
G01 X-1.9367 Y2.7307  
G01 X-2.4011 Y2.7801  
G01 X-2.4026 Y2.7801  
G01 X-2.4036 Y2.7804  
G01 X-2.4047 Y2.7805  
G01 X-2.4062 Y2.7811  
G01 X-2.4077 Y2.7815  
G01 X-2.4086 Y2.7820  
G01 X-2.4096 Y2.7824  
G01 X-2.4109 Y2.7833  
G01 X-2.4122 Y2.7841  
G01 X-2.4130 Y2.7848  
G01 X-2.4138 Y2.7855  
G01 X-2.4148 Y2.7867  
G01 X-2.4922 Y2.8641  
G01 X-2.5149 Y2.8641  
G01 X-2.5359 Y2.8851  
G01 X-2.5359 Y2.9149  
G01 X-2.5149 Y2.9359  
G01 X-2.4851 Y2.9359  
G01 X-2.4641 Y2.9149  
G01 X-2.4641 Y2.8922  
G01 X-2.3909 Y2.8190  
G01 X-1.9286 Y2.7699  
G01 X-1.9266 Y2.7698  
G01 X-1.9260 Y2.7696  
G01 X-1.9253 Y2.7695  
G01 X-1.9235 Y2.7688  
G01 X-1.9216 Y2.7682  
G01 X-1.9210 Y2.7679  
G01 X-1.9204 Y2.7676  
G01 X-1.9188 Y2.7665  
G01 X-1.6669 Y2.6079  
G01 X-1.6605 Y2.6105  
G01 X-1.6535 Y2.6119  
G01 X-1.6465 Y2.6119  
G01 X-1.6395 Y2.6105  
G01 X-1.6330 Y2.6078  
G01 X-1.6271 Y2.6039  
G01 X-1.6221 Y2.5989  
G01 X-1.6182 Y2.5930  
G01 X-1.6155 Y2.5865  
G01 X-1.6141 Y2.5795  
G01 X-1.6141 Y2.5205  
G01 X-1.6155 Y2.5135  
G01 X-1.6182 Y2.5070  
G01 X-1.6221 Y2.5011  
G00 Z0.1000  
G00 X-1.6271 Y2.3039  
G01 Z-0.0030 F10    
G01 X-1.6221 Y2.2989  F20    
G01 X-1.6182 Y2.2930  
