(/Applications/pcbgcode.repo/pcb-gcode.ulp)
(Copyright 2005 - 2012 by John Johnson)
(See readme.txt for licensing terms.)
(This file generated from the board:)
(.../eagle/output_attenuator/zerod.brd)
(Current profile is .../pcbgcode.repo/profiles/mach.pp  )
(This file generated 10/18/14 9:49 PM)
(Settings from pcb-machine.h)
(spindle on time = 0.0000)
(  Tool Size)
(0.0078  )
(spindle speed = 30000.0000)
(tool change at 0.0000  0.0000  3.0000  )
(feed rate xy = F40    )
(feed rate z  = F10    )
(Z Axis Settings)
(  High     Up        Down     Drill)
(0.5000  	0.1000  	-0.0027 	-0.0630 )
(Settings from pcb-defaults.h)
(isolate min = 0.0010)
(isolate max = 0.0200)
(isolate step = 0.0050)
(Generated bottom outlines, bottom drill, )
(Unit of measure: inch)
(Inch Mode)
G20
(Absolute Coordinates)
G90
S30000
G00 Z0.5000  
G00 X0.0000  Y0.0000  
M03
G04 P0.000000
G00 Z0.1000  
G00 X-0.1581 Y0.1326  
G01 Z-0.0027 F10    
G01 X-0.1826 Y0.1081  F40    
G01 X-0.2174 Y0.1081  
G01 X-0.2419 Y0.1326  
G01 X-0.2419 Y0.1674  
G01 X-0.2174 Y0.1919  
G01 X-0.1826 Y0.1919  
G01 X-0.1581 Y0.1674  
G01 X-0.1581 Y0.1326  
G00 Z0.1000  
G00 X-0.1581 Y0.2326  
G01 Z-0.0027 F10    
G01 X-0.1826 Y0.2081  F40    
G01 X-0.2174 Y0.2081  
G01 X-0.2419 Y0.2326  
G01 X-0.2419 Y0.2674  
G01 X-0.2174 Y0.2919  
G01 X-0.1826 Y0.2919  
G01 X-0.1581 Y0.2674  
G01 X-0.1581 Y0.2326  
G00 Z0.1000  
G00 X-0.2581 Y0.2326  
G01 Z-0.0027 F10    
G01 X-0.2826 Y0.2081  F40    
G01 X-0.3174 Y0.2081  
G01 X-0.3419 Y0.2326  
G01 X-0.3419 Y0.2674  
G01 X-0.3174 Y0.2919  
G01 X-0.2826 Y0.2919  
G01 X-0.2581 Y0.2674  
G01 X-0.2581 Y0.2326  
G00 Z0.1000  
G00 X-0.2826 Y0.1919  
G01 Z-0.0027 F10    
G01 X-0.2581 Y0.1674  F40    
G01 X-0.2581 Y0.1326  
G01 X-0.2826 Y0.1081  
G01 X-0.3174 Y0.1081  
G01 X-0.3419 Y0.1326  
G01 X-0.3419 Y0.1674  
G01 X-0.3174 Y0.1919  
G01 X-0.2826 Y0.1919  
G00 Z0.1000  
G00 X-0.3826 Y0.1919  
G01 Z-0.0027 F10    
G01 X-0.3581 Y0.1674  F40    
G01 X-0.3581 Y0.1326  
G01 X-0.3826 Y0.1081  
G01 X-0.4174 Y0.1081  
G01 X-0.4419 Y0.1326  
G01 X-0.4419 Y0.1674  
G01 X-0.4174 Y0.1919  
G01 X-0.3826 Y0.1919  
G00 Z0.1000  
G00 X-0.3826 Y0.2081  
G01 Z-0.0027 F10    
G01 X-0.4174 Y0.2081  F40    
G01 X-0.4419 Y0.2326  
G01 X-0.4419 Y0.2674  
G01 X-0.4174 Y0.2919  
G01 X-0.3826 Y0.2919  
G01 X-0.3581 Y0.2674  
G01 X-0.3581 Y0.2326  
G01 X-0.3826 Y0.2081  
G00 Z0.1000  
G00 X-0.4581 Y0.2326  
G01 Z-0.0027 F10    
G01 X-0.4826 Y0.2081  F40    
G01 X-0.4941 Y0.2081  
G01 X-0.4941 Y0.1919  
G01 X-0.4826 Y0.1919  
G01 X-0.4581 Y0.1674  
G01 X-0.4581 Y0.1326  
G01 X-0.4826 Y0.1081  
G01 X-0.5174 Y0.1081  
G01 X-0.5419 Y0.1326  
G01 X-0.5419 Y0.1674  
G01 X-0.5259 Y0.1834  
G01 X-0.5259 Y0.2166  
G01 X-0.5419 Y0.2326  
G01 X-0.5419 Y0.2674  
G01 X-0.5174 Y0.2919  
G01 X-0.4826 Y0.2919  
G01 X-0.4806 Y0.2899  
G01 X-0.2896 Y0.4808  
G01 X-0.2898 Y0.4811  
G01 X-0.2922 Y0.4885  
G01 X-0.2934 Y0.4961  
G01 X-0.2934 Y0.5039  
G01 X-0.2922 Y0.5115  
G01 X-0.2898 Y0.5189  
G01 X-0.2863 Y0.5258  
G01 X-0.2817 Y0.5320  
G01 X-0.2763 Y0.5375  
G01 X-0.2700 Y0.5420  
G01 X-0.2631 Y0.5455  
G01 X-0.2558 Y0.5479  
G01 X-0.2481 Y0.5491  
G01 X-0.2029 Y0.5491  
G01 X-0.2029 Y0.6141  
G01 X-0.2018 Y0.6181  
G01 X-0.1997 Y0.6218  
G01 X-0.0669 Y0.7546  
G01 X-0.0669 Y2.2544  
G01 X-0.2106 Y2.3981  
G01 X-0.3831 Y2.3981  
G01 X-0.3831 Y2.3956  
G01 X-0.3842 Y2.3869  
G01 X-0.3865 Y2.3784  
G01 X-0.3899 Y2.3703  
G01 X-0.3943 Y2.3628  
G01 X-0.3996 Y2.3558  
G01 X-0.4058 Y2.3496  
G01 X-0.4128 Y2.3443  
G01 X-0.4203 Y2.3399  
G01 X-0.4284 Y2.3365  
G01 X-0.4369 Y2.3342  
G01 X-0.4456 Y2.3331  
G01 X-0.4544 Y2.3331  
G01 X-0.4631 Y2.3342  
G01 X-0.4716 Y2.3365  
G01 X-0.4797 Y2.3399  
G01 X-0.4872 Y2.3443  
G01 X-0.4942 Y2.3496  
G01 X-0.5004 Y2.3558  
G01 X-0.5057 Y2.3628  
G01 X-0.5101 Y2.3703  
G01 X-0.5135 Y2.3784  
G01 X-0.5158 Y2.3869  
G01 X-0.5169 Y2.3956  
G01 X-0.5169 Y2.4044  
G01 X-0.5158 Y2.4131  
G01 X-0.5135 Y2.4216  
G01 X-0.5101 Y2.4297  
G01 X-0.5057 Y2.4372  
G01 X-0.5004 Y2.4442  
G01 X-0.4942 Y2.4504  
G01 X-0.4872 Y2.4557  
G01 X-0.4797 Y2.4601  
G01 X-0.4716 Y2.4635  
G01 X-0.4631 Y2.4658  
G01 X-0.4544 Y2.4669  
G01 X-0.4456 Y2.4669  
G01 X-0.4369 Y2.4658  
G01 X-0.4284 Y2.4635  
G01 X-0.4203 Y2.4601  
G01 X-0.4128 Y2.4557  
G01 X-0.4058 Y2.4504  
G01 X-0.3996 Y2.4442  
G01 X-0.3943 Y2.4372  
G01 X-0.3900 Y2.4299  
G01 X-0.2106 Y2.4299  
G01 X-0.0669 Y2.5736  
G01 X-0.0669 Y2.6284  
G01 X-0.4146 Y2.9761  
G01 X-0.7802 Y2.9761  
G01 X-0.7872 Y2.9691  
G01 X-0.8128 Y2.9691  
G01 X-0.8309 Y2.9872  
G01 X-0.8309 Y3.0014  
G01 X-0.8736 Y3.0441  
G01 X-0.9794 Y3.0441  
G01 X-1.0191 Y3.0044  
G01 X-1.0191 Y2.9872  
G01 X-1.0372 Y2.9691  
G01 X-1.0381 Y2.9691  
G01 X-1.0381 Y2.9389  
G01 X-1.0392 Y2.9349  
G01 X-1.0413 Y2.9312  
G01 X-1.6222 Y2.3503  
G01 X-1.6259 Y2.3482  
G01 X-1.6299 Y2.3471  
G01 X-1.6424 Y2.3471  
G01 X-1.7861 Y2.2034  
G01 X-1.7861 Y2.1909  
G01 X-1.7872 Y2.1869  
G01 X-1.7893 Y2.1832  
G01 X-1.7922 Y2.1803  
G01 X-1.8191 Y2.1534  
G01 X-1.8191 Y2.1210  
G01 X-1.8201 Y2.1159  
G01 X-1.8201 Y1.9956  
G01 X-1.6254 Y1.8009  
G01 X-1.3579 Y1.8009  
G01 X-1.3539 Y1.7998  
G01 X-1.3502 Y1.7977  
G01 X-1.3473 Y1.7948  
G01 X-1.0243 Y1.4718  
G01 X-1.0222 Y1.4681  
G01 X-1.0211 Y1.4641  
G01 X-1.0211 Y1.4259  
G01 X-1.0222 Y1.4219  
G01 X-1.0243 Y1.4182  
G01 X-1.0272 Y1.4153  
G01 X-1.0952 Y1.3473  
G01 X-1.0989 Y1.3452  
G01 X-1.1029 Y1.3441  
G01 X-1.1691 Y1.3441  
G01 X-1.1691 Y1.3372  
G01 X-1.1872 Y1.3191  
G01 X-1.1911 Y1.3191  
G01 X-1.1911 Y1.1797  
G01 X-1.1910 Y1.1797  
G01 X-1.1854 Y1.1774  
G01 X-1.1803 Y1.1740  
G01 X-1.1760 Y1.1697  
G01 X-1.1726 Y1.1646  
G01 X-1.1703 Y1.1590  
G01 X-1.1691 Y1.1530  
G01 X-1.1691 Y1.1470  
G01 X-1.1702 Y1.1416  
G01 X-1.0984 Y1.0699  
G01 X-1.0738 Y1.0699  
G01 X-1.0628 Y1.0809  
G01 X-1.0372 Y1.0809  
G01 X-1.0191 Y1.0628  
G01 X-1.0191 Y1.0372  
G01 X-1.0372 Y1.0191  
G01 X-1.0628 Y1.0191  
G01 X-1.0809 Y1.0372  
G01 X-1.0809 Y1.0381  
G01 X-1.1071 Y1.0381  
G01 X-1.1111 Y1.0392  
G01 X-1.1148 Y1.0413  
G01 X-1.1933 Y1.1198  
G01 X-1.1970 Y1.1191  
G01 X-1.2030 Y1.1191  
G01 X-1.2090 Y1.1203  
G01 X-1.2146 Y1.1226  
G01 X-1.2197 Y1.1260  
G01 X-1.2240 Y1.1303  
G01 X-1.2274 Y1.1354  
G01 X-1.2297 Y1.1410  
G01 X-1.2309 Y1.1470  
G01 X-1.2309 Y1.1530  
G01 X-1.2297 Y1.1590  
G01 X-1.2274 Y1.1646  
G01 X-1.2240 Y1.1697  
G01 X-1.2229 Y1.1708  
G01 X-1.2229 Y1.3292  
G01 X-1.2309 Y1.3372  
G01 X-1.2309 Y1.3628  
G01 X-1.2128 Y1.3809  
G01 X-1.1872 Y1.3809  
G01 X-1.1822 Y1.3759  
G01 X-1.1116 Y1.3759  
G01 X-1.0529 Y1.4346  
G01 X-1.0529 Y1.4554  
G01 X-1.3666 Y1.7691  
G01 X-1.6341 Y1.7691  
G01 X-1.6381 Y1.7702  
G01 X-1.6418 Y1.7723  
G01 X-1.8458 Y1.9763  
G01 X-1.8487 Y1.9792  
G01 X-1.8508 Y1.9829  
G01 X-1.8519 Y1.9869  
G01 X-1.8519 Y2.0931  
G01 X-1.8530 Y2.0931  
G01 X-1.8590 Y2.0943  
G01 X-1.8646 Y2.0966  
G01 X-1.8697 Y2.1000  
G01 X-1.8740 Y2.1043  
G01 X-1.8774 Y2.1094  
G01 X-1.8797 Y2.1150  
G01 X-1.8809 Y2.1210  
G01 X-1.8809 Y2.1644  
G01 X-1.9616 Y2.2451  
G01 X-2.3394 Y2.2451  
G01 X-2.4191 Y2.1654  
G01 X-2.4191 Y2.1210  
G01 X-2.4203 Y2.1150  
G01 X-2.4226 Y2.1094  
G01 X-2.4260 Y2.1043  
G01 X-2.4303 Y2.1000  
G01 X-2.4354 Y2.0966  
G01 X-2.4410 Y2.0943  
G01 X-2.4470 Y2.0931  
G01 X-2.4530 Y2.0931  
G01 X-2.4590 Y2.0943  
G01 X-2.4646 Y2.0966  
G01 X-2.4697 Y2.1000  
G01 X-2.4740 Y2.1043  
G01 X-2.4774 Y2.1094  
G01 X-2.4797 Y2.1150  
G01 X-2.4809 Y2.1210  
G01 X-2.4809 Y2.1790  
G01 X-2.4797 Y2.1850  
G01 X-2.4774 Y2.1906  
G01 X-2.4740 Y2.1957  
G01 X-2.4697 Y2.2000  
G01 X-2.4646 Y2.2034  
G01 X-2.4590 Y2.2057  
G01 X-2.4530 Y2.2069  
G01 X-2.4470 Y2.2069  
G01 X-2.4410 Y2.2057  
G01 X-2.4354 Y2.2034  
G01 X-2.4303 Y2.2000  
G01 X-2.4299 Y2.1996  
G01 X-2.3558 Y2.2737  
G01 X-2.3521 Y2.2758  
G01 X-2.3481 Y2.2769  
G01 X-1.9529 Y2.2769  
G01 X-1.9489 Y2.2758  
G01 X-1.9452 Y2.2737  
G01 X-1.9423 Y2.2708  
G01 X-1.8706 Y2.1991  
G01 X-1.8697 Y2.2000  
G01 X-1.8646 Y2.2034  
G01 X-1.8590 Y2.2057  
G01 X-1.8530 Y2.2069  
G01 X-1.8470 Y2.2069  
G01 X-1.8410 Y2.2057  
G01 X-1.8354 Y2.2034  
G01 X-1.8303 Y2.2000  
G01 X-1.8260 Y2.1957  
G01 X-1.8243 Y2.1932  
G01 X-1.8179 Y2.1996  
G01 X-1.8179 Y2.2121  
G01 X-1.8168 Y2.2161  
G01 X-1.8147 Y2.2198  
G01 X-1.6617 Y2.3728  
G01 X-1.6588 Y2.3757  
G01 X-1.6551 Y2.3778  
G01 X-1.6511 Y2.3789  
G01 X-1.6386 Y2.3789  
G01 X-1.0699 Y2.9476  
G01 X-1.0699 Y2.9762  
G01 X-1.0809 Y2.9872  
G01 X-1.0809 Y2.9931  
G01 X-1.0901 Y2.9931  
G01 X-1.0941 Y2.9942  
G01 X-1.0978 Y2.9963  
G01 X-1.1456 Y3.0441  
G01 X-1.2344 Y3.0441  
G01 X-1.2691 Y3.0094  
G01 X-1.2691 Y2.9872  
G01 X-1.2872 Y2.9691  
G01 X-1.3128 Y2.9691  
G01 X-1.3309 Y2.9872  
G01 X-1.3309 Y3.0084  
G01 X-1.3666 Y3.0441  
G01 X-1.4894 Y3.0441  
G01 X-1.5199 Y3.0136  
G01 X-1.5191 Y3.0128  
G01 X-1.5191 Y2.9872  
G01 X-1.5372 Y2.9691  
G01 X-1.5628 Y2.9691  
G01 X-1.5809 Y2.9872  
G01 X-1.5809 Y3.0034  
G01 X-1.6216 Y3.0441  
G01 X-1.6594 Y3.0441  
G01 X-1.7072 Y2.9963  
G01 X-1.7109 Y2.9942  
G01 X-1.7149 Y2.9931  
G01 X-1.7691 Y2.9931  
G01 X-1.7691 Y2.9872  
G01 X-1.7872 Y2.9691  
G01 X-1.8128 Y2.9691  
G01 X-1.8309 Y2.9872  
G01 X-1.8309 Y3.0128  
G01 X-1.8296 Y3.0141  
G01 X-1.8596 Y3.0441  
G01 X-1.9144 Y3.0441  
G01 X-1.9622 Y2.9963  
G01 X-1.9659 Y2.9942  
G01 X-1.9699 Y2.9931  
G01 X-2.0191 Y2.9931  
G01 X-2.0191 Y2.9872  
G01 X-2.0372 Y2.9691  
G01 X-2.0628 Y2.9691  
G01 X-2.0809 Y2.9872  
G01 X-2.0809 Y3.0104  
G01 X-2.1146 Y3.0441  
G01 X-2.2374 Y3.0441  
G01 X-2.2691 Y3.0124  
G01 X-2.2691 Y2.9872  
G01 X-2.2872 Y2.9691  
G01 X-2.3128 Y2.9691  
G01 X-2.3309 Y2.9872  
G01 X-2.3309 Y3.0054  
G01 X-2.3696 Y3.0441  
G01 X-2.4074 Y3.0441  
G01 X-2.4552 Y2.9963  
G01 X-2.4589 Y2.9942  
G01 X-2.4629 Y2.9931  
G01 X-2.5191 Y2.9931  
G01 X-2.5191 Y2.9872  
G01 X-2.5372 Y2.9691  
G01 X-2.5628 Y2.9691  
G01 X-2.5809 Y2.9872  
G01 X-2.5809 Y3.0128  
G01 X-2.5786 Y3.0151  
G01 X-2.6076 Y3.0441  
G01 X-2.6624 Y3.0441  
G01 X-2.7102 Y2.9963  
G01 X-2.7139 Y2.9942  
G01 X-2.7179 Y2.9931  
G01 X-2.7691 Y2.9931  
G01 X-2.7691 Y2.9872  
G01 X-2.7872 Y2.9691  
G01 X-2.8128 Y2.9691  
G01 X-2.8309 Y2.9872  
G01 X-2.8309 Y3.0124  
G01 X-2.8626 Y3.0441  
G01 X-2.9174 Y3.0441  
G01 X-2.9652 Y2.9963  
G01 X-2.9689 Y2.9942  
G01 X-2.9729 Y2.9931  
G01 X-3.0191 Y2.9931  
G01 X-3.0191 Y2.9872  
G01 X-3.0372 Y2.9691  
G01 X-3.0628 Y2.9691  
G01 X-3.0809 Y2.9872  
G01 X-3.0809 Y3.0128  
G01 X-3.0628 Y3.0309  
G01 X-3.0372 Y3.0309  
G01 X-3.0312 Y3.0249  
G01 X-2.9816 Y3.0249  
G01 X-2.9367 Y3.0698  
G01 X-2.9338 Y3.0727  
G01 X-2.9301 Y3.0748  
G01 X-2.9261 Y3.0759  
G01 X-2.8539 Y3.0759  
G01 X-2.8499 Y3.0748  
G01 X-2.8462 Y3.0727  
G01 X-2.8044 Y3.0309  
G01 X-2.7872 Y3.0309  
G01 X-2.7812 Y3.0249  
G01 X-2.7266 Y3.0249  
G01 X-2.6817 Y3.0698  
G01 X-2.6788 Y3.0727  
G01 X-2.6751 Y3.0748  
G01 X-2.6711 Y3.0759  
G01 X-2.5989 Y3.0759  
G01 X-2.5949 Y3.0748  
G01 X-2.5912 Y3.0727  
G01 X-2.5494 Y3.0309  
G01 X-2.5372 Y3.0309  
G01 X-2.5312 Y3.0249  
G01 X-2.4716 Y3.0249  
G01 X-2.4267 Y3.0698  
G01 X-2.4238 Y3.0727  
G01 X-2.4201 Y3.0748  
G01 X-2.4161 Y3.0759  
G01 X-2.3609 Y3.0759  
G01 X-2.3569 Y3.0748  
G01 X-2.3532 Y3.0727  
G01 X-2.3114 Y3.0309  
G01 X-2.2956 Y3.0309  
G01 X-2.2538 Y3.0727  
G01 X-2.2501 Y3.0748  
G01 X-2.2461 Y3.0759  
G01 X-2.1059 Y3.0759  
G01 X-2.1019 Y3.0748  
G01 X-2.0982 Y3.0727  
G01 X-2.0564 Y3.0309  
G01 X-2.0372 Y3.0309  
G01 X-2.0312 Y3.0249  
G01 X-1.9786 Y3.0249  
G01 X-1.9337 Y3.0698  
G01 X-1.9308 Y3.0727  
G01 X-1.9271 Y3.0748  
G01 X-1.9231 Y3.0759  
G01 X-1.8509 Y3.0759  
G01 X-1.8469 Y3.0748  
G01 X-1.8432 Y3.0727  
G01 X-1.8014 Y3.0309  
G01 X-1.7872 Y3.0309  
G01 X-1.7812 Y3.0249  
G01 X-1.7236 Y3.0249  
G01 X-1.6787 Y3.0698  
G01 X-1.6758 Y3.0727  
G01 X-1.6721 Y3.0748  
G01 X-1.6681 Y3.0759  
G01 X-1.6129 Y3.0759  
G01 X-1.6089 Y3.0748  
G01 X-1.6052 Y3.0727  
G01 X-1.5631 Y3.0306  
G01 X-1.5628 Y3.0309  
G01 X-1.5476 Y3.0309  
G01 X-1.5058 Y3.0727  
G01 X-1.5021 Y3.0748  
G01 X-1.4981 Y3.0759  
G01 X-1.3579 Y3.0759  
G01 X-1.3539 Y3.0748  
G01 X-1.3502 Y3.0727  
G01 X-1.3473 Y3.0698  
G01 X-1.3084 Y3.0309  
G01 X-1.2926 Y3.0309  
G01 X-1.2508 Y3.0727  
G01 X-1.2471 Y3.0748  
G01 X-1.2431 Y3.0759  
G01 X-1.1369 Y3.0759  
G01 X-1.1329 Y3.0748  
G01 X-1.1292 Y3.0727  
G01 X-1.1263 Y3.0698  
G01 X-1.0814 Y3.0249  
G01 X-1.0688 Y3.0249  
G01 X-1.0628 Y3.0309  
G01 X-1.0376 Y3.0309  
G01 X-0.9958 Y3.0727  
G01 X-0.9921 Y3.0748  
G01 X-0.9881 Y3.0759  
G01 X-0.8649 Y3.0759  
G01 X-0.8609 Y3.0748  
G01 X-0.8572 Y3.0727  
G01 X-0.8543 Y3.0698  
G01 X-0.8141 Y3.0296  
G01 X-0.8128 Y3.0309  
G01 X-0.7872 Y3.0309  
G01 X-0.7691 Y3.0128  
G01 X-0.7691 Y3.0079  
G01 X-0.4059 Y3.0079  
G01 X-0.4019 Y3.0068  
G01 X-0.3982 Y3.0047  
G01 X-0.3953 Y3.0018  
G01 X-0.0383 Y2.6448  
G01 X-0.0362 Y2.6411  
G01 X-0.0351 Y2.6371  
G01 X-0.0351 Y2.5649  
G01 X-0.0362 Y2.5609  
G01 X-0.0383 Y2.5572  
G01 X-0.0412 Y2.5543  
G01 X-0.1815 Y2.4140  
G01 X-0.0383 Y2.2708  
G01 X-0.0362 Y2.2671  
G01 X-0.0351 Y2.2631  
G01 X-0.0351 Y0.7459  
G01 X-0.0362 Y0.7419  
G01 X-0.0383 Y0.7382  
G01 X-0.0412 Y0.7353  
G01 X-0.1711 Y0.6054  
G01 X-0.1711 Y0.5491  
G01 X-0.1519 Y0.5491  
G01 X-0.1442 Y0.5479  
G01 X-0.1369 Y0.5455  
G01 X-0.1300 Y0.5420  
G01 X-0.1237 Y0.5375  
G01 X-0.1183 Y0.5320  
G01 X-0.1137 Y0.5258  
G01 X-0.1102 Y0.5189  
G01 X-0.1078 Y0.5115  
G01 X-0.1066 Y0.5039  
G01 X-0.1066 Y0.4961  
G01 X-0.1078 Y0.4885  
G01 X-0.1102 Y0.4811  
G01 X-0.1137 Y0.4742  
G01 X-0.1183 Y0.4680  
G01 X-0.1237 Y0.4625  
G01 X-0.1300 Y0.4580  
G01 X-0.1369 Y0.4545  
G01 X-0.1442 Y0.4521  
G01 X-0.1519 Y0.4509  
G01 X-0.2481 Y0.4509  
G01 X-0.2558 Y0.4521  
G01 X-0.2631 Y0.4545  
G01 X-0.2684 Y0.4571  
G01 X-0.4581 Y0.2674  
G01 X-0.4581 Y0.2326  
G00 Z0.1000  
G00 X-0.5581 Y0.2326  
G01 Z-0.0027 F10    
G01 X-0.5826 Y0.2081  F40    
G01 X-0.5961 Y0.2081  
G01 X-0.5961 Y0.1919  
G01 X-0.5826 Y0.1919  
G01 X-0.5581 Y0.1674  
G01 X-0.5581 Y0.1326  
G01 X-0.5826 Y0.1081  
G01 X-0.6174 Y0.1081  
G01 X-0.6419 Y0.1326  
G01 X-0.6419 Y0.1371  
G01 X-0.6581 Y0.1371  
G01 X-0.6581 Y0.1326  
G01 X-0.6826 Y0.1081  
G01 X-0.7174 Y0.1081  
G01 X-0.7419 Y0.1326  
G01 X-0.7419 Y0.1371  
G01 X-0.7581 Y0.1371  
G01 X-0.7581 Y0.1326  
G01 X-0.7826 Y0.1081  
G01 X-0.8174 Y0.1081  
G01 X-0.8194 Y0.1101  
G01 X-0.8543 Y0.0752  
G01 X-0.8572 Y0.0723  
G01 X-0.8609 Y0.0702  
G01 X-0.8649 Y0.0691  
G01 X-1.7871 Y0.0691  
G01 X-1.7911 Y0.0702  
G01 X-1.7948 Y0.0723  
G01 X-1.9346 Y0.2121  
G01 X-1.9657 Y0.2121  
G01 X-1.9879 Y0.2343  
G01 X-1.9879 Y0.2654  
G01 X-2.0527 Y0.3302  
G01 X-2.0548 Y0.3339  
G01 X-2.0559 Y0.3379  
G01 X-2.0559 Y0.5791  
G01 X-2.0761 Y0.5791  
G01 X-2.0801 Y0.5802  
G01 X-2.0838 Y0.5823  
G01 X-2.4748 Y0.9733  
G01 X-2.4777 Y0.9762  
G01 X-2.4798 Y0.9799  
G01 X-2.4809 Y0.9839  
G01 X-2.4809 Y1.0901  
G01 X-2.4798 Y1.0941  
G01 X-2.4777 Y1.0978  
G01 X-2.4309 Y1.1446  
G01 X-2.4309 Y1.1628  
G01 X-2.4129 Y1.1808  
G01 X-2.4129 Y1.2091  
G01 X-2.4118 Y1.2131  
G01 X-2.4097 Y1.2168  
G01 X-2.2809 Y1.3456  
G01 X-2.2809 Y1.3628  
G01 X-2.2769 Y1.3668  
G01 X-2.2769 Y1.5574  
G01 X-2.2886 Y1.5691  
G01 X-2.3128 Y1.5691  
G01 X-2.3309 Y1.5872  
G01 X-2.3309 Y1.6114  
G01 X-2.3757 Y1.6562  
G01 X-2.3778 Y1.6599  
G01 X-2.3789 Y1.6639  
G01 X-2.3789 Y2.1130  
G01 X-2.3797 Y2.1150  
G01 X-2.3809 Y2.1210  
G01 X-2.3809 Y2.1790  
G01 X-2.3797 Y2.1850  
G01 X-2.3774 Y2.1906  
G01 X-2.3740 Y2.1957  
G01 X-2.3697 Y2.2000  
G01 X-2.3646 Y2.2034  
G01 X-2.3590 Y2.2057  
G01 X-2.3530 Y2.2069  
G01 X-2.3470 Y2.2069  
G01 X-2.3410 Y2.2057  
G01 X-2.3354 Y2.2034  
G01 X-2.3303 Y2.2000  
G01 X-2.3289 Y2.1986  
G01 X-2.2878 Y2.2397  
G01 X-2.2841 Y2.2418  
G01 X-2.2801 Y2.2429  
G01 X-2.0209 Y2.2429  
G01 X-2.0169 Y2.2418  
G01 X-2.0132 Y2.2397  
G01 X-2.0103 Y2.2368  
G01 X-1.9716 Y2.1981  
G01 X-1.9697 Y2.2000  
G01 X-1.9646 Y2.2034  
G01 X-1.9590 Y2.2057  
G01 X-1.9530 Y2.2069  
G01 X-1.9470 Y2.2069  
G01 X-1.9410 Y2.2057  
G01 X-1.9354 Y2.2034  
G01 X-1.9303 Y2.2000  
G01 X-1.9260 Y2.1957  
G01 X-1.9226 Y2.1906  
G01 X-1.9203 Y2.1850  
G01 X-1.9191 Y2.1790  
G01 X-1.9191 Y2.1210  
G01 X-1.9203 Y2.1150  
G01 X-1.9226 Y2.1094  
G01 X-1.9260 Y2.1043  
G01 X-1.9303 Y2.1000  
G01 X-1.9354 Y2.0966  
G01 X-1.9410 Y2.0943  
G01 X-1.9470 Y2.0931  
G01 X-1.9530 Y2.0931  
G01 X-1.9590 Y2.0943  
G01 X-1.9646 Y2.0966  
G01 X-1.9697 Y2.1000  
G01 X-1.9740 Y2.1043  
G01 X-1.9774 Y2.1094  
G01 X-1.9797 Y2.1150  
G01 X-1.9809 Y2.1210  
G01 X-1.9809 Y2.1624  
G01 X-2.0296 Y2.2111  
G01 X-2.2714 Y2.2111  
G01 X-2.3191 Y2.1634  
G01 X-2.3191 Y2.1210  
G01 X-2.3203 Y2.1150  
G01 X-2.3226 Y2.1094  
G01 X-2.3260 Y2.1043  
G01 X-2.3303 Y2.1000  
G01 X-2.3354 Y2.0966  
G01 X-2.3410 Y2.0943  
G01 X-2.3470 Y2.0931  
G01 X-2.3471 Y2.0931  
G01 X-2.3471 Y1.6726  
G01 X-2.3054 Y1.6309  
G01 X-2.2872 Y1.6309  
G01 X-2.2691 Y1.6128  
G01 X-2.2691 Y1.5946  
G01 X-2.2610 Y1.5865  
G01 X-2.1178 Y1.7297  
G01 X-2.1141 Y1.7318  
G01 X-2.1101 Y1.7329  
G01 X-1.8339 Y1.7329  
G01 X-1.8299 Y1.7318  
G01 X-1.8262 Y1.7297  
G01 X-1.8233 Y1.7268  
G01 X-1.5003 Y1.4038  
G01 X-1.4982 Y1.4001  
G01 X-1.4971 Y1.3961  
G01 X-1.4971 Y1.1809  
G01 X-1.4970 Y1.1809  
G01 X-1.4910 Y1.1797  
G01 X-1.4854 Y1.1774  
G01 X-1.4803 Y1.1740  
G01 X-1.4760 Y1.1697  
G01 X-1.4726 Y1.1646  
G01 X-1.4703 Y1.1590  
G01 X-1.4691 Y1.1530  
G01 X-1.4691 Y1.1470  
G01 X-1.4703 Y1.1410  
G01 X-1.4718 Y1.1373  
G01 X-1.3024 Y0.9679  
G01 X-1.0758 Y0.9679  
G01 X-1.0628 Y0.9809  
G01 X-1.0529 Y0.9809  
G01 X-1.0529 Y0.9881  
G01 X-1.0518 Y0.9921  
G01 X-1.0497 Y0.9958  
G01 X-1.0019 Y1.0436  
G01 X-1.0019 Y1.7274  
G01 X-1.0936 Y1.8191  
G01 X-1.1128 Y1.8191  
G01 X-1.1308 Y1.8371  
G01 X-1.2621 Y1.8371  
G01 X-1.2621 Y1.8343  
G01 X-1.2843 Y1.8121  
G01 X-1.3157 Y1.8121  
G01 X-1.3379 Y1.8343  
G01 X-1.3379 Y1.8371  
G01 X-1.5601 Y1.8371  
G01 X-1.5601 Y1.8335  
G01 X-1.5835 Y1.8101  
G01 X-1.6165 Y1.8101  
G01 X-1.6399 Y1.8335  
G01 X-1.6399 Y1.8554  
G01 X-1.7467 Y1.9622  
G01 X-1.7488 Y1.9659  
G01 X-1.7499 Y1.9699  
G01 X-1.7499 Y2.0931  
G01 X-1.7530 Y2.0931  
G01 X-1.7590 Y2.0943  
G01 X-1.7646 Y2.0966  
G01 X-1.7697 Y2.1000  
G01 X-1.7740 Y2.1043  
G01 X-1.7774 Y2.1094  
G01 X-1.7797 Y2.1150  
G01 X-1.7809 Y2.1210  
G01 X-1.7809 Y2.1790  
G01 X-1.7797 Y2.1850  
G01 X-1.7774 Y2.1906  
G01 X-1.7740 Y2.1957  
G01 X-1.7697 Y2.2000  
G01 X-1.7646 Y2.2034  
G01 X-1.7590 Y2.2057  
G01 X-1.7530 Y2.2069  
G01 X-1.7470 Y2.2069  
G01 X-1.7410 Y2.2057  
G01 X-1.7354 Y2.2034  
G01 X-1.7316 Y2.2009  
G01 X-1.5228 Y2.4097  
G01 X-1.5191 Y2.4118  
G01 X-1.5151 Y2.4129  
G01 X-1.4169 Y2.4129  
G01 X-1.4169 Y2.4277  
G01 X-1.3777 Y2.4669  
G01 X-1.3223 Y2.4669  
G01 X-1.2831 Y2.4277  
G01 X-1.2831 Y2.3723  
G01 X-1.3223 Y2.3331  
G01 X-1.3777 Y2.3331  
G01 X-1.4169 Y2.3723  
G01 X-1.4169 Y2.3811  
G01 X-1.5064 Y2.3811  
G01 X-1.7191 Y2.1684  
G01 X-1.7191 Y2.1478  
G01 X-1.7188 Y2.1466  
G01 X-1.7183 Y2.1450  
G01 X-1.7182 Y2.1446  
G01 X-1.7181 Y2.1441  
G01 X-1.7181 Y2.1425  
G01 X-1.7180 Y2.1409  
G01 X-1.7181 Y2.1404  
G01 X-1.7181 Y2.0899  
G01 X-1.6216 Y2.0899  
G01 X-1.4548 Y2.2567  
G01 X-1.4511 Y2.2588  
G01 X-1.4471 Y2.2599  
G01 X-1.3326 Y2.2599  
G01 X-0.8428 Y2.7497  
G01 X-0.8391 Y2.7518  
G01 X-0.8351 Y2.7529  
G01 X-0.5479 Y2.7529  
G01 X-0.5479 Y2.7698  
G01 X-0.5198 Y2.7979  
G01 X-0.4802 Y2.7979  
G01 X-0.4521 Y2.7698  
G01 X-0.4521 Y2.7302  
G01 X-0.4802 Y2.7021  
G01 X-0.5198 Y2.7021  
G01 X-0.5388 Y2.7211  
G01 X-0.8264 Y2.7211  
G01 X-1.3133 Y2.2342  
G01 X-1.3162 Y2.2313  
G01 X-1.3199 Y2.2292  
G01 X-1.3239 Y2.2281  
G01 X-1.4384 Y2.2281  
G01 X-1.6023 Y2.0642  
G01 X-1.6052 Y2.0613  
G01 X-1.6089 Y2.0592  
G01 X-1.6129 Y2.0581  
G01 X-1.7181 Y2.0581  
G01 X-1.7181 Y1.9786  
G01 X-1.6230 Y1.8835  
G01 X-1.6165 Y1.8899  
G01 X-1.5835 Y1.8899  
G01 X-1.5625 Y1.8689  
G01 X-1.3347 Y1.8689  
G01 X-1.3157 Y1.8879  
G01 X-1.2843 Y1.8879  
G01 X-1.2653 Y1.8689  
G01 X-1.1248 Y1.8689  
G01 X-1.1128 Y1.8809  
G01 X-1.0872 Y1.8809  
G01 X-1.0691 Y1.8628  
G01 X-1.0691 Y1.8396  
G01 X-0.9733 Y1.7438  
G01 X-0.9712 Y1.7401  
G01 X-0.9701 Y1.7361  
G01 X-0.9701 Y1.0349  
G01 X-0.9712 Y1.0309  
G01 X-0.9733 Y1.0272  
G01 X-0.9762 Y1.0243  
G01 X-1.0211 Y0.9794  
G01 X-1.0211 Y0.9648  
G01 X-1.0191 Y0.9628  
G01 X-1.0191 Y0.9372  
G01 X-1.0372 Y0.9191  
G01 X-1.0628 Y0.9191  
G01 X-1.0798 Y0.9361  
G01 X-1.3111 Y0.9361  
G01 X-1.3151 Y0.9372  
G01 X-1.3188 Y0.9393  
G01 X-1.4986 Y1.1191  
G01 X-1.5030 Y1.1191  
G01 X-1.5090 Y1.1203  
G01 X-1.5146 Y1.1226  
G01 X-1.5197 Y1.1260  
G01 X-1.5240 Y1.1303  
G01 X-1.5274 Y1.1354  
G01 X-1.5297 Y1.1410  
G01 X-1.5309 Y1.1470  
G01 X-1.5309 Y1.1530  
G01 X-1.5297 Y1.1590  
G01 X-1.5289 Y1.1610  
G01 X-1.5289 Y1.3874  
G01 X-1.8426 Y1.7011  
G01 X-2.1014 Y1.7011  
G01 X-2.2451 Y1.5574  
G01 X-2.2451 Y1.3809  
G01 X-2.2372 Y1.3809  
G01 X-2.2191 Y1.3628  
G01 X-2.2191 Y1.3372  
G01 X-2.2372 Y1.3191  
G01 X-2.2624 Y1.3191  
G01 X-2.3811 Y1.2004  
G01 X-2.3811 Y1.1748  
G01 X-2.3691 Y1.1628  
G01 X-2.3691 Y1.1372  
G01 X-2.3872 Y1.1191  
G01 X-2.4114 Y1.1191  
G01 X-2.4491 Y1.0814  
G01 X-2.4491 Y0.9926  
G01 X-2.0674 Y0.6109  
G01 X-2.0466 Y0.6109  
G01 X-1.8009 Y0.8566  
G01 X-1.8009 Y0.9201  
G01 X-1.7998 Y0.9241  
G01 X-1.7977 Y0.9278  
G01 X-1.7948 Y0.9307  
G01 X-1.6809 Y1.0446  
G01 X-1.6809 Y1.0628  
G01 X-1.6628 Y1.0809  
G01 X-1.6372 Y1.0809  
G01 X-1.6191 Y1.0628  
G01 X-1.6191 Y1.0372  
G01 X-1.6372 Y1.0191  
G01 X-1.6614 Y1.0191  
G01 X-1.7691 Y0.9114  
G01 X-1.7691 Y0.8479  
G01 X-1.7702 Y0.8439  
G01 X-1.7723 Y0.8402  
G01 X-2.0241 Y0.5884  
G01 X-2.0241 Y0.3466  
G01 X-1.9654 Y0.2879  
G01 X-1.9343 Y0.2879  
G01 X-1.9121 Y0.2657  
G01 X-1.9121 Y0.2346  
G01 X-1.7784 Y0.1009  
G01 X-0.8736 Y0.1009  
G01 X-0.8419 Y0.1326  
G01 X-0.8419 Y0.1674  
G01 X-0.8174 Y0.1919  
G01 X-0.7826 Y0.1919  
G01 X-0.7596 Y0.1689  
G01 X-0.7404 Y0.1689  
G01 X-0.7299 Y0.1794  
G01 X-0.7299 Y0.2206  
G01 X-0.7419 Y0.2326  
G01 X-0.7419 Y0.2391  
G01 X-0.7581 Y0.2391  
G01 X-0.7581 Y0.2326  
G01 X-0.7826 Y0.2081  
G01 X-0.8174 Y0.2081  
G01 X-0.8419 Y0.2326  
G01 X-0.8419 Y0.2674  
G01 X-0.8174 Y0.2919  
G01 X-0.8149 Y0.2919  
G01 X-0.8149 Y0.4509  
G01 X-0.8481 Y0.4509  
G01 X-0.8558 Y0.4521  
G01 X-0.8631 Y0.4545  
G01 X-0.8700 Y0.4580  
G01 X-0.8763 Y0.4625  
G01 X-0.8817 Y0.4680  
G01 X-0.8863 Y0.4742  
G01 X-0.8898 Y0.4811  
G01 X-0.8922 Y0.4885  
G01 X-0.8934 Y0.4961  
G01 X-0.8934 Y0.5039  
G01 X-0.8922 Y0.5115  
G01 X-0.8898 Y0.5189  
G01 X-0.8863 Y0.5258  
G01 X-0.8817 Y0.5320  
G01 X-0.8763 Y0.5375  
G01 X-0.8700 Y0.5420  
G01 X-0.8631 Y0.5455  
G01 X-0.8558 Y0.5479  
G01 X-0.8481 Y0.5491  
G01 X-0.7519 Y0.5491  
G01 X-0.7442 Y0.5479  
G01 X-0.7369 Y0.5455  
G01 X-0.7300 Y0.5420  
G01 X-0.7237 Y0.5375  
G01 X-0.7183 Y0.5320  
G01 X-0.7137 Y0.5258  
G01 X-0.7102 Y0.5189  
G01 X-0.7078 Y0.5115  
G01 X-0.7066 Y0.5039  
G01 X-0.7066 Y0.4961  
G01 X-0.7078 Y0.4885  
G01 X-0.7102 Y0.4811  
G01 X-0.7137 Y0.4742  
G01 X-0.7183 Y0.4680  
G01 X-0.7237 Y0.4625  
G01 X-0.7300 Y0.4580  
G01 X-0.7369 Y0.4545  
G01 X-0.7442 Y0.4521  
G01 X-0.7519 Y0.4509  
G01 X-0.7831 Y0.4509  
G01 X-0.7831 Y0.2919  
G01 X-0.7826 Y0.2919  
G01 X-0.7616 Y0.2709  
G01 X-0.7384 Y0.2709  
G01 X-0.7174 Y0.2919  
G01 X-0.6826 Y0.2919  
G01 X-0.6581 Y0.2674  
G01 X-0.6581 Y0.2326  
G01 X-0.6826 Y0.2081  
G01 X-0.6981 Y0.2081  
G01 X-0.6981 Y0.1919  
G01 X-0.6826 Y0.1919  
G01 X-0.6596 Y0.1689  
G01 X-0.6404 Y0.1689  
G01 X-0.6279 Y0.1814  
G01 X-0.6279 Y0.2186  
G01 X-0.6419 Y0.2326  
G01 X-0.6419 Y0.2674  
G01 X-0.6174 Y0.2919  
G01 X-0.6109 Y0.2919  
G01 X-0.6109 Y0.3591  
G01 X-0.6098 Y0.3631  
G01 X-0.6077 Y0.3668  
G01 X-0.2677 Y0.7068  
G01 X-0.2700 Y0.7080  
G01 X-0.2763 Y0.7125  
G01 X-0.2817 Y0.7180  
G01 X-0.2863 Y0.7242  
G01 X-0.2898 Y0.7311  
G01 X-0.2922 Y0.7385  
G01 X-0.2934 Y0.7461  
G01 X-0.2934 Y0.7539  
G01 X-0.2922 Y0.7615  
G01 X-0.2898 Y0.7689  
G01 X-0.2863 Y0.7758  
G01 X-0.2817 Y0.7820  
G01 X-0.2763 Y0.7875  
G01 X-0.2700 Y0.7920  
G01 X-0.2631 Y0.7955  
G01 X-0.2558 Y0.7979  
G01 X-0.2481 Y0.7991  
G01 X-0.2199 Y0.7991  
G01 X-0.2199 Y0.8944  
G01 X-0.4151 Y1.0896  
G01 X-0.4221 Y1.0826  
G01 X-0.4779 Y1.0826  
G01 X-0.5174 Y1.1221  
G01 X-0.5174 Y1.1779  
G01 X-0.4779 Y1.2174  
G01 X-0.4749 Y1.2174  
G01 X-0.4749 Y1.3826  
G01 X-0.4779 Y1.3826  
G01 X-0.5174 Y1.4221  
G01 X-0.5174 Y1.4779  
G01 X-0.4779 Y1.5174  
G01 X-0.4221 Y1.5174  
G01 X-0.3826 Y1.4779  
G01 X-0.3826 Y1.4221  
G01 X-0.4221 Y1.3826  
G01 X-0.4431 Y1.3826  
G01 X-0.4431 Y1.2174  
G01 X-0.4221 Y1.2174  
G01 X-0.3826 Y1.1779  
G01 X-0.3826 Y1.1221  
G01 X-0.3926 Y1.1121  
G01 X-0.1913 Y0.9108  
G01 X-0.1892 Y0.9071  
G01 X-0.1881 Y0.9031  
G01 X-0.1881 Y0.7991  
G01 X-0.1519 Y0.7991  
G01 X-0.1442 Y0.7979  
G01 X-0.1369 Y0.7955  
G01 X-0.1300 Y0.7920  
G01 X-0.1237 Y0.7875  
G01 X-0.1183 Y0.7820  
G01 X-0.1137 Y0.7758  
G01 X-0.1102 Y0.7689  
G01 X-0.1078 Y0.7615  
G01 X-0.1066 Y0.7539  
G01 X-0.1066 Y0.7461  
G01 X-0.1078 Y0.7385  
G01 X-0.1102 Y0.7311  
G01 X-0.1137 Y0.7242  
G01 X-0.1183 Y0.7180  
G01 X-0.1237 Y0.7125  
G01 X-0.1300 Y0.7080  
G01 X-0.1369 Y0.7045  
G01 X-0.1442 Y0.7021  
G01 X-0.1519 Y0.7009  
G01 X-0.2287 Y0.7009  
G01 X-0.5791 Y0.3504  
G01 X-0.5791 Y0.2884  
G01 X-0.5581 Y0.2674  
G01 X-0.5581 Y0.2326  
G00 Z0.1000  
G00 X-0.8581 Y0.2326  
G01 Z-0.0027 F10    
G01 X-0.8826 Y0.2081  F40    
G01 X-0.8851 Y0.2081  
G01 X-0.8851 Y0.1919  
G01 X-0.8826 Y0.1919  
G01 X-0.8581 Y0.1674  
G01 X-0.8581 Y0.1326  
G01 X-0.8826 Y0.1081  
G01 X-0.9174 Y0.1081  
G01 X-0.9419 Y0.1326  
G01 X-0.9419 Y0.1674  
G01 X-0.9174 Y0.1919  
G01 X-0.9169 Y0.1919  
G01 X-0.9169 Y0.2081  
G01 X-0.9174 Y0.2081  
G01 X-0.9419 Y0.2326  
G01 X-0.9419 Y0.2674  
G01 X-0.9339 Y0.2754  
G01 X-0.9339 Y0.4771  
G01 X-1.9911 Y0.4771  
G01 X-1.9951 Y0.4782  
G01 X-1.9988 Y0.4803  
G01 X-2.0017 Y0.4832  
G01 X-2.0187 Y0.5002  
G01 X-2.0208 Y0.5039  
G01 X-2.0219 Y0.5079  
G01 X-2.0219 Y0.5801  
G01 X-2.0208 Y0.5841  
G01 X-2.0187 Y0.5878  
G01 X-2.0158 Y0.5907  
G01 X-1.7669 Y0.8396  
G01 X-1.7669 Y0.8521  
G01 X-1.7658 Y0.8561  
G01 X-1.7637 Y0.8598  
G01 X-1.7608 Y0.8627  
G01 X-1.6809 Y0.9426  
G01 X-1.6809 Y0.9628  
G01 X-1.6628 Y0.9809  
G01 X-1.6372 Y0.9809  
G01 X-1.6191 Y0.9628  
G01 X-1.6191 Y0.9372  
G01 X-1.6239 Y0.9324  
G01 X-1.5574 Y0.8659  
G01 X-1.5265 Y0.8659  
G01 X-1.5240 Y0.8697  
G01 X-1.5197 Y0.8740  
G01 X-1.5146 Y0.8774  
G01 X-1.5090 Y0.8797  
G01 X-1.5030 Y0.8809  
G01 X-1.4970 Y0.8809  
G01 X-1.4910 Y0.8797  
G01 X-1.4854 Y0.8774  
G01 X-1.4803 Y0.8740  
G01 X-1.4760 Y0.8697  
G01 X-1.4726 Y0.8646  
G01 X-1.4703 Y0.8590  
G01 X-1.4691 Y0.8530  
G01 X-1.4691 Y0.8470  
G01 X-1.4703 Y0.8410  
G01 X-1.4726 Y0.8354  
G01 X-1.4760 Y0.8303  
G01 X-1.4803 Y0.8260  
G01 X-1.4854 Y0.8226  
G01 X-1.4910 Y0.8203  
G01 X-1.4970 Y0.8191  
G01 X-1.5030 Y0.8191  
G01 X-1.5090 Y0.8203  
G01 X-1.5146 Y0.8226  
G01 X-1.5197 Y0.8260  
G01 X-1.5240 Y0.8303  
G01 X-1.5265 Y0.8341  
G01 X-1.5661 Y0.8341  
G01 X-1.5701 Y0.8352  
G01 X-1.5738 Y0.8373  
G01 X-1.6556 Y0.9191  
G01 X-1.6594 Y0.9191  
G01 X-1.7351 Y0.8434  
G01 X-1.7351 Y0.8309  
G01 X-1.7362 Y0.8269  
G01 X-1.7383 Y0.8232  
G01 X-1.7412 Y0.8203  
G01 X-1.9901 Y0.5714  
G01 X-1.9901 Y0.5166  
G01 X-1.9824 Y0.5089  
G01 X-0.9339 Y0.5089  
G01 X-0.9339 Y0.5291  
G01 X-0.9328 Y0.5331  
G01 X-0.9307 Y0.5368  
G01 X-0.9278 Y0.5397  
G01 X-0.8319 Y0.6356  
G01 X-0.8319 Y0.7009  
G01 X-0.8481 Y0.7009  
G01 X-0.8558 Y0.7021  
G01 X-0.8631 Y0.7045  
G01 X-0.8700 Y0.7080  
G01 X-0.8763 Y0.7125  
G01 X-0.8817 Y0.7180  
G01 X-0.8863 Y0.7242  
G01 X-0.8898 Y0.7311  
G01 X-0.8922 Y0.7385  
G01 X-0.8934 Y0.7461  
G01 X-0.8934 Y0.7539  
G01 X-0.8922 Y0.7615  
G01 X-0.8898 Y0.7689  
G01 X-0.8863 Y0.7758  
G01 X-0.8817 Y0.7820  
G01 X-0.8763 Y0.7875  
G01 X-0.8700 Y0.7920  
G01 X-0.8631 Y0.7955  
G01 X-0.8558 Y0.7979  
G01 X-0.8481 Y0.7991  
G01 X-0.7519 Y0.7991  
G01 X-0.7442 Y0.7979  
G01 X-0.7369 Y0.7955  
G01 X-0.7300 Y0.7920  
G01 X-0.7237 Y0.7875  
G01 X-0.7183 Y0.7820  
G01 X-0.7137 Y0.7758  
G01 X-0.7102 Y0.7689  
G01 X-0.7078 Y0.7615  
G01 X-0.7066 Y0.7539  
G01 X-0.7066 Y0.7461  
G01 X-0.7078 Y0.7385  
G01 X-0.7102 Y0.7311  
G01 X-0.7137 Y0.7242  
G01 X-0.7183 Y0.7180  
G01 X-0.7237 Y0.7125  
G01 X-0.7300 Y0.7080  
G01 X-0.7369 Y0.7045  
G01 X-0.7442 Y0.7021  
G01 X-0.7519 Y0.7009  
G01 X-0.8001 Y0.7009  
G01 X-0.8001 Y0.6269  
G01 X-0.8012 Y0.6229  
G01 X-0.8033 Y0.6192  
G01 X-0.9021 Y0.5204  
G01 X-0.9021 Y0.2919  
G01 X-0.8826 Y0.2919  
G01 X-0.8581 Y0.2674  
G01 X-0.8581 Y0.2326  
G00 Z0.1000  
G00 X-0.9053 Y0.7892  
G01 Z-0.0027 F10    
G01 X-1.1093 Y0.5852  F40    
G01 X-1.1122 Y0.5823  
G01 X-1.1159 Y0.5802  
G01 X-1.1199 Y0.5791  
G01 X-1.1751 Y0.5791  
G01 X-1.1791 Y0.5802  
G01 X-1.1828 Y0.5823  
G01 X-1.2168 Y0.6163  
G01 X-1.2197 Y0.6192  
G01 X-1.2218 Y0.6229  
G01 X-1.2229 Y0.6269  
G01 X-1.2229 Y0.8292  
G01 X-1.2240 Y0.8303  
G01 X-1.2265 Y0.8341  
G01 X-1.2735 Y0.8341  
G01 X-1.2760 Y0.8303  
G01 X-1.2803 Y0.8260  
G01 X-1.2854 Y0.8226  
G01 X-1.2910 Y0.8203  
G01 X-1.2970 Y0.8191  
G01 X-1.3030 Y0.8191  
G01 X-1.3090 Y0.8203  
G01 X-1.3146 Y0.8226  
G01 X-1.3197 Y0.8260  
G01 X-1.3240 Y0.8303  
G01 X-1.3274 Y0.8354  
G01 X-1.3297 Y0.8410  
G01 X-1.3309 Y0.8470  
G01 X-1.3309 Y0.8494  
G01 X-1.5706 Y1.0891  
G01 X-1.6594 Y1.0891  
G01 X-1.8201 Y0.9284  
G01 X-1.8201 Y0.9138  
G01 X-1.8191 Y0.9128  
G01 X-1.8191 Y0.8872  
G01 X-1.8372 Y0.8691  
G01 X-1.8628 Y0.8691  
G01 X-1.8809 Y0.8872  
G01 X-1.8809 Y0.9128  
G01 X-1.8628 Y0.9309  
G01 X-1.8519 Y0.9309  
G01 X-1.8519 Y0.9371  
G01 X-1.8508 Y0.9411  
G01 X-1.8487 Y0.9448  
G01 X-1.6787 Y1.1148  
G01 X-1.6758 Y1.1177  
G01 X-1.6721 Y1.1198  
G01 X-1.6681 Y1.1209  
G01 X-1.5799 Y1.1209  
G01 X-1.5799 Y1.1581  
G01 X-1.5788 Y1.1621  
G01 X-1.5767 Y1.1658  
G01 X-1.5738 Y1.1687  
G01 X-1.5629 Y1.1796  
G01 X-1.5629 Y1.3704  
G01 X-1.8596 Y1.6671  
G01 X-2.0164 Y1.6671  
G01 X-2.0411 Y1.6424  
G01 X-2.0411 Y1.5536  
G01 X-2.0164 Y1.5289  
G01 X-2.0039 Y1.5289  
G01 X-1.9999 Y1.5278  
G01 X-1.9962 Y1.5257  
G01 X-1.9933 Y1.5228  
G01 X-1.8514 Y1.3809  
G01 X-1.8372 Y1.3809  
G01 X-1.8191 Y1.3628  
G01 X-1.8191 Y1.3372  
G01 X-1.8372 Y1.3191  
G01 X-1.8628 Y1.3191  
G01 X-1.8809 Y1.3372  
G01 X-1.8809 Y1.3628  
G01 X-1.8796 Y1.3641  
G01 X-2.0126 Y1.4971  
G01 X-2.0251 Y1.4971  
G01 X-2.0291 Y1.4982  
G01 X-2.0328 Y1.5003  
G01 X-2.0357 Y1.5032  
G01 X-2.0668 Y1.5343  
G01 X-2.0697 Y1.5372  
G01 X-2.0718 Y1.5409  
G01 X-2.0729 Y1.5449  
G01 X-2.0729 Y1.6511  
G01 X-2.0718 Y1.6551  
G01 X-2.0697 Y1.6588  
G01 X-2.0357 Y1.6928  
G01 X-2.0328 Y1.6957  
G01 X-2.0291 Y1.6978  
G01 X-2.0251 Y1.6989  
G01 X-1.8509 Y1.6989  
G01 X-1.8469 Y1.6978  
G01 X-1.8432 Y1.6957  
G01 X-1.5372 Y1.3897  
G01 X-1.5343 Y1.3868  
G01 X-1.5322 Y1.3831  
G01 X-1.5311 Y1.3791  
G01 X-1.5311 Y1.1709  
G01 X-1.5322 Y1.1669  
G01 X-1.5343 Y1.1632  
G01 X-1.5481 Y1.1494  
G01 X-1.5481 Y1.1116  
G01 X-1.3141 Y0.8776  
G01 X-1.3090 Y0.8797  
G01 X-1.3030 Y0.8809  
G01 X-1.2970 Y0.8809  
G01 X-1.2910 Y0.8797  
G01 X-1.2854 Y0.8774  
G01 X-1.2803 Y0.8740  
G01 X-1.2760 Y0.8697  
G01 X-1.2735 Y0.8659  
G01 X-1.2265 Y0.8659  
G01 X-1.2240 Y0.8697  
G01 X-1.2197 Y0.8740  
G01 X-1.2146 Y0.8774  
G01 X-1.2090 Y0.8797  
G01 X-1.2030 Y0.8809  
G01 X-1.1970 Y0.8809  
G01 X-1.1910 Y0.8797  
G01 X-1.1854 Y0.8774  
G01 X-1.1803 Y0.8740  
G01 X-1.1760 Y0.8697  
G01 X-1.1726 Y0.8646  
G01 X-1.1703 Y0.8590  
G01 X-1.1691 Y0.8530  
G01 X-1.1691 Y0.8470  
G01 X-1.1703 Y0.8410  
G01 X-1.1726 Y0.8354  
G01 X-1.1760 Y0.8303  
G01 X-1.1803 Y0.8260  
G01 X-1.1854 Y0.8226  
G01 X-1.1910 Y0.8203  
G01 X-1.1911 Y0.8203  
G01 X-1.1911 Y0.6356  
G01 X-1.1664 Y0.6109  
G01 X-1.1286 Y0.6109  
G01 X-0.9339 Y0.8056  
G01 X-0.9339 Y1.4131  
G01 X-0.9328 Y1.4171  
G01 X-0.9307 Y1.4208  
G01 X-0.9278 Y1.4237  
G01 X-0.4749 Y1.8766  
G01 X-0.4749 Y2.0879  
G01 X-0.4797 Y2.0899  
G01 X-0.4872 Y2.0943  
G01 X-0.4942 Y2.0996  
G01 X-0.5004 Y2.1058  
G01 X-0.5057 Y2.1128  
G01 X-0.5101 Y2.1203  
G01 X-0.5135 Y2.1284  
G01 X-0.5158 Y2.1369  
G01 X-0.5169 Y2.1456  
G01 X-0.5169 Y2.1544  
G01 X-0.5158 Y2.1631  
G01 X-0.5135 Y2.1716  
G01 X-0.5101 Y2.1797  
G01 X-0.5057 Y2.1872  
G01 X-0.5004 Y2.1942  
G01 X-0.4942 Y2.2004  
G01 X-0.4872 Y2.2057  
G01 X-0.4797 Y2.2101  
G01 X-0.4716 Y2.2135  
G01 X-0.4631 Y2.2158  
G01 X-0.4544 Y2.2169  
G01 X-0.4456 Y2.2169  
G01 X-0.4369 Y2.2158  
G01 X-0.4284 Y2.2135  
G01 X-0.4203 Y2.2101  
G01 X-0.4128 Y2.2057  
G01 X-0.4058 Y2.2004  
G01 X-0.3996 Y2.1942  
G01 X-0.3943 Y2.1872  
G01 X-0.3899 Y2.1797  
G01 X-0.3865 Y2.1716  
G01 X-0.3842 Y2.1631  
G01 X-0.3831 Y2.1544  
G01 X-0.3831 Y2.1456  
G01 X-0.3842 Y2.1369  
G01 X-0.3865 Y2.1284  
G01 X-0.3899 Y2.1203  
G01 X-0.3943 Y2.1128  
G01 X-0.3996 Y2.1058  
G01 X-0.4058 Y2.0996  
G01 X-0.4128 Y2.0943  
G01 X-0.4203 Y2.0899  
G01 X-0.4284 Y2.0865  
G01 X-0.4369 Y2.0842  
G01 X-0.4431 Y2.0834  
G01 X-0.4431 Y1.8679  
G01 X-0.4442 Y1.8639  
G01 X-0.4463 Y1.8602  
G01 X-0.9021 Y1.4044  
G01 X-0.9021 Y0.7969  
G01 X-0.9032 Y0.7929  
G01 X-0.9053 Y0.7892  
G00 Z0.1000  
G00 X-0.9393 Y0.9592  
G01 Z-0.0027 F10    
G01 X-0.9422 Y0.9563  F40    
G01 X-1.1231 Y0.7754  
G01 X-1.1231 Y0.6668  
G01 X-1.1191 Y0.6628  
G01 X-1.1191 Y0.6372  
G01 X-1.1372 Y0.6191  
G01 X-1.1628 Y0.6191  
G01 X-1.1809 Y0.6372  
G01 X-1.1809 Y0.6628  
G01 X-1.1628 Y0.6809  
G01 X-1.1549 Y0.6809  
G01 X-1.1549 Y0.7841  
G01 X-1.1538 Y0.7881  
G01 X-1.1517 Y0.7918  
G01 X-0.9679 Y0.9756  
G01 X-0.9679 Y1.6171  
G01 X-0.9668 Y1.6211  
G01 X-0.9647 Y1.6248  
G01 X-0.5599 Y2.0296  
G01 X-0.5599 Y2.6031  
G01 X-0.5588 Y2.6071  
G01 X-0.5567 Y2.6108  
G01 X-0.4426 Y2.7249  
G01 X-0.4479 Y2.7302  
G01 X-0.4479 Y2.7698  
G01 X-0.4198 Y2.7979  
G01 X-0.3802 Y2.7979  
G01 X-0.3521 Y2.7698  
G01 X-0.3521 Y2.7302  
G01 X-0.3802 Y2.7021  
G01 X-0.4198 Y2.7021  
G01 X-0.4201 Y2.7024  
G01 X-0.5281 Y2.5944  
G01 X-0.5281 Y2.0209  
G01 X-0.5292 Y2.0169  
G01 X-0.5313 Y2.0132  
G01 X-0.5342 Y2.0103  
G01 X-0.9361 Y1.6084  
G01 X-0.9361 Y0.9669  
G01 X-0.9372 Y0.9629  
G01 X-0.9393 Y0.9592  
G00 Z0.1000  
G00 X-1.2760 Y1.1303  
G01 Z-0.0027 F10    
G01 X-1.2803 Y1.1260  F40    
G01 X-1.2854 Y1.1226  
G01 X-1.2910 Y1.1203  
G01 X-1.2970 Y1.1191  
G01 X-1.3030 Y1.1191  
G01 X-1.3090 Y1.1203  
G01 X-1.3146 Y1.1226  
G01 X-1.3197 Y1.1260  
G01 X-1.3240 Y1.1303  
G01 X-1.3274 Y1.1354  
G01 X-1.3293 Y1.1401  
G01 X-1.3707 Y1.1401  
G01 X-1.3726 Y1.1354  
G01 X-1.3760 Y1.1303  
G01 X-1.3803 Y1.1260  
G01 X-1.3854 Y1.1226  
G01 X-1.3910 Y1.1203  
G01 X-1.3970 Y1.1191  
G01 X-1.4030 Y1.1191  
G01 X-1.4090 Y1.1203  
G01 X-1.4146 Y1.1226  
G01 X-1.4197 Y1.1260  
G01 X-1.4240 Y1.1303  
G01 X-1.4274 Y1.1354  
G01 X-1.4297 Y1.1410  
G01 X-1.4309 Y1.1470  
G01 X-1.4309 Y1.1530  
G01 X-1.4297 Y1.1590  
G01 X-1.4274 Y1.1646  
G01 X-1.4240 Y1.1697  
G01 X-1.4197 Y1.1740  
G01 X-1.4146 Y1.1774  
G01 X-1.4090 Y1.1797  
G01 X-1.4030 Y1.1809  
G01 X-1.3970 Y1.1809  
G01 X-1.3910 Y1.1797  
G01 X-1.3854 Y1.1774  
G01 X-1.3803 Y1.1740  
G01 X-1.3782 Y1.1719  
G01 X-1.3218 Y1.1719  
G01 X-1.3197 Y1.1740  
G01 X-1.3146 Y1.1774  
G01 X-1.3090 Y1.1797  
G01 X-1.3030 Y1.1809  
G01 X-1.2970 Y1.1809  
G01 X-1.2910 Y1.1797  
G01 X-1.2854 Y1.1774  
G01 X-1.2803 Y1.1740  
G01 X-1.2760 Y1.1697  
G01 X-1.2726 Y1.1646  
G01 X-1.2703 Y1.1590  
G01 X-1.2691 Y1.1530  
G01 X-1.2691 Y1.1470  
G01 X-1.2703 Y1.1410  
G01 X-1.2726 Y1.1354  
G01 X-1.2760 Y1.1303  
G00 Z0.1000  
G00 X-1.3803 Y0.8740  
G01 Z-0.0027 F10    
G01 X-1.3760 Y0.8697  F40    
G01 X-1.3726 Y0.8646  
G01 X-1.3703 Y0.8590  
G01 X-1.3691 Y0.8530  
G01 X-1.3691 Y0.8470  
G01 X-1.3703 Y0.8410  
G01 X-1.3726 Y0.8354  
G01 X-1.3760 Y0.8303  
G01 X-1.3803 Y0.8260  
G01 X-1.3854 Y0.8226  
G01 X-1.3910 Y0.8203  
G01 X-1.3951 Y0.8195  
G01 X-1.3951 Y0.7969  
G01 X-1.3962 Y0.7929  
G01 X-1.3983 Y0.7892  
G01 X-1.5219 Y0.6656  
G01 X-1.5191 Y0.6628  
G01 X-1.5191 Y0.6372  
G01 X-1.5372 Y0.6191  
G01 X-1.5628 Y0.6191  
G01 X-1.5656 Y0.6219  
G01 X-1.6392 Y0.5483  
G01 X-1.6429 Y0.5462  
G01 X-1.6469 Y0.5451  
G01 X-1.9121 Y0.5451  
G01 X-1.9121 Y0.5343  
G01 X-1.9343 Y0.5121  
G01 X-1.9657 Y0.5121  
G01 X-1.9879 Y0.5343  
G01 X-1.9879 Y0.5657  
G01 X-1.9657 Y0.5879  
G01 X-1.9343 Y0.5879  
G01 X-1.9233 Y0.5769  
G01 X-1.6556 Y0.5769  
G01 X-1.5809 Y0.6516  
G01 X-1.5809 Y0.6628  
G01 X-1.5628 Y0.6809  
G01 X-1.5516 Y0.6809  
G01 X-1.4269 Y0.8056  
G01 X-1.4269 Y0.8346  
G01 X-1.4274 Y0.8354  
G01 X-1.4297 Y0.8410  
G01 X-1.4309 Y0.8470  
G01 X-1.4309 Y0.8530  
G01 X-1.4297 Y0.8590  
G01 X-1.4274 Y0.8646  
G01 X-1.4240 Y0.8697  
G01 X-1.4197 Y0.8740  
G01 X-1.4146 Y0.8774  
G01 X-1.4090 Y0.8797  
G01 X-1.4030 Y0.8809  
G01 X-1.3970 Y0.8809  
G01 X-1.3910 Y0.8797  
G01 X-1.3854 Y0.8774  
G01 X-1.3803 Y0.8740  
G00 Z0.1000  
G00 X-1.5691 Y1.3372  
G01 Z-0.0027 F10    
G01 X-1.5872 Y1.3191  F40    
G01 X-1.6128 Y1.3191  
G01 X-1.6146 Y1.3209  
G01 X-1.6533 Y1.2822  
G01 X-1.6562 Y1.2793  
G01 X-2.0982 Y0.8373  
G01 X-2.1019 Y0.8352  
G01 X-2.1059 Y0.8341  
G01 X-2.2801 Y0.8341  
G01 X-2.2841 Y0.8352  
G01 X-2.2878 Y0.8373  
G01 X-2.2907 Y0.8402  
G01 X-2.4097 Y0.9592  
G01 X-2.4118 Y0.9629  
G01 X-2.4129 Y0.9669  
G01 X-2.4129 Y1.0192  
G01 X-2.4309 Y1.0372  
G01 X-2.4309 Y1.0628  
G01 X-2.4128 Y1.0809  
G01 X-2.3872 Y1.0809  
G01 X-2.3691 Y1.0628  
G01 X-2.3691 Y1.0372  
G01 X-2.3811 Y1.0252  
G01 X-2.3811 Y0.9756  
G01 X-2.2714 Y0.8659  
G01 X-2.1146 Y0.8659  
G01 X-1.6970 Y1.2835  
G01 X-1.9727 Y1.5592  
G01 X-1.9760 Y1.5543  
G01 X-1.9803 Y1.5500  
G01 X-1.9854 Y1.5466  
G01 X-1.9910 Y1.5443  
G01 X-1.9970 Y1.5431  
G01 X-2.0030 Y1.5431  
G01 X-2.0090 Y1.5443  
G01 X-2.0146 Y1.5466  
G01 X-2.0197 Y1.5500  
G01 X-2.0240 Y1.5543  
G01 X-2.0274 Y1.5594  
G01 X-2.0297 Y1.5650  
G01 X-2.0309 Y1.5710  
G01 X-2.0309 Y1.6290  
G01 X-2.0297 Y1.6350  
G01 X-2.0274 Y1.6406  
G01 X-2.0240 Y1.6457  
G01 X-2.0197 Y1.6500  
G01 X-2.0146 Y1.6534  
G01 X-2.0090 Y1.6557  
G01 X-2.0030 Y1.6569  
G01 X-1.9970 Y1.6569  
G01 X-1.9910 Y1.6557  
G01 X-1.9854 Y1.6534  
G01 X-1.9803 Y1.6500  
G01 X-1.9760 Y1.6457  
G01 X-1.9726 Y1.6406  
G01 X-1.9703 Y1.6350  
G01 X-1.9691 Y1.6290  
G01 X-1.9691 Y1.6006  
G01 X-1.6764 Y1.3079  
G01 X-1.6726 Y1.3079  
G01 X-1.6309 Y1.3496  
G01 X-1.6309 Y1.3628  
G01 X-1.6128 Y1.3809  
G01 X-1.5872 Y1.3809  
G01 X-1.5691 Y1.3628  
G01 X-1.5691 Y1.3372  
G00 Z0.1000  
G00 X-1.5228 Y1.5513  
G01 Z-0.0027 F10    
G01 X-1.5825 Y1.6110  F40    
G01 X-1.5835 Y1.6101  
G01 X-1.6165 Y1.6101  
G01 X-1.6399 Y1.6335  
G01 X-1.6399 Y1.6501  
G01 X-1.7021 Y1.6501  
G01 X-1.7061 Y1.6512  
G01 X-1.7098 Y1.6533  
G01 X-1.7127 Y1.6562  
G01 X-1.9276 Y1.8711  
G01 X-1.9691 Y1.8711  
G01 X-1.9691 Y1.8710  
G01 X-1.9703 Y1.8650  
G01 X-1.9726 Y1.8594  
G01 X-1.9760 Y1.8543  
G01 X-1.9803 Y1.8500  
G01 X-1.9854 Y1.8466  
G01 X-1.9910 Y1.8443  
G01 X-1.9970 Y1.8431  
G01 X-2.0030 Y1.8431  
G01 X-2.0090 Y1.8443  
G01 X-2.0146 Y1.8466  
G01 X-2.0197 Y1.8500  
G01 X-2.0240 Y1.8543  
G01 X-2.0274 Y1.8594  
G01 X-2.0297 Y1.8650  
G01 X-2.0309 Y1.8710  
G01 X-2.0309 Y1.9290  
G01 X-2.0297 Y1.9350  
G01 X-2.0274 Y1.9406  
G01 X-2.0240 Y1.9457  
G01 X-2.0197 Y1.9500  
G01 X-2.0146 Y1.9534  
G01 X-2.0090 Y1.9557  
G01 X-2.0030 Y1.9569  
G01 X-1.9970 Y1.9569  
G01 X-1.9910 Y1.9557  
G01 X-1.9854 Y1.9534  
G01 X-1.9803 Y1.9500  
G01 X-1.9760 Y1.9457  
G01 X-1.9726 Y1.9406  
G01 X-1.9703 Y1.9350  
G01 X-1.9691 Y1.9290  
G01 X-1.9691 Y1.9029  
G01 X-1.9189 Y1.9029  
G01 X-1.9149 Y1.9018  
G01 X-1.9112 Y1.8997  
G01 X-1.6934 Y1.6819  
G01 X-1.6245 Y1.6819  
G01 X-1.6165 Y1.6899  
G01 X-1.5835 Y1.6899  
G01 X-1.5601 Y1.6665  
G01 X-1.5601 Y1.6336  
G01 X-1.5064 Y1.5799  
G01 X-1.3237 Y1.5799  
G01 X-1.3157 Y1.5879  
G01 X-1.2843 Y1.5879  
G01 X-1.2621 Y1.5657  
G01 X-1.2621 Y1.5396  
G01 X-1.2004 Y1.4779  
G01 X-1.1158 Y1.4779  
G01 X-1.1128 Y1.4809  
G01 X-1.0872 Y1.4809  
G01 X-1.0691 Y1.4628  
G01 X-1.0691 Y1.4372  
G01 X-1.0872 Y1.4191  
G01 X-1.1128 Y1.4191  
G01 X-1.1309 Y1.4372  
G01 X-1.1309 Y1.4461  
G01 X-1.2091 Y1.4461  
G01 X-1.2131 Y1.4472  
G01 X-1.2168 Y1.4493  
G01 X-1.2819 Y1.5145  
G01 X-1.2843 Y1.5121  
G01 X-1.3157 Y1.5121  
G01 X-1.3379 Y1.5343  
G01 X-1.3379 Y1.5481  
G01 X-1.5151 Y1.5481  
G01 X-1.5191 Y1.5492  
G01 X-1.5228 Y1.5513  
G00 Z0.1000  
G00 X-1.6601 Y1.7335  
G01 Z-0.0027 F10    
G01 X-1.6835 Y1.7101  F40    
G01 X-1.7165 Y1.7101  
G01 X-1.7399 Y1.7335  
G01 X-1.7399 Y1.7665  
G01 X-1.7390 Y1.7675  
G01 X-2.0527 Y2.0812  
G01 X-2.0548 Y2.0849  
G01 X-2.0559 Y2.0889  
G01 X-2.0559 Y2.0937  
G01 X-2.0590 Y2.0943  
G01 X-2.0646 Y2.0966  
G01 X-2.0697 Y2.1000  
G01 X-2.0740 Y2.1043  
G01 X-2.0774 Y2.1094  
G01 X-2.0797 Y2.1150  
G01 X-2.0809 Y2.1210  
G01 X-2.0809 Y2.1790  
G01 X-2.0797 Y2.1850  
G01 X-2.0774 Y2.1906  
G01 X-2.0740 Y2.1957  
G01 X-2.0697 Y2.2000  
G01 X-2.0646 Y2.2034  
G01 X-2.0590 Y2.2057  
G01 X-2.0530 Y2.2069  
G01 X-2.0470 Y2.2069  
G01 X-2.0410 Y2.2057  
G01 X-2.0354 Y2.2034  
G01 X-2.0303 Y2.2000  
G01 X-2.0260 Y2.1957  
G01 X-2.0226 Y2.1906  
G01 X-2.0203 Y2.1850  
G01 X-2.0191 Y2.1790  
G01 X-2.0191 Y2.1210  
G01 X-2.0203 Y2.1150  
G01 X-2.0226 Y2.1094  
G01 X-2.0241 Y2.1071  
G01 X-2.0241 Y2.0976  
G01 X-1.7164 Y1.7899  
G01 X-1.6835 Y1.7899  
G01 X-1.6601 Y1.7665  
G01 X-1.6601 Y1.7335  
G00 Z0.1000  
G00 X-1.6590 Y2.0943  
G01 Z-0.0027 F10    
G01 X-1.6646 Y2.0966  F40    
G01 X-1.6697 Y2.1000  
G01 X-1.6740 Y2.1043  
G01 X-1.6774 Y2.1094  
G01 X-1.6797 Y2.1150  
G01 X-1.6809 Y2.1210  
G01 X-1.6809 Y2.1790  
G01 X-1.6797 Y2.1850  
G01 X-1.6774 Y2.1906  
G01 X-1.6740 Y2.1957  
G01 X-1.6697 Y2.2000  
G01 X-1.6646 Y2.2034  
G01 X-1.6590 Y2.2057  
G01 X-1.6530 Y2.2069  
G01 X-1.6470 Y2.2069  
G01 X-1.6410 Y2.2057  
G01 X-1.6354 Y2.2034  
G01 X-1.6304 Y2.2001  
G01 X-1.5398 Y2.2907  
G01 X-1.5361 Y2.2928  
G01 X-1.5321 Y2.2939  
G01 X-1.3496 Y2.2939  
G01 X-0.9169 Y2.7266  
G01 X-0.9169 Y2.9732  
G01 X-0.9309 Y2.9872  
G01 X-0.9309 Y3.0128  
G01 X-0.9128 Y3.0309  
G01 X-0.8872 Y3.0309  
G01 X-0.8691 Y3.0128  
G01 X-0.8691 Y2.9872  
G01 X-0.8851 Y2.9712  
G01 X-0.8851 Y2.7179  
G01 X-0.8862 Y2.7139  
G01 X-0.8883 Y2.7102  
G01 X-1.3303 Y2.2682  
G01 X-1.3332 Y2.2653  
G01 X-1.3369 Y2.2632  
G01 X-1.3409 Y2.2621  
G01 X-1.5234 Y2.2621  
G01 X-1.6191 Y2.1664  
G01 X-1.6191 Y2.1210  
G01 X-1.6203 Y2.1150  
G01 X-1.6226 Y2.1094  
G01 X-1.6260 Y2.1043  
G01 X-1.6303 Y2.1000  
G01 X-1.6354 Y2.0966  
G01 X-1.6410 Y2.0943  
G01 X-1.6470 Y2.0931  
G01 X-1.6530 Y2.0931  
G01 X-1.6590 Y2.0943  
G00 Z0.1000  
G00 X-1.4169 Y2.1223  
G01 Z-0.0027 F10    
G01 X-1.4169 Y2.1777  F40    
G01 X-1.3777 Y2.2169  
G01 X-1.3223 Y2.2169  
G01 X-1.2831 Y2.1777  
G01 X-1.2831 Y2.1386  
G01 X-0.9624 Y1.8179  
G01 X-0.8758 Y1.8179  
G01 X-0.8628 Y1.8309  
G01 X-0.8372 Y1.8309  
G01 X-0.8191 Y1.8128  
G01 X-0.8191 Y1.7872  
G01 X-0.8372 Y1.7691  
G01 X-0.8628 Y1.7691  
G01 X-0.8798 Y1.7861  
G01 X-0.9711 Y1.7861  
G01 X-0.9751 Y1.7872  
G01 X-0.9788 Y1.7893  
G01 X-1.2974 Y2.1080  
G01 X-1.3223 Y2.0831  
G01 X-1.3777 Y2.0831  
G01 X-1.4169 Y2.1223  
G00 Z0.1000  
G00 X-1.6260 Y2.4043  
G01 Z-0.0027 F10    
G01 X-1.6303 Y2.4000  F40    
G01 X-1.6354 Y2.3966  
G01 X-1.6410 Y2.3943  
G01 X-1.6470 Y2.3931  
G01 X-1.6530 Y2.3931  
G01 X-1.6590 Y2.3943  
G01 X-1.6646 Y2.3966  
G01 X-1.6697 Y2.4000  
G01 X-1.6740 Y2.4043  
G01 X-1.6774 Y2.4094  
G01 X-1.6797 Y2.4150  
G01 X-1.6809 Y2.4210  
G01 X-1.6809 Y2.4790  
G01 X-1.6797 Y2.4850  
G01 X-1.6774 Y2.4906  
G01 X-1.6740 Y2.4957  
G01 X-1.6697 Y2.5000  
G01 X-1.6646 Y2.5034  
G01 X-1.6590 Y2.5057  
G01 X-1.6530 Y2.5069  
G01 X-1.6470 Y2.5069  
G01 X-1.6410 Y2.5057  
G01 X-1.6354 Y2.5034  
G01 X-1.6340 Y2.5025  
G01 X-1.1719 Y2.9646  
G01 X-1.1719 Y2.9782  
G01 X-1.1809 Y2.9872  
G01 X-1.1809 Y3.0128  
G01 X-1.1628 Y3.0309  
G01 X-1.1372 Y3.0309  
G01 X-1.1191 Y3.0128  
G01 X-1.1191 Y2.9872  
G01 X-1.1372 Y2.9691  
G01 X-1.1401 Y2.9691  
G01 X-1.1401 Y2.9559  
G01 X-1.1412 Y2.9519  
G01 X-1.1433 Y2.9482  
G01 X-1.6191 Y2.4724  
G01 X-1.6191 Y2.4210  
G01 X-1.6203 Y2.4150  
G01 X-1.6226 Y2.4094  
G01 X-1.6260 Y2.4043  
G00 Z0.1000  
G00 X-1.7260 Y2.4043  
G01 Z-0.0027 F10    
G01 X-1.7303 Y2.4000  F40    
G01 X-1.7354 Y2.3966  
G01 X-1.7410 Y2.3943  
G01 X-1.7470 Y2.3931  
G01 X-1.7530 Y2.3931  
G01 X-1.7590 Y2.3943  
G01 X-1.7646 Y2.3966  
G01 X-1.7697 Y2.4000  
G01 X-1.7740 Y2.4043  
G01 X-1.7774 Y2.4094  
G01 X-1.7797 Y2.4150  
G01 X-1.7809 Y2.4210  
G01 X-1.7809 Y2.4790  
G01 X-1.7797 Y2.4850  
G01 X-1.7774 Y2.4906  
G01 X-1.7740 Y2.4957  
G01 X-1.7697 Y2.5000  
G01 X-1.7646 Y2.5034  
G01 X-1.7590 Y2.5057  
G01 X-1.7530 Y2.5069  
G01 X-1.7470 Y2.5069  
G01 X-1.7410 Y2.5057  
G01 X-1.7354 Y2.5034  
G01 X-1.7303 Y2.5000  
G01 X-1.7260 Y2.4957  
G01 X-1.7259 Y2.4956  
G01 X-1.4269 Y2.7946  
G01 X-1.4269 Y2.9832  
G01 X-1.4309 Y2.9872  
G01 X-1.4309 Y3.0128  
G01 X-1.4128 Y3.0309  
G01 X-1.3872 Y3.0309  
G01 X-1.3691 Y3.0128  
G01 X-1.3691 Y2.9872  
G01 X-1.3872 Y2.9691  
G01 X-1.3951 Y2.9691  
G01 X-1.3951 Y2.7859  
G01 X-1.3962 Y2.7819  
G01 X-1.3983 Y2.7782  
G01 X-1.7191 Y2.4574  
G01 X-1.7191 Y2.4210  
G01 X-1.7203 Y2.4150  
G01 X-1.7226 Y2.4094  
G01 X-1.7260 Y2.4043  
G00 Z0.1000  
G00 X-1.8260 Y2.4043  
G01 Z-0.0027 F10    
G01 X-1.8303 Y2.4000  F40    
G01 X-1.8354 Y2.3966  
G01 X-1.8410 Y2.3943  
G01 X-1.8470 Y2.3931  
G01 X-1.8530 Y2.3931  
G01 X-1.8590 Y2.3943  
G01 X-1.8646 Y2.3966  
G01 X-1.8697 Y2.4000  
G01 X-1.8740 Y2.4043  
G01 X-1.8774 Y2.4094  
G01 X-1.8797 Y2.4150  
G01 X-1.8809 Y2.4210  
G01 X-1.8809 Y2.4790  
G01 X-1.8797 Y2.4850  
G01 X-1.8774 Y2.4906  
G01 X-1.8740 Y2.4957  
G01 X-1.8697 Y2.5000  
G01 X-1.8646 Y2.5034  
G01 X-1.8590 Y2.5057  
G01 X-1.8530 Y2.5069  
G01 X-1.8470 Y2.5069  
G01 X-1.8410 Y2.5057  
G01 X-1.8354 Y2.5034  
G01 X-1.8303 Y2.5000  
G01 X-1.8269 Y2.4966  
G01 X-1.6819 Y2.6416  
G01 X-1.6819 Y2.9904  
G01 X-1.6820 Y2.9909  
G01 X-1.6819 Y2.9925  
G01 X-1.6819 Y2.9941  
G01 X-1.6818 Y2.9946  
G01 X-1.6817 Y2.9950  
G01 X-1.6812 Y2.9966  
G01 X-1.6809 Y2.9978  
G01 X-1.6809 Y3.0128  
G01 X-1.6628 Y3.0309  
G01 X-1.6372 Y3.0309  
G01 X-1.6191 Y3.0128  
G01 X-1.6191 Y2.9872  
G01 X-1.6372 Y2.9691  
G01 X-1.6501 Y2.9691  
G01 X-1.6501 Y2.6329  
G01 X-1.6512 Y2.6289  
G01 X-1.6533 Y2.6252  
G01 X-1.8191 Y2.4594  
G01 X-1.8191 Y2.4210  
G01 X-1.8203 Y2.4150  
G01 X-1.8226 Y2.4094  
G01 X-1.8260 Y2.4043  
G00 Z0.1000  
G00 X-1.9260 Y2.4043  
G01 Z-0.0027 F10    
G01 X-1.9303 Y2.4000  F40    
G01 X-1.9354 Y2.3966  
G01 X-1.9410 Y2.3943  
G01 X-1.9470 Y2.3931  
G01 X-1.9530 Y2.3931  
G01 X-1.9590 Y2.3943  
G01 X-1.9646 Y2.3966  
G01 X-1.9697 Y2.4000  
G01 X-1.9740 Y2.4043  
G01 X-1.9774 Y2.4094  
G01 X-1.9797 Y2.4150  
G01 X-1.9809 Y2.4210  
G01 X-1.9809 Y2.4790  
G01 X-1.9797 Y2.4850  
G01 X-1.9774 Y2.4906  
G01 X-1.9740 Y2.4957  
G01 X-1.9697 Y2.5000  
G01 X-1.9646 Y2.5034  
G01 X-1.9590 Y2.5057  
G01 X-1.9530 Y2.5069  
G01 X-1.9470 Y2.5069  
G01 X-1.9410 Y2.5057  
G01 X-1.9354 Y2.5034  
G01 X-1.9303 Y2.5000  
G01 X-1.9279 Y2.4976  
G01 X-1.9199 Y2.5056  
G01 X-1.9199 Y2.9762  
G01 X-1.9309 Y2.9872  
G01 X-1.9309 Y3.0128  
G01 X-1.9128 Y3.0309  
G01 X-1.8872 Y3.0309  
G01 X-1.8691 Y3.0128  
G01 X-1.8691 Y2.9872  
G01 X-1.8872 Y2.9691  
G01 X-1.8881 Y2.9691  
G01 X-1.8881 Y2.4969  
G01 X-1.8892 Y2.4929  
G01 X-1.8913 Y2.4892  
G01 X-1.9191 Y2.4614  
G01 X-1.9191 Y2.4210  
G01 X-1.9203 Y2.4150  
G01 X-1.9226 Y2.4094  
G01 X-1.9260 Y2.4043  
G00 Z0.1000  
G00 X-2.0260 Y2.4043  
G01 Z-0.0027 F10    
G01 X-2.0303 Y2.4000  F40    
G01 X-2.0354 Y2.3966  
G01 X-2.0410 Y2.3943  
G01 X-2.0470 Y2.3931  
G01 X-2.0530 Y2.3931  
G01 X-2.0590 Y2.3943  
G01 X-2.0646 Y2.3966  
G01 X-2.0697 Y2.4000  
G01 X-2.0740 Y2.4043  
G01 X-2.0774 Y2.4094  
G01 X-2.0797 Y2.4150  
G01 X-2.0809 Y2.4210  
G01 X-2.0809 Y2.4790  
G01 X-2.0797 Y2.4850  
G01 X-2.0774 Y2.4906  
G01 X-2.0740 Y2.4957  
G01 X-2.0729 Y2.4968  
G01 X-2.0729 Y2.9004  
G01 X-2.1416 Y2.9691  
G01 X-2.1628 Y2.9691  
G01 X-2.1809 Y2.9872  
G01 X-2.1809 Y3.0128  
G01 X-2.1628 Y3.0309  
G01 X-2.1372 Y3.0309  
G01 X-2.1191 Y3.0128  
G01 X-2.1191 Y2.9916  
G01 X-2.0443 Y2.9168  
G01 X-2.0422 Y2.9131  
G01 X-2.0411 Y2.9091  
G01 X-2.0411 Y2.5057  
G01 X-2.0410 Y2.5057  
G01 X-2.0354 Y2.5034  
G01 X-2.0303 Y2.5000  
G01 X-2.0260 Y2.4957  
G01 X-2.0226 Y2.4906  
G01 X-2.0203 Y2.4850  
G01 X-2.0191 Y2.4790  
G01 X-2.0191 Y2.4210  
G01 X-2.0203 Y2.4150  
G01 X-2.0226 Y2.4094  
G01 X-2.0260 Y2.4043  
G00 Z0.1000  
G00 X-2.1260 Y2.4043  
G01 Z-0.0027 F10    
G01 X-2.1303 Y2.4000  F40    
G01 X-2.1354 Y2.3966  
G01 X-2.1410 Y2.3943  
G01 X-2.1470 Y2.3931  
G01 X-2.1530 Y2.3931  
G01 X-2.1590 Y2.3943  
G01 X-2.1646 Y2.3966  
G01 X-2.1697 Y2.4000  
G01 X-2.1740 Y2.4043  
G01 X-2.1774 Y2.4094  
G01 X-2.1797 Y2.4150  
G01 X-2.1809 Y2.4210  
G01 X-2.1809 Y2.4790  
G01 X-2.1797 Y2.4850  
G01 X-2.1774 Y2.4906  
G01 X-2.1749 Y2.4944  
G01 X-2.1749 Y2.7474  
G01 X-2.3966 Y2.9691  
G01 X-2.4128 Y2.9691  
G01 X-2.4309 Y2.9872  
G01 X-2.4309 Y3.0128  
G01 X-2.4128 Y3.0309  
G01 X-2.3872 Y3.0309  
G01 X-2.3691 Y3.0128  
G01 X-2.3691 Y2.9872  
G01 X-2.3694 Y2.9869  
G01 X-2.1463 Y2.7638  
G01 X-2.1442 Y2.7601  
G01 X-2.1431 Y2.7561  
G01 X-2.1431 Y2.5061  
G01 X-2.1410 Y2.5057  
G01 X-2.1354 Y2.5034  
G01 X-2.1303 Y2.5000  
G01 X-2.1260 Y2.4957  
G01 X-2.1226 Y2.4906  
G01 X-2.1203 Y2.4850  
G01 X-2.1191 Y2.4790  
G01 X-2.1191 Y2.4210  
G01 X-2.1203 Y2.4150  
G01 X-2.1226 Y2.4094  
G01 X-2.1260 Y2.4043  
G00 Z0.1000  
G00 X-2.2260 Y2.4043  
G01 Z-0.0027 F10    
G01 X-2.2303 Y2.4000  F40    
G01 X-2.2354 Y2.3966  
G01 X-2.2410 Y2.3943  
G01 X-2.2470 Y2.3931  
G01 X-2.2530 Y2.3931  
G01 X-2.2590 Y2.3943  
G01 X-2.2646 Y2.3966  
G01 X-2.2697 Y2.4000  
G01 X-2.2740 Y2.4043  
G01 X-2.2774 Y2.4094  
G01 X-2.2797 Y2.4150  
G01 X-2.2809 Y2.4210  
G01 X-2.2809 Y2.4790  
G01 X-2.2797 Y2.4850  
G01 X-2.2774 Y2.4906  
G01 X-2.2769 Y2.4914  
G01 X-2.2769 Y2.6114  
G01 X-2.6359 Y2.9704  
G01 X-2.6372 Y2.9691  
G01 X-2.6628 Y2.9691  
G01 X-2.6809 Y2.9872  
G01 X-2.6809 Y3.0128  
G01 X-2.6628 Y3.0309  
G01 X-2.6372 Y3.0309  
G01 X-2.6191 Y3.0128  
G01 X-2.6191 Y2.9986  
G01 X-2.2483 Y2.6278  
G01 X-2.2462 Y2.6241  
G01 X-2.2451 Y2.6201  
G01 X-2.2451 Y2.5065  
G01 X-2.2410 Y2.5057  
G01 X-2.2354 Y2.5034  
G01 X-2.2303 Y2.5000  
G01 X-2.2260 Y2.4957  
G01 X-2.2226 Y2.4906  
G01 X-2.2203 Y2.4850  
G01 X-2.2191 Y2.4790  
G01 X-2.2191 Y2.4210  
G01 X-2.2203 Y2.4150  
G01 X-2.2226 Y2.4094  
G01 X-2.2260 Y2.4043  
G00 Z0.1000  
G00 X-2.3260 Y2.4043  
G01 Z-0.0027 F10    
G01 X-2.3303 Y2.4000  F40    
G01 X-2.3354 Y2.3966  
G01 X-2.3410 Y2.3943  
G01 X-2.3470 Y2.3931  
G01 X-2.3530 Y2.3931  
G01 X-2.3590 Y2.3943  
G01 X-2.3646 Y2.3966  
G01 X-2.3697 Y2.4000  
G01 X-2.3740 Y2.4043  
G01 X-2.3774 Y2.4094  
G01 X-2.3797 Y2.4150  
G01 X-2.3809 Y2.4210  
G01 X-2.3809 Y2.4604  
G01 X-2.8896 Y2.9691  
G01 X-2.9128 Y2.9691  
G01 X-2.9309 Y2.9872  
G01 X-2.9309 Y3.0128  
G01 X-2.9128 Y3.0309  
G01 X-2.8872 Y3.0309  
G01 X-2.8691 Y3.0128  
G01 X-2.8691 Y2.9936  
G01 X-2.3726 Y2.4971  
G01 X-2.3697 Y2.5000  
G01 X-2.3646 Y2.5034  
G01 X-2.3590 Y2.5057  
G01 X-2.3530 Y2.5069  
G01 X-2.3470 Y2.5069  
G01 X-2.3410 Y2.5057  
G01 X-2.3354 Y2.5034  
G01 X-2.3303 Y2.5000  
G01 X-2.3260 Y2.4957  
G01 X-2.3226 Y2.4906  
G01 X-2.3203 Y2.4850  
G01 X-2.3191 Y2.4790  
G01 X-2.3191 Y2.4210  
G01 X-2.3203 Y2.4150  
G01 X-2.3226 Y2.4094  
G01 X-2.3260 Y2.4043  
G00 Z0.1000  
G00 X-2.4260 Y2.4043  
G01 Z-0.0027 F10    
G01 X-2.4303 Y2.4000  F40    
G01 X-2.4354 Y2.3966  
G01 X-2.4410 Y2.3943  
G01 X-2.4470 Y2.3931  
G01 X-2.4530 Y2.3931  
G01 X-2.4590 Y2.3943  
G01 X-2.4646 Y2.3966  
G01 X-2.4697 Y2.4000  
G01 X-2.4740 Y2.4043  
G01 X-2.4774 Y2.4094  
G01 X-2.4797 Y2.4150  
G01 X-2.4809 Y2.4210  
G01 X-2.4809 Y2.4491  
G01 X-2.6201 Y2.4491  
G01 X-2.6241 Y2.4502  
G01 X-2.6278 Y2.4523  
G01 X-3.1446 Y2.9691  
G01 X-3.1628 Y2.9691  
G01 X-3.1809 Y2.9872  
G01 X-3.1809 Y3.0128  
G01 X-3.1628 Y3.0309  
G01 X-3.1372 Y3.0309  
G01 X-3.1191 Y3.0128  
G01 X-3.1191 Y2.9886  
G01 X-2.6114 Y2.4809  
G01 X-2.4805 Y2.4809  
G01 X-2.4797 Y2.4850  
G01 X-2.4774 Y2.4906  
G01 X-2.4740 Y2.4957  
G01 X-2.4697 Y2.5000  
G01 X-2.4646 Y2.5034  
G01 X-2.4590 Y2.5057  
G01 X-2.4530 Y2.5069  
G01 X-2.4470 Y2.5069  
G01 X-2.4410 Y2.5057  
G01 X-2.4354 Y2.5034  
G01 X-2.4303 Y2.5000  
G01 X-2.4260 Y2.4957  
G01 X-2.4226 Y2.4906  
G01 X-2.4203 Y2.4850  
G01 X-2.4191 Y2.4790  
G01 X-2.4191 Y2.4210  
G01 X-2.4203 Y2.4150  
G01 X-2.4226 Y2.4094  
G01 X-2.4260 Y2.4043  
G00 Z0.1000  
G00 X-2.2740 Y2.1957  
G01 Z-0.0027 F10    
G01 X-2.2697 Y2.2000  F40    
G01 X-2.2646 Y2.2034  
G01 X-2.2590 Y2.2057  
G01 X-2.2530 Y2.2069  
G01 X-2.2470 Y2.2069  
G01 X-2.2410 Y2.2057  
G01 X-2.2354 Y2.2034  
G01 X-2.2303 Y2.2000  
G01 X-2.2260 Y2.1957  
G01 X-2.2226 Y2.1906  
G01 X-2.2203 Y2.1850  
G01 X-2.2191 Y2.1790  
G01 X-2.2191 Y2.1749  
G01 X-2.1809 Y2.1749  
G01 X-2.1809 Y2.1790  
G01 X-2.1797 Y2.1850  
G01 X-2.1774 Y2.1906  
G01 X-2.1740 Y2.1957  
G01 X-2.1697 Y2.2000  
G01 X-2.1646 Y2.2034  
G01 X-2.1590 Y2.2057  
G01 X-2.1530 Y2.2069  
G01 X-2.1470 Y2.2069  
G01 X-2.1410 Y2.2057  
G01 X-2.1354 Y2.2034  
G01 X-2.1303 Y2.2000  
G01 X-2.1260 Y2.1957  
G01 X-2.1226 Y2.1906  
G01 X-2.1203 Y2.1850  
G01 X-2.1191 Y2.1790  
G01 X-2.1191 Y2.1210  
G01 X-2.1203 Y2.1150  
G01 X-2.1226 Y2.1094  
G01 X-2.1260 Y2.1043  
G01 X-2.1303 Y2.1000  
G01 X-2.1354 Y2.0966  
G01 X-2.1410 Y2.0943  
G01 X-2.1470 Y2.0931  
G01 X-2.1530 Y2.0931  
G01 X-2.1590 Y2.0943  
G01 X-2.1646 Y2.0966  
G01 X-2.1697 Y2.1000  
G01 X-2.1740 Y2.1043  
G01 X-2.1774 Y2.1094  
G01 X-2.1797 Y2.1150  
G01 X-2.1809 Y2.1210  
G01 X-2.1809 Y2.1431  
G01 X-2.2191 Y2.1431  
G01 X-2.2191 Y2.1210  
G01 X-2.2203 Y2.1150  
G01 X-2.2226 Y2.1094  
G01 X-2.2260 Y2.1043  
G01 X-2.2303 Y2.1000  
G01 X-2.2354 Y2.0966  
G01 X-2.2410 Y2.0943  
G01 X-2.2470 Y2.0931  
G01 X-2.2530 Y2.0931  
G01 X-2.2590 Y2.0943  
G01 X-2.2646 Y2.0966  
G01 X-2.2697 Y2.1000  
G01 X-2.2740 Y2.1043  
G01 X-2.2749 Y2.1056  
G01 X-2.2791 Y2.1014  
G01 X-2.2791 Y2.0228  
G01 X-2.2691 Y2.0128  
G01 X-2.2691 Y1.9872  
G01 X-2.2872 Y1.9691  
G01 X-2.3128 Y1.9691  
G01 X-2.3309 Y1.9872  
G01 X-2.3309 Y2.0128  
G01 X-2.3128 Y2.0309  
G01 X-2.3109 Y2.0309  
G01 X-2.3109 Y2.1101  
G01 X-2.3098 Y2.1141  
G01 X-2.3077 Y2.1178  
G01 X-2.2809 Y2.1446  
G01 X-2.2809 Y2.1790  
G01 X-2.2797 Y2.1850  
G01 X-2.2774 Y2.1906  
G01 X-2.2740 Y2.1957  
G00 Z0.1000  
G00 X-2.3122 Y1.1309  
G01 Z-0.0027 F10    
G01 X-2.2941 Y1.1128  F40    
G01 X-2.2941 Y1.0926  
G01 X-2.2483 Y1.0468  
G01 X-2.2462 Y1.0431  
G01 X-2.2451 Y1.0391  
G01 X-2.2451 Y0.9309  
G01 X-2.2372 Y0.9309  
G01 X-2.2191 Y0.9128  
G01 X-2.2191 Y0.8872  
G01 X-2.2372 Y0.8691  
G01 X-2.2628 Y0.8691  
G01 X-2.2809 Y0.8872  
G01 X-2.2809 Y0.9128  
G01 X-2.2769 Y0.9168  
G01 X-2.2769 Y1.0304  
G01 X-2.3156 Y1.0691  
G01 X-2.3378 Y1.0691  
G01 X-2.3559 Y1.0872  
G01 X-2.3559 Y1.1128  
G01 X-2.3378 Y1.1309  
G01 X-2.3122 Y1.1309  
G00 Z0.1000  
G00 X-0.2674 Y1.1221  
G01 Z-0.0027 F10    
G01 X-0.2674 Y1.1779  F40    
G01 X-0.2279 Y1.2174  
G01 X-0.2199 Y1.2174  
G01 X-0.2199 Y1.3194  
G01 X-0.4547 Y1.5542  
G01 X-0.4568 Y1.5579  
G01 X-0.4579 Y1.5619  
G01 X-0.4579 Y1.7691  
G01 X-0.4628 Y1.7691  
G01 X-0.4809 Y1.7872  
G01 X-0.4809 Y1.8128  
G01 X-0.4628 Y1.8309  
G01 X-0.4372 Y1.8309  
G01 X-0.4191 Y1.8128  
G01 X-0.4191 Y1.7872  
G01 X-0.4261 Y1.7802  
G01 X-0.4261 Y1.5706  
G01 X-0.1942 Y1.3387  
G01 X-0.1913 Y1.3358  
G01 X-0.1892 Y1.3321  
G01 X-0.1881 Y1.3281  
G01 X-0.1881 Y1.2174  
G01 X-0.1721 Y1.2174  
G01 X-0.1326 Y1.1779  
G01 X-0.1326 Y1.1221  
G01 X-0.1721 Y1.0826  
G01 X-0.2279 Y1.0826  
G01 X-0.2674 Y1.1221  
G00 Z0.1000  
G00 X-0.2279 Y1.3826  
G01 Z-0.0027 F10    
G01 X-0.2674 Y1.4221  F40    
G01 X-0.2674 Y1.4779  
G01 X-0.2279 Y1.5174  
G01 X-0.2199 Y1.5174  
G01 X-0.2199 Y1.5569  
G01 X-0.2248 Y1.5595  
G01 X-0.2309 Y1.5638  
G01 X-0.2362 Y1.5691  
G01 X-0.2405 Y1.5752  
G01 X-0.2439 Y1.5818  
G01 X-0.2462 Y1.5889  
G01 X-0.2474 Y1.5963  
G01 X-0.2474 Y1.6037  
G01 X-0.2462 Y1.6111  
G01 X-0.2439 Y1.6182  
G01 X-0.2405 Y1.6248  
G01 X-0.2362 Y1.6309  
G01 X-0.2309 Y1.6362  
G01 X-0.2248 Y1.6405  
G01 X-0.2182 Y1.6439  
G01 X-0.2111 Y1.6462  
G01 X-0.2037 Y1.6474  
G01 X-0.1963 Y1.6474  
G01 X-0.1889 Y1.6462  
G01 X-0.1818 Y1.6439  
G01 X-0.1752 Y1.6405  
G01 X-0.1691 Y1.6362  
G01 X-0.1638 Y1.6309  
G01 X-0.1595 Y1.6248  
G01 X-0.1561 Y1.6182  
G01 X-0.1538 Y1.6111  
G01 X-0.1526 Y1.6037  
G01 X-0.1526 Y1.5963  
G01 X-0.1538 Y1.5889  
G01 X-0.1561 Y1.5818  
G01 X-0.1595 Y1.5752  
G01 X-0.1638 Y1.5691  
G01 X-0.1691 Y1.5638  
G01 X-0.1752 Y1.5595  
G01 X-0.1818 Y1.5561  
G01 X-0.1881 Y1.5540  
G01 X-0.1881 Y1.5174  
G01 X-0.1721 Y1.5174  
G01 X-0.1326 Y1.4779  
G01 X-0.1326 Y1.4221  
G01 X-0.1721 Y1.3826  
G01 X-0.2279 Y1.3826  
G00 Z0.1000  
G00 X-0.2196 Y2.1526  
G01 Z-0.0027 F10    
G01 X-0.2474 Y2.1804  F40    
G01 X-0.2474 Y2.2196  
G01 X-0.2196 Y2.2474  
G01 X-0.1804 Y2.2474  
G01 X-0.1589 Y2.2259  
G01 X-0.1178 Y2.2259  
G01 X-0.1128 Y2.2309  
G01 X-0.0872 Y2.2309  
G01 X-0.0691 Y2.2128  
G01 X-0.0691 Y2.1872  
G01 X-0.0872 Y2.1691  
G01 X-0.1128 Y2.1691  
G01 X-0.1309 Y2.1872  
G01 X-0.1309 Y2.1941  
G01 X-0.1526 Y2.1941  
G01 X-0.1526 Y2.1804  
G01 X-0.1804 Y2.1526  
G01 X-0.2196 Y2.1526  
G00 Z0.1000  
G00 X-0.1628 Y2.5883  
G01 Z-0.0027 F10    
G01 X-0.2784 Y2.7039  F40    
G01 X-0.2802 Y2.7021  
G01 X-0.3198 Y2.7021  
G01 X-0.3479 Y2.7302  
G01 X-0.3479 Y2.7698  
G01 X-0.3198 Y2.7979  
G01 X-0.2802 Y2.7979  
G01 X-0.2521 Y2.7698  
G01 X-0.2521 Y2.7302  
G01 X-0.2559 Y2.7264  
G01 X-0.1464 Y2.6169  
G01 X-0.1268 Y2.6169  
G01 X-0.1128 Y2.6309  
G01 X-0.0872 Y2.6309  
G01 X-0.0691 Y2.6128  
G01 X-0.0691 Y2.5872  
G01 X-0.0872 Y2.5691  
G01 X-0.1128 Y2.5691  
G01 X-0.1288 Y2.5851  
G01 X-0.1551 Y2.5851  
G01 X-0.1591 Y2.5862  
G01 X-0.1628 Y2.5883  
G00 Z0.1000  
G00 X-0.1531 Y0.1306  
G01 Z-0.0027 F10    
G01 X-0.1806 Y0.1031  F40    
G01 X-0.2194 Y0.1031  
G01 X-0.2469 Y0.1306  
G01 X-0.2469 Y0.1694  
G01 X-0.2194 Y0.1969  
G01 X-0.1806 Y0.1969  
G01 X-0.1531 Y0.1694  
G01 X-0.1531 Y0.1306  
G00 Z0.1000  
G00 X-0.1531 Y0.2306  
G01 Z-0.0027 F10    
G01 X-0.1806 Y0.2031  F40    
G01 X-0.2194 Y0.2031  
G01 X-0.2469 Y0.2306  
G01 X-0.2469 Y0.2694  
G01 X-0.2194 Y0.2969  
G01 X-0.1806 Y0.2969  
G01 X-0.1531 Y0.2694  
G01 X-0.1531 Y0.2306  
G00 Z0.1000  
G00 X-0.2531 Y0.2306  
G01 Z-0.0027 F10    
G01 X-0.2806 Y0.2031  F40    
G01 X-0.3194 Y0.2031  
G01 X-0.3469 Y0.2306  
G01 X-0.3469 Y0.2694  
G01 X-0.3194 Y0.2969  
G01 X-0.2806 Y0.2969  
G01 X-0.2531 Y0.2694  
G01 X-0.2531 Y0.2306  
G00 Z0.1000  
G00 X-0.2806 Y0.1969  
G01 Z-0.0027 F10    
G01 X-0.2531 Y0.1694  F40    
G01 X-0.2531 Y0.1306  
G01 X-0.2806 Y0.1031  
G01 X-0.3194 Y0.1031  
G01 X-0.3469 Y0.1306  
G01 X-0.3469 Y0.1694  
G01 X-0.3194 Y0.1969  
G01 X-0.2806 Y0.1969  
G00 Z0.1000  
G00 X-0.3806 Y0.1969  
G01 Z-0.0027 F10    
G01 X-0.3531 Y0.1694  F40    
G01 X-0.3531 Y0.1306  
G01 X-0.3806 Y0.1031  
G01 X-0.4194 Y0.1031  
G01 X-0.4469 Y0.1306  
G01 X-0.4469 Y0.1694  
G01 X-0.4194 Y0.1969  
G01 X-0.3806 Y0.1969  
G00 Z0.1000  
G00 X-0.3806 Y0.2031  
G01 Z-0.0027 F10    
G01 X-0.4194 Y0.2031  F40    
G01 X-0.4469 Y0.2306  
G01 X-0.4469 Y0.2694  
G01 X-0.4194 Y0.2969  
G01 X-0.3806 Y0.2969  
G01 X-0.3531 Y0.2694  
G01 X-0.3531 Y0.2306  
G01 X-0.3806 Y0.2031  
G00 Z0.1000  
G00 X-0.4531 Y0.2306  
G01 Z-0.0027 F10    
G01 X-0.4806 Y0.2031  F40    
G01 X-0.4891 Y0.2031  
G01 X-0.4891 Y0.1969  
G01 X-0.4806 Y0.1969  
G01 X-0.4531 Y0.1694  
G01 X-0.4531 Y0.1306  
G01 X-0.4806 Y0.1031  
G01 X-0.5194 Y0.1031  
G01 X-0.5469 Y0.1306  
G01 X-0.5469 Y0.1694  
G01 X-0.5309 Y0.1854  
G01 X-0.5309 Y0.2146  
G01 X-0.5469 Y0.2306  
G01 X-0.5469 Y0.2694  
G01 X-0.5194 Y0.2969  
G01 X-0.4807 Y0.2969  
G01 X-0.2954 Y0.4822  
G01 X-0.2971 Y0.4873  
G01 X-0.2984 Y0.4957  
G01 X-0.2984 Y0.5043  
G01 X-0.2971 Y0.5127  
G01 X-0.2944 Y0.5208  
G01 X-0.2906 Y0.5284  
G01 X-0.2856 Y0.5353  
G01 X-0.2795 Y0.5413  
G01 X-0.2726 Y0.5463  
G01 X-0.2650 Y0.5502  
G01 X-0.2569 Y0.5528  
G01 X-0.2485 Y0.5541  
G01 X-0.2079 Y0.5541  
G01 X-0.2079 Y0.6148  
G01 X-0.2065 Y0.6201  
G01 X-0.2037 Y0.6248  
G01 X-0.0719 Y0.7567  
G01 X-0.0719 Y2.1773  
G01 X-0.0851 Y2.1641  
G01 X-0.1149 Y2.1641  
G01 X-0.1359 Y2.1851  
G01 X-0.1359 Y2.1891  
G01 X-0.1476 Y2.1891  
G01 X-0.1476 Y2.1783  
G01 X-0.1783 Y2.1476  
G01 X-0.2217 Y2.1476  
G01 X-0.2524 Y2.1783  
G01 X-0.2524 Y2.2217  
G01 X-0.2217 Y2.2524  
G01 X-0.1783 Y2.2524  
G01 X-0.1568 Y2.2309  
G01 X-0.1199 Y2.2309  
G01 X-0.1149 Y2.2359  
G01 X-0.0851 Y2.2359  
G01 X-0.0719 Y2.2227  
G01 X-0.0719 Y2.2523  
G01 X-0.2127 Y2.3931  
G01 X-0.3784 Y2.3931  
G01 X-0.3793 Y2.3859  
G01 X-0.3818 Y2.3768  
G01 X-0.3854 Y2.3681  
G01 X-0.3901 Y2.3600  
G01 X-0.3958 Y2.3525  
G01 X-0.4025 Y2.3458  
G01 X-0.4100 Y2.3401  
G01 X-0.4181 Y2.3354  
G01 X-0.4268 Y2.3318  
G01 X-0.4359 Y2.3293  
G01 X-0.4453 Y2.3281  
G01 X-0.4547 Y2.3281  
G01 X-0.4641 Y2.3293  
G01 X-0.4732 Y2.3318  
G01 X-0.4819 Y2.3354  
G01 X-0.4900 Y2.3401  
G01 X-0.4975 Y2.3458  
G01 X-0.5042 Y2.3525  
G01 X-0.5099 Y2.3600  
G01 X-0.5146 Y2.3681  
G01 X-0.5182 Y2.3768  
G01 X-0.5207 Y2.3859  
G01 X-0.5219 Y2.3953  
G01 X-0.5219 Y2.4047  
G01 X-0.5207 Y2.4141  
G01 X-0.5182 Y2.4232  
G01 X-0.5146 Y2.4319  
G01 X-0.5099 Y2.4400  
G01 X-0.5042 Y2.4475  
G01 X-0.4975 Y2.4542  
G01 X-0.4900 Y2.4599  
G01 X-0.4819 Y2.4646  
G01 X-0.4732 Y2.4682  
G01 X-0.4641 Y2.4707  
G01 X-0.4547 Y2.4719  
G01 X-0.4453 Y2.4719  
G01 X-0.4359 Y2.4707  
G01 X-0.4268 Y2.4682  
G01 X-0.4181 Y2.4646  
G01 X-0.4100 Y2.4599  
G01 X-0.4025 Y2.4542  
G01 X-0.3958 Y2.4475  
G01 X-0.3901 Y2.4400  
G01 X-0.3871 Y2.4349  
G01 X-0.2127 Y2.4349  
G01 X-0.0719 Y2.5757  
G01 X-0.0719 Y2.5773  
G01 X-0.0851 Y2.5641  
G01 X-0.1149 Y2.5641  
G01 X-0.1309 Y2.5801  
G01 X-0.1558 Y2.5801  
G01 X-0.1611 Y2.5815  
G01 X-0.1658 Y2.5843  
G01 X-0.2787 Y2.6971  
G01 X-0.3219 Y2.6971  
G01 X-0.3500 Y2.7252  
G01 X-0.3781 Y2.6971  
G01 X-0.4183 Y2.6971  
G01 X-0.5231 Y2.5923  
G01 X-0.5231 Y2.0202  
G01 X-0.5245 Y2.0149  
G01 X-0.5273 Y2.0102  
G01 X-0.5312 Y2.0063  
G01 X-0.9311 Y1.6063  
G01 X-0.9311 Y1.4275  
G01 X-0.9308 Y1.4277  
G01 X-0.4799 Y1.8787  
G01 X-0.4799 Y2.0846  
G01 X-0.4819 Y2.0854  
G01 X-0.4900 Y2.0901  
G01 X-0.4975 Y2.0958  
G01 X-0.5042 Y2.1025  
G01 X-0.5099 Y2.1100  
G01 X-0.5146 Y2.1181  
G01 X-0.5182 Y2.1268  
G01 X-0.5207 Y2.1359  
G01 X-0.5219 Y2.1453  
G01 X-0.5219 Y2.1547  
G01 X-0.5207 Y2.1641  
G01 X-0.5182 Y2.1732  
G01 X-0.5146 Y2.1819  
G01 X-0.5099 Y2.1900  
G01 X-0.5042 Y2.1975  
G01 X-0.4975 Y2.2042  
G01 X-0.4900 Y2.2099  
G01 X-0.4819 Y2.2146  
G01 X-0.4732 Y2.2182  
G01 X-0.4641 Y2.2207  
G01 X-0.4547 Y2.2219  
G01 X-0.4453 Y2.2219  
G01 X-0.4359 Y2.2207  
G01 X-0.4268 Y2.2182  
G01 X-0.4181 Y2.2146  
G01 X-0.4100 Y2.2099  
G01 X-0.4025 Y2.2042  
G01 X-0.3958 Y2.1975  
G01 X-0.3901 Y2.1900  
G01 X-0.3854 Y2.1819  
G01 X-0.3818 Y2.1732  
G01 X-0.3793 Y2.1641  
G01 X-0.3781 Y2.1547  
G01 X-0.3781 Y2.1453  
G01 X-0.3793 Y2.1359  
G01 X-0.3818 Y2.1268  
G01 X-0.3854 Y2.1181  
G01 X-0.3901 Y2.1100  
G01 X-0.3958 Y2.1025  
G01 X-0.4025 Y2.0958  
G01 X-0.4100 Y2.0901  
G01 X-0.4181 Y2.0854  
G01 X-0.4268 Y2.0818  
G01 X-0.4359 Y2.0793  
G01 X-0.4381 Y2.0790  
G01 X-0.4381 Y1.8672  
G01 X-0.4395 Y1.8619  
G01 X-0.4423 Y1.8572  
G01 X-0.4635 Y1.8359  
G01 X-0.4351 Y1.8359  
G01 X-0.4141 Y1.8149  
G01 X-0.4141 Y1.7851  
G01 X-0.4211 Y1.7781  
G01 X-0.4211 Y1.5727  
G01 X-0.2724 Y1.4240  
G01 X-0.2724 Y1.4800  
G01 X-0.2300 Y1.5224  
G01 X-0.2249 Y1.5224  
G01 X-0.2249 Y1.5539  
G01 X-0.2275 Y1.5552  
G01 X-0.2341 Y1.5600  
G01 X-0.2400 Y1.5659  
G01 X-0.2448 Y1.5725  
G01 X-0.2486 Y1.5799  
G01 X-0.2511 Y1.5877  
G01 X-0.2524 Y1.5959  
G01 X-0.2524 Y1.6041  
G01 X-0.2511 Y1.6123  
G01 X-0.2486 Y1.6201  
G01 X-0.2448 Y1.6275  
G01 X-0.2400 Y1.6341  
G01 X-0.2341 Y1.6400  
G01 X-0.2275 Y1.6448  
G01 X-0.2201 Y1.6486  
G01 X-0.2123 Y1.6511  
G01 X-0.2041 Y1.6524  
G01 X-0.1959 Y1.6524  
G01 X-0.1877 Y1.6511  
G01 X-0.1799 Y1.6486  
G01 X-0.1725 Y1.6448  
G01 X-0.1659 Y1.6400  
G01 X-0.1600 Y1.6341  
G01 X-0.1552 Y1.6275  
G01 X-0.1514 Y1.6201  
G01 X-0.1489 Y1.6123  
G01 X-0.1476 Y1.6041  
G01 X-0.1476 Y1.5959  
G01 X-0.1489 Y1.5877  
G01 X-0.1514 Y1.5799  
G01 X-0.1552 Y1.5725  
G01 X-0.1600 Y1.5659  
G01 X-0.1659 Y1.5600  
G01 X-0.1725 Y1.5552  
G01 X-0.1799 Y1.5514  
G01 X-0.1831 Y1.5504  
G01 X-0.1831 Y1.5224  
G01 X-0.1700 Y1.5224  
G01 X-0.1276 Y1.4800  
G01 X-0.1276 Y1.4200  
G01 X-0.1700 Y1.3776  
G01 X-0.2260 Y1.3776  
G01 X-0.1912 Y1.3427  
G01 X-0.1873 Y1.3388  
G01 X-0.1845 Y1.3341  
G01 X-0.1831 Y1.3288  
G01 X-0.1831 Y1.2224  
G01 X-0.1700 Y1.2224  
G01 X-0.1276 Y1.1800  
G01 X-0.1276 Y1.1200  
G01 X-0.1700 Y1.0776  
G01 X-0.2300 Y1.0776  
G01 X-0.2724 Y1.1200  
G01 X-0.2724 Y1.1800  
G01 X-0.2300 Y1.2224  
G01 X-0.2249 Y1.2224  
G01 X-0.2249 Y1.3173  
G01 X-0.3776 Y1.4700  
G01 X-0.3776 Y1.4200  
G01 X-0.4200 Y1.3776  
G01 X-0.4381 Y1.3776  
G01 X-0.4381 Y1.2224  
G01 X-0.4200 Y1.2224  
G01 X-0.3776 Y1.1800  
G01 X-0.3776 Y1.1200  
G01 X-0.3855 Y1.1121  
G01 X-0.1873 Y0.9138  
G01 X-0.1845 Y0.9091  
G01 X-0.1831 Y0.9038  
G01 X-0.1831 Y0.8041  
G01 X-0.1515 Y0.8041  
G01 X-0.1431 Y0.8028  
G01 X-0.1350 Y0.8002  
G01 X-0.1274 Y0.7963  
G01 X-0.1205 Y0.7913  
G01 X-0.1144 Y0.7853  
G01 X-0.1094 Y0.7784  
G01 X-0.1056 Y0.7708  
G01 X-0.1029 Y0.7627  
G01 X-0.1016 Y0.7543  
G01 X-0.1016 Y0.7457  
G01 X-0.1029 Y0.7373  
G01 X-0.1056 Y0.7292  
G01 X-0.1094 Y0.7216  
G01 X-0.1144 Y0.7147  
G01 X-0.1205 Y0.7087  
G01 X-0.1274 Y0.7037  
G01 X-0.1350 Y0.6998  
G01 X-0.1431 Y0.6972  
G01 X-0.1515 Y0.6959  
G01 X-0.2266 Y0.6959  
G01 X-0.5741 Y0.3483  
G01 X-0.5741 Y0.2904  
G01 X-0.5531 Y0.2694  
G01 X-0.5531 Y0.2306  
G01 X-0.5806 Y0.2031  
G01 X-0.5911 Y0.2031  
G01 X-0.5911 Y0.1969  
G01 X-0.5806 Y0.1969  
G01 X-0.5531 Y0.1694  
G01 X-0.5531 Y0.1306  
G01 X-0.5806 Y0.1031  
G01 X-0.6194 Y0.1031  
G01 X-0.6469 Y0.1306  
G01 X-0.6469 Y0.1321  
G01 X-0.6531 Y0.1321  
G01 X-0.6531 Y0.1306  
G01 X-0.6806 Y0.1031  
G01 X-0.7194 Y0.1031  
G01 X-0.7469 Y0.1306  
G01 X-0.7469 Y0.1321  
G01 X-0.7531 Y0.1321  
G01 X-0.7531 Y0.1306  
G01 X-0.7806 Y0.1031  
G01 X-0.8193 Y0.1031  
G01 X-0.8503 Y0.0722  
G01 X-0.8542 Y0.0683  
G01 X-0.8589 Y0.0655  
G01 X-0.8642 Y0.0641  
G01 X-1.7878 Y0.0641  
G01 X-1.7931 Y0.0655  
G01 X-1.7978 Y0.0683  
G01 X-1.9367 Y0.2071  
G01 X-1.9678 Y0.2071  
G01 X-1.9929 Y0.2322  
G01 X-1.9929 Y0.2633  
G01 X-2.0567 Y0.3272  
G01 X-2.0595 Y0.3319  
G01 X-2.0609 Y0.3372  
G01 X-2.0609 Y0.5741  
G01 X-2.0768 Y0.5741  
G01 X-2.0821 Y0.5755  
G01 X-2.0868 Y0.5783  
G01 X-2.4778 Y0.9693  
G01 X-2.4817 Y0.9732  
G01 X-2.4845 Y0.9779  
G01 X-2.4859 Y0.9832  
G01 X-2.4859 Y1.0908  
G01 X-2.4845 Y1.0961  
G01 X-2.4817 Y1.1008  
G01 X-2.4359 Y1.1467  
G01 X-2.4359 Y1.1649  
G01 X-2.4179 Y1.1829  
G01 X-2.4179 Y1.2098  
G01 X-2.4165 Y1.2151  
G01 X-2.4137 Y1.2198  
G01 X-2.2859 Y1.3477  
G01 X-2.2859 Y1.3649  
G01 X-2.2819 Y1.3689  
G01 X-2.2819 Y1.5553  
G01 X-2.2907 Y1.5641  
G01 X-2.3149 Y1.5641  
G01 X-2.3359 Y1.5851  
G01 X-2.3359 Y1.6093  
G01 X-2.3797 Y1.6532  
G01 X-2.3825 Y1.6579  
G01 X-2.3839 Y1.6632  
G01 X-2.3839 Y2.1120  
G01 X-2.3845 Y2.1135  
G01 X-2.3859 Y2.1205  
G01 X-2.3859 Y2.1795  
G01 X-2.3845 Y2.1865  
G01 X-2.3818 Y2.1930  
G01 X-2.3779 Y2.1989  
G01 X-2.3729 Y2.2039  
G01 X-2.3670 Y2.2078  
G01 X-2.3605 Y2.2105  
G01 X-2.3535 Y2.2119  
G01 X-2.3465 Y2.2119  
G01 X-2.3395 Y2.2105  
G01 X-2.3330 Y2.2078  
G01 X-2.3292 Y2.2053  
G01 X-2.2945 Y2.2401  
G01 X-2.3373 Y2.2401  
G01 X-2.4141 Y2.1633  
G01 X-2.4141 Y2.1205  
G01 X-2.4155 Y2.1135  
G01 X-2.4182 Y2.1070  
G01 X-2.4221 Y2.1011  
G01 X-2.4271 Y2.0961  
G01 X-2.4330 Y2.0922  
G01 X-2.4395 Y2.0895  
G01 X-2.4465 Y2.0881  
G01 X-2.4535 Y2.0881  
G01 X-2.4605 Y2.0895  
G01 X-2.4670 Y2.0922  
G01 X-2.4729 Y2.0961  
G01 X-2.4779 Y2.1011  
G01 X-2.4818 Y2.1070  
G01 X-2.4845 Y2.1135  
G01 X-2.4859 Y2.1205  
G01 X-2.4859 Y2.1795  
G01 X-2.4845 Y2.1865  
G01 X-2.4818 Y2.1930  
G01 X-2.4779 Y2.1989  
G01 X-2.4729 Y2.2039  
G01 X-2.4670 Y2.2078  
G01 X-2.4605 Y2.2105  
G01 X-2.4535 Y2.2119  
G01 X-2.4465 Y2.2119  
G01 X-2.4395 Y2.2105  
G01 X-2.4330 Y2.2078  
G01 X-2.4304 Y2.2061  
G01 X-2.3588 Y2.2777  
G01 X-2.3541 Y2.2805  
G01 X-2.3488 Y2.2819  
G01 X-1.9522 Y2.2819  
G01 X-1.9469 Y2.2805  
G01 X-1.9422 Y2.2777  
G01 X-1.9383 Y2.2738  
G01 X-1.8702 Y2.2057  
G01 X-1.8670 Y2.2078  
G01 X-1.8605 Y2.2105  
G01 X-1.8535 Y2.2119  
G01 X-1.8465 Y2.2119  
G01 X-1.8395 Y2.2105  
G01 X-1.8330 Y2.2078  
G01 X-1.8271 Y2.2039  
G01 X-1.8239 Y2.2007  
G01 X-1.8229 Y2.2017  
G01 X-1.8229 Y2.2128  
G01 X-1.8215 Y2.2181  
G01 X-1.8187 Y2.2228  
G01 X-1.6657 Y2.3758  
G01 X-1.6618 Y2.3797  
G01 X-1.6571 Y2.3825  
G01 X-1.6518 Y2.3839  
G01 X-1.6407 Y2.3839  
G01 X-1.6311 Y2.3934  
G01 X-1.6330 Y2.3922  
G01 X-1.6395 Y2.3895  
G01 X-1.6465 Y2.3881  
G01 X-1.6535 Y2.3881  
G01 X-1.6605 Y2.3895  
G01 X-1.6670 Y2.3922  
G01 X-1.6729 Y2.3961  
G01 X-1.6779 Y2.4011  
G01 X-1.6818 Y2.4070  
G01 X-1.6845 Y2.4135  
G01 X-1.6859 Y2.4205  
G01 X-1.6859 Y2.4795  
G01 X-1.6849 Y2.4845  
G01 X-1.7141 Y2.4553  
G01 X-1.7141 Y2.4205  
G01 X-1.7155 Y2.4135  
G01 X-1.7182 Y2.4070  
G01 X-1.7221 Y2.4011  
G01 X-1.7271 Y2.3961  
G01 X-1.7330 Y2.3922  
G01 X-1.7395 Y2.3895  
G01 X-1.7465 Y2.3881  
G01 X-1.7535 Y2.3881  
G01 X-1.7605 Y2.3895  
G01 X-1.7670 Y2.3922  
G01 X-1.7729 Y2.3961  
G01 X-1.7779 Y2.4011  
G01 X-1.7818 Y2.4070  
G01 X-1.7845 Y2.4135  
G01 X-1.7859 Y2.4205  
G01 X-1.7859 Y2.4795  
G01 X-1.7845 Y2.4865  
G01 X-1.7842 Y2.4872  
G01 X-1.8141 Y2.4573  
G01 X-1.8141 Y2.4205  
G01 X-1.8155 Y2.4135  
G01 X-1.8182 Y2.4070  
G01 X-1.8221 Y2.4011  
G01 X-1.8271 Y2.3961  
G01 X-1.8330 Y2.3922  
G01 X-1.8395 Y2.3895  
G01 X-1.8465 Y2.3881  
G01 X-1.8535 Y2.3881  
G01 X-1.8605 Y2.3895  
G01 X-1.8670 Y2.3922  
G01 X-1.8729 Y2.3961  
G01 X-1.8779 Y2.4011  
G01 X-1.8818 Y2.4070  
G01 X-1.8845 Y2.4135  
G01 X-1.8859 Y2.4205  
G01 X-1.8859 Y2.4795  
G01 X-1.8845 Y2.4865  
G01 X-1.8818 Y2.4930  
G01 X-1.8779 Y2.4989  
G01 X-1.8729 Y2.5039  
G01 X-1.8670 Y2.5078  
G01 X-1.8605 Y2.5105  
G01 X-1.8535 Y2.5119  
G01 X-1.8465 Y2.5119  
G01 X-1.8395 Y2.5105  
G01 X-1.8330 Y2.5078  
G01 X-1.8271 Y2.5039  
G01 X-1.8269 Y2.5037  
G01 X-1.6869 Y2.6437  
G01 X-1.6869 Y2.9899  
G01 X-1.6870 Y2.9905  
G01 X-1.6869 Y2.9926  
G01 X-1.6869 Y2.9948  
G01 X-1.6867 Y2.9954  
G01 X-1.6867 Y2.9960  
G01 X-1.6860 Y2.9980  
G01 X-1.6859 Y2.9985  
G01 X-1.6859 Y3.0105  
G01 X-1.7042 Y2.9923  
G01 X-1.7089 Y2.9895  
G01 X-1.7142 Y2.9881  
G01 X-1.7641 Y2.9881  
G01 X-1.7641 Y2.9851  
G01 X-1.7851 Y2.9641  
G01 X-1.8149 Y2.9641  
G01 X-1.8359 Y2.9851  
G01 X-1.8359 Y3.0133  
G01 X-1.8617 Y3.0391  
G01 X-1.9123 Y3.0391  
G01 X-1.9592 Y2.9923  
G01 X-1.9639 Y2.9895  
G01 X-1.9692 Y2.9881  
G01 X-2.0141 Y2.9881  
G01 X-2.0141 Y2.9851  
G01 X-2.0351 Y2.9641  
G01 X-2.0649 Y2.9641  
G01 X-2.0859 Y2.9851  
G01 X-2.0859 Y3.0083  
G01 X-2.1167 Y3.0391  
G01 X-2.2353 Y3.0391  
G01 X-2.2641 Y3.0103  
G01 X-2.2641 Y2.9851  
G01 X-2.2851 Y2.9641  
G01 X-2.3149 Y2.9641  
G01 X-2.3359 Y2.9851  
G01 X-2.3359 Y3.0033  
G01 X-2.3717 Y3.0391  
G01 X-2.4053 Y3.0391  
G01 X-2.4085 Y3.0359  
G01 X-2.3851 Y3.0359  
G01 X-2.3641 Y3.0149  
G01 X-2.3641 Y2.9887  
G01 X-2.1423 Y2.7668  
G01 X-2.1395 Y2.7621  
G01 X-2.1381 Y2.7568  
G01 X-2.1381 Y2.5099  
G01 X-2.1330 Y2.5078  
G01 X-2.1271 Y2.5039  
G01 X-2.1221 Y2.4989  
G01 X-2.1182 Y2.4930  
G01 X-2.1155 Y2.4865  
G01 X-2.1141 Y2.4795  
G01 X-2.1141 Y2.4205  
G01 X-2.1155 Y2.4135  
G01 X-2.1182 Y2.4070  
G01 X-2.1221 Y2.4011  
G01 X-2.1271 Y2.3961  
G01 X-2.1330 Y2.3922  
G01 X-2.1395 Y2.3895  
G01 X-2.1465 Y2.3881  
G01 X-2.1535 Y2.3881  
G01 X-2.1605 Y2.3895  
G01 X-2.1670 Y2.3922  
G01 X-2.1729 Y2.3961  
G01 X-2.1779 Y2.4011  
G01 X-2.1818 Y2.4070  
G01 X-2.1845 Y2.4135  
G01 X-2.1859 Y2.4205  
G01 X-2.1859 Y2.4795  
G01 X-2.1845 Y2.4865  
G01 X-2.1818 Y2.4930  
G01 X-2.1799 Y2.4959  
G01 X-2.1799 Y2.7453  
G01 X-2.3987 Y2.9641  
G01 X-2.4149 Y2.9641  
G01 X-2.4359 Y2.9851  
G01 X-2.4359 Y3.0085  
G01 X-2.4522 Y2.9923  
G01 X-2.4569 Y2.9895  
G01 X-2.4622 Y2.9881  
G01 X-2.5141 Y2.9881  
G01 X-2.5141 Y2.9851  
G01 X-2.5351 Y2.9641  
G01 X-2.5649 Y2.9641  
G01 X-2.5859 Y2.9851  
G01 X-2.5859 Y3.0149  
G01 X-2.5857 Y3.0151  
G01 X-2.6097 Y3.0391  
G01 X-2.6603 Y3.0391  
G01 X-2.6635 Y3.0359  
G01 X-2.6351 Y3.0359  
G01 X-2.6141 Y3.0149  
G01 X-2.6141 Y3.0007  
G01 X-2.2443 Y2.6308  
G01 X-2.2415 Y2.6261  
G01 X-2.2401 Y2.6208  
G01 X-2.2401 Y2.5106  
G01 X-2.2395 Y2.5105  
G01 X-2.2330 Y2.5078  
G01 X-2.2271 Y2.5039  
G01 X-2.2221 Y2.4989  
G01 X-2.2182 Y2.4930  
G01 X-2.2155 Y2.4865  
G01 X-2.2141 Y2.4795  
G01 X-2.2141 Y2.4205  
G01 X-2.2155 Y2.4135  
G01 X-2.2182 Y2.4070  
G01 X-2.2221 Y2.4011  
G01 X-2.2271 Y2.3961  
G01 X-2.2330 Y2.3922  
G01 X-2.2395 Y2.3895  
G01 X-2.2465 Y2.3881  
G01 X-2.2535 Y2.3881  
G01 X-2.2605 Y2.3895  
G01 X-2.2670 Y2.3922  
G01 X-2.2729 Y2.3961  
G01 X-2.2779 Y2.4011  
G01 X-2.2818 Y2.4070  
G01 X-2.2845 Y2.4135  
G01 X-2.2859 Y2.4205  
G01 X-2.2859 Y2.4795  
G01 X-2.2845 Y2.4865  
G01 X-2.2819 Y2.4928  
G01 X-2.2819 Y2.6093  
G01 X-2.6367 Y2.9641  
G01 X-2.6649 Y2.9641  
G01 X-2.6859 Y2.9851  
G01 X-2.6859 Y3.0135  
G01 X-2.7072 Y2.9923  
G01 X-2.7119 Y2.9895  
G01 X-2.7172 Y2.9881  
G01 X-2.7641 Y2.9881  
G01 X-2.7641 Y2.9851  
G01 X-2.7851 Y2.9641  
G01 X-2.8149 Y2.9641  
G01 X-2.8359 Y2.9851  
G01 X-2.8359 Y3.0103  
G01 X-2.8647 Y3.0391  
G01 X-2.9153 Y3.0391  
G01 X-2.9622 Y2.9923  
G01 X-2.9669 Y2.9895  
G01 X-2.9722 Y2.9881  
G01 X-3.0141 Y2.9881  
G01 X-3.0141 Y2.9851  
G01 X-3.0351 Y2.9641  
G01 X-3.0649 Y2.9641  
G01 X-3.0859 Y2.9851  
G01 X-3.0859 Y3.0149  
G01 X-3.0649 Y3.0359  
G01 X-3.0351 Y3.0359  
G01 X-3.0291 Y3.0299  
G01 X-2.9837 Y3.0299  
G01 X-2.9407 Y3.0728  
G01 X-2.9368 Y3.0767  
G01 X-2.9321 Y3.0795  
G01 X-2.9268 Y3.0809  
G01 X-2.8532 Y3.0809  
G01 X-2.8479 Y3.0795  
G01 X-2.8432 Y3.0767  
G01 X-2.8023 Y3.0359  
G01 X-2.7851 Y3.0359  
G01 X-2.7791 Y3.0299  
G01 X-2.7287 Y3.0299  
G01 X-2.6857 Y3.0728  
G01 X-2.6818 Y3.0767  
G01 X-2.6771 Y3.0795  
G01 X-2.6718 Y3.0809  
G01 X-2.5982 Y3.0809  
G01 X-2.5929 Y3.0795  
G01 X-2.5882 Y3.0767  
G01 X-2.5473 Y3.0359  
G01 X-2.5351 Y3.0359  
G01 X-2.5291 Y3.0299  
G01 X-2.4737 Y3.0299  
G01 X-2.4307 Y3.0728  
G01 X-2.4268 Y3.0767  
G01 X-2.4221 Y3.0795  
G01 X-2.4168 Y3.0809  
G01 X-2.3602 Y3.0809  
G01 X-2.3549 Y3.0795  
G01 X-2.3502 Y3.0767  
G01 X-2.3093 Y3.0359  
G01 X-2.2977 Y3.0359  
G01 X-2.2568 Y3.0767  
G01 X-2.2521 Y3.0795  
G01 X-2.2468 Y3.0809  
G01 X-2.1052 Y3.0809  
G01 X-2.0999 Y3.0795  
G01 X-2.0952 Y3.0767  
G01 X-2.0543 Y3.0359  
G01 X-2.0351 Y3.0359  
G01 X-2.0291 Y3.0299  
G01 X-1.9807 Y3.0299  
G01 X-1.9377 Y3.0728  
G01 X-1.9338 Y3.0767  
G01 X-1.9291 Y3.0795  
G01 X-1.9238 Y3.0809  
G01 X-1.8502 Y3.0809  
G01 X-1.8449 Y3.0795  
G01 X-1.8402 Y3.0767  
G01 X-1.7993 Y3.0359  
G01 X-1.7851 Y3.0359  
G01 X-1.7791 Y3.0299  
G01 X-1.7257 Y3.0299  
G01 X-1.6827 Y3.0728  
G01 X-1.6788 Y3.0767  
G01 X-1.6741 Y3.0795  
G01 X-1.6688 Y3.0809  
G01 X-1.6122 Y3.0809  
G01 X-1.6069 Y3.0795  
G01 X-1.6022 Y3.0767  
G01 X-1.5613 Y3.0359  
G01 X-1.5497 Y3.0359  
G01 X-1.5088 Y3.0767  
G01 X-1.5041 Y3.0795  
G01 X-1.4988 Y3.0809  
G01 X-1.3572 Y3.0809  
G01 X-1.3519 Y3.0795  
G01 X-1.3472 Y3.0767  
G01 X-1.3433 Y3.0728  
G01 X-1.3063 Y3.0359  
G01 X-1.2947 Y3.0359  
G01 X-1.2538 Y3.0767  
G01 X-1.2491 Y3.0795  
G01 X-1.2438 Y3.0809  
G01 X-1.1362 Y3.0809  
G01 X-1.1309 Y3.0795  
G01 X-1.1262 Y3.0767  
G01 X-1.1223 Y3.0728  
G01 X-1.0793 Y3.0299  
G01 X-1.0709 Y3.0299  
G01 X-1.0649 Y3.0359  
G01 X-1.0397 Y3.0359  
G01 X-0.9988 Y3.0767  
G01 X-0.9941 Y3.0795  
G01 X-0.9888 Y3.0809  
G01 X-0.8642 Y3.0809  
G01 X-0.8589 Y3.0795  
G01 X-0.8542 Y3.0767  
G01 X-0.8503 Y3.0728  
G01 X-0.8133 Y3.0359  
G01 X-0.7851 Y3.0359  
G01 X-0.7641 Y3.0149  
G01 X-0.7641 Y3.0129  
G01 X-0.4052 Y3.0129  
G01 X-0.3999 Y3.0115  
G01 X-0.3952 Y3.0087  
G01 X-0.3913 Y3.0048  
G01 X-0.0343 Y2.6478  
G01 X-0.0315 Y2.6431  
G01 X-0.0301 Y2.6378  
G01 X-0.0301 Y2.5642  
G01 X-0.0315 Y2.5589  
G01 X-0.0343 Y2.5542  
G01 X-0.0382 Y2.5503  
G01 X-0.1744 Y2.4140  
G01 X-0.0343 Y2.2738  
G01 X-0.0315 Y2.2691  
G01 X-0.0301 Y2.2638  
G01 X-0.0301 Y0.7452  
G01 X-0.0315 Y0.7399  
G01 X-0.0343 Y0.7352  
G01 X-0.0382 Y0.7313  
G01 X-0.1661 Y0.6033  
G01 X-0.1661 Y0.5541  
G01 X-0.1515 Y0.5541  
G01 X-0.1431 Y0.5528  
G01 X-0.1350 Y0.5502  
G01 X-0.1274 Y0.5463  
G01 X-0.1205 Y0.5413  
G01 X-0.1144 Y0.5353  
G01 X-0.1094 Y0.5284  
G01 X-0.1056 Y0.5208  
G01 X-0.1029 Y0.5127  
G01 X-0.1016 Y0.5043  
G01 X-0.1016 Y0.4957  
G01 X-0.1029 Y0.4873  
G01 X-0.1056 Y0.4792  
G01 X-0.1094 Y0.4716  
G01 X-0.1144 Y0.4647  
G01 X-0.1205 Y0.4587  
G01 X-0.1274 Y0.4537  
G01 X-0.1350 Y0.4498  
G01 X-0.1431 Y0.4472  
G01 X-0.1515 Y0.4459  
G01 X-0.2485 Y0.4459  
G01 X-0.2569 Y0.4472  
G01 X-0.2650 Y0.4498  
G01 X-0.2674 Y0.4510  
G01 X-0.4531 Y0.2653  
G01 X-0.4531 Y0.2306  
G00 Z0.1000  
G00 X-0.6329 Y0.2166  
G01 Z-0.0027 F10    
G01 X-0.6469 Y0.2306  F40    
G01 X-0.6469 Y0.2694  
G01 X-0.6194 Y0.2969  
G01 X-0.6159 Y0.2969  
G01 X-0.6159 Y0.3598  
G01 X-0.6145 Y0.3651  
G01 X-0.6117 Y0.3698  
G01 X-0.2757 Y0.7059  
G01 X-0.2795 Y0.7087  
G01 X-0.2856 Y0.7147  
G01 X-0.2906 Y0.7216  
G01 X-0.2944 Y0.7292  
G01 X-0.2971 Y0.7373  
G01 X-0.2984 Y0.7457  
G01 X-0.2984 Y0.7543  
G01 X-0.2971 Y0.7627  
G01 X-0.2944 Y0.7708  
G01 X-0.2906 Y0.7784  
G01 X-0.2856 Y0.7853  
G01 X-0.2795 Y0.7913  
G01 X-0.2726 Y0.7963  
G01 X-0.2650 Y0.8002  
G01 X-0.2569 Y0.8028  
G01 X-0.2485 Y0.8041  
G01 X-0.2249 Y0.8041  
G01 X-0.2249 Y0.8923  
G01 X-0.4151 Y1.0825  
G01 X-0.4200 Y1.0776  
G01 X-0.4800 Y1.0776  
G01 X-0.5224 Y1.1200  
G01 X-0.5224 Y1.1800  
G01 X-0.4800 Y1.2224  
G01 X-0.4799 Y1.3776  
G01 X-0.5224 Y1.4200  
G01 X-0.5224 Y1.4800  
G01 X-0.4800 Y1.5224  
G01 X-0.4300 Y1.5224  
G01 X-0.4587 Y1.5512  
G01 X-0.4615 Y1.5559  
G01 X-0.4629 Y1.5612  
G01 X-0.4629 Y1.7641  
G01 X-0.4649 Y1.7641  
G01 X-0.4859 Y1.7851  
G01 X-0.4859 Y1.8135  
G01 X-0.8971 Y1.4023  
G01 X-0.8971 Y0.7962  
G01 X-0.8985 Y0.7909  
G01 X-0.9013 Y0.7862  
G01 X-1.1053 Y0.5822  
G01 X-1.1092 Y0.5783  
G01 X-1.1139 Y0.5755  
G01 X-1.1192 Y0.5741  
G01 X-1.1758 Y0.5741  
G01 X-1.1811 Y0.5755  
G01 X-1.1858 Y0.5783  
G01 X-1.2198 Y0.6123  
G01 X-1.2237 Y0.6162  
G01 X-1.2265 Y0.6209  
G01 X-1.2279 Y0.6262  
G01 X-1.2279 Y0.8271  
G01 X-1.2292 Y0.8291  
G01 X-1.2708 Y0.8291  
G01 X-1.2721 Y0.8271  
G01 X-1.2771 Y0.8221  
G01 X-1.2830 Y0.8182  
G01 X-1.2895 Y0.8155  
G01 X-1.2965 Y0.8141  
G01 X-1.3035 Y0.8141  
G01 X-1.3105 Y0.8155  
G01 X-1.3170 Y0.8182  
G01 X-1.3229 Y0.8221  
G01 X-1.3279 Y0.8271  
G01 X-1.3318 Y0.8330  
G01 X-1.3345 Y0.8395  
G01 X-1.3359 Y0.8465  
G01 X-1.3359 Y0.8473  
G01 X-1.5727 Y1.0841  
G01 X-1.6333 Y1.0841  
G01 X-1.6141 Y1.0649  
G01 X-1.6141 Y1.0351  
G01 X-1.6351 Y1.0141  
G01 X-1.6593 Y1.0141  
G01 X-1.7641 Y0.9093  
G01 X-1.7641 Y0.8665  
G01 X-1.7638 Y0.8667  
G01 X-1.6859 Y0.9447  
G01 X-1.6859 Y0.9649  
G01 X-1.6649 Y0.9859  
G01 X-1.6351 Y0.9859  
G01 X-1.6141 Y0.9649  
G01 X-1.6141 Y0.9351  
G01 X-1.6168 Y0.9324  
G01 X-1.5553 Y0.8709  
G01 X-1.5292 Y0.8709  
G01 X-1.5279 Y0.8729  
G01 X-1.5229 Y0.8779  
G01 X-1.5170 Y0.8818  
G01 X-1.5105 Y0.8845  
G01 X-1.5035 Y0.8859  
G01 X-1.4965 Y0.8859  
G01 X-1.4895 Y0.8845  
G01 X-1.4830 Y0.8818  
G01 X-1.4771 Y0.8779  
G01 X-1.4721 Y0.8729  
G01 X-1.4682 Y0.8670  
G01 X-1.4655 Y0.8605  
G01 X-1.4641 Y0.8535  
G01 X-1.4641 Y0.8465  
G01 X-1.4655 Y0.8395  
G01 X-1.4682 Y0.8330  
G01 X-1.4721 Y0.8271  
G01 X-1.4771 Y0.8221  
G01 X-1.4830 Y0.8182  
G01 X-1.4895 Y0.8155  
G01 X-1.4965 Y0.8141  
G01 X-1.5035 Y0.8141  
G01 X-1.5105 Y0.8155  
G01 X-1.5170 Y0.8182  
G01 X-1.5229 Y0.8221  
G01 X-1.5279 Y0.8271  
G01 X-1.5292 Y0.8291  
G01 X-1.5668 Y0.8291  
G01 X-1.5721 Y0.8305  
G01 X-1.5768 Y0.8333  
G01 X-1.6575 Y0.9139  
G01 X-1.7301 Y0.8413  
G01 X-1.7301 Y0.8302  
G01 X-1.7315 Y0.8249  
G01 X-1.7343 Y0.8202  
G01 X-1.7382 Y0.8163  
G01 X-1.9615 Y0.5929  
G01 X-1.9322 Y0.5929  
G01 X-1.9212 Y0.5819  
G01 X-1.6577 Y0.5819  
G01 X-1.5859 Y0.6537  
G01 X-1.5859 Y0.6649  
G01 X-1.5649 Y0.6859  
G01 X-1.5537 Y0.6859  
G01 X-1.4319 Y0.8077  
G01 X-1.4319 Y0.8332  
G01 X-1.4345 Y0.8395  
G01 X-1.4359 Y0.8465  
G01 X-1.4359 Y0.8535  
G01 X-1.4345 Y0.8605  
G01 X-1.4318 Y0.8670  
G01 X-1.4279 Y0.8729  
G01 X-1.4229 Y0.8779  
G01 X-1.4170 Y0.8818  
G01 X-1.4105 Y0.8845  
G01 X-1.4035 Y0.8859  
G01 X-1.3965 Y0.8859  
G01 X-1.3895 Y0.8845  
G01 X-1.3830 Y0.8818  
G01 X-1.3771 Y0.8779  
G01 X-1.3721 Y0.8729  
G01 X-1.3682 Y0.8670  
G01 X-1.3655 Y0.8605  
G01 X-1.3641 Y0.8535  
G01 X-1.3641 Y0.8465  
G01 X-1.3655 Y0.8395  
G01 X-1.3682 Y0.8330  
G01 X-1.3721 Y0.8271  
G01 X-1.3771 Y0.8221  
G01 X-1.3830 Y0.8182  
G01 X-1.3895 Y0.8155  
G01 X-1.3901 Y0.8154  
G01 X-1.3901 Y0.7962  
G01 X-1.3915 Y0.7909  
G01 X-1.3943 Y0.7862  
G01 X-1.5148 Y0.6656  
G01 X-1.5141 Y0.6649  
G01 X-1.5141 Y0.6351  
G01 X-1.5351 Y0.6141  
G01 X-1.5649 Y0.6141  
G01 X-1.5656 Y0.6148  
G01 X-1.6362 Y0.5443  
G01 X-1.6409 Y0.5415  
G01 X-1.6462 Y0.5401  
G01 X-1.9071 Y0.5401  
G01 X-1.9071 Y0.5322  
G01 X-1.9254 Y0.5139  
G01 X-0.9389 Y0.5139  
G01 X-0.9389 Y0.5298  
G01 X-0.9375 Y0.5351  
G01 X-0.9347 Y0.5398  
G01 X-0.9308 Y0.5437  
G01 X-0.8369 Y0.6377  
G01 X-0.8369 Y0.6959  
G01 X-0.8485 Y0.6959  
G01 X-0.8569 Y0.6972  
G01 X-0.8650 Y0.6998  
G01 X-0.8726 Y0.7037  
G01 X-0.8795 Y0.7087  
G01 X-0.8856 Y0.7147  
G01 X-0.8906 Y0.7216  
G01 X-0.8944 Y0.7292  
G01 X-0.8971 Y0.7373  
G01 X-0.8984 Y0.7457  
G01 X-0.8984 Y0.7543  
G01 X-0.8971 Y0.7627  
G01 X-0.8944 Y0.7708  
G01 X-0.8906 Y0.7784  
G01 X-0.8856 Y0.7853  
G01 X-0.8795 Y0.7913  
G01 X-0.8726 Y0.7963  
G01 X-0.8650 Y0.8002  
G01 X-0.8569 Y0.8028  
G01 X-0.8485 Y0.8041  
G01 X-0.7515 Y0.8041  
G01 X-0.7431 Y0.8028  
G01 X-0.7350 Y0.8002  
G01 X-0.7274 Y0.7963  
G01 X-0.7205 Y0.7913  
G01 X-0.7144 Y0.7853  
G01 X-0.7094 Y0.7784  
G01 X-0.7056 Y0.7708  
G01 X-0.7029 Y0.7627  
G01 X-0.7016 Y0.7543  
G01 X-0.7016 Y0.7457  
G01 X-0.7029 Y0.7373  
G01 X-0.7056 Y0.7292  
G01 X-0.7094 Y0.7216  
G01 X-0.7144 Y0.7147  
G01 X-0.7205 Y0.7087  
G01 X-0.7274 Y0.7037  
G01 X-0.7350 Y0.6998  
G01 X-0.7431 Y0.6972  
G01 X-0.7515 Y0.6959  
G01 X-0.7951 Y0.6959  
G01 X-0.7951 Y0.6262  
G01 X-0.7965 Y0.6209  
G01 X-0.7993 Y0.6162  
G01 X-0.8655 Y0.5499  
G01 X-0.8650 Y0.5502  
G01 X-0.8569 Y0.5528  
G01 X-0.8485 Y0.5541  
G01 X-0.7515 Y0.5541  
G01 X-0.7431 Y0.5528  
G01 X-0.7350 Y0.5502  
G01 X-0.7274 Y0.5463  
G01 X-0.7205 Y0.5413  
G01 X-0.7144 Y0.5353  
G01 X-0.7094 Y0.5284  
G01 X-0.7056 Y0.5208  
G01 X-0.7029 Y0.5127  
G01 X-0.7016 Y0.5043  
G01 X-0.7016 Y0.4957  
G01 X-0.7029 Y0.4873  
G01 X-0.7056 Y0.4792  
G01 X-0.7094 Y0.4716  
G01 X-0.7144 Y0.4647  
G01 X-0.7205 Y0.4587  
G01 X-0.7274 Y0.4537  
G01 X-0.7350 Y0.4498  
G01 X-0.7431 Y0.4472  
G01 X-0.7515 Y0.4459  
G01 X-0.7781 Y0.4459  
G01 X-0.7781 Y0.2944  
G01 X-0.7596 Y0.2759  
G01 X-0.7404 Y0.2759  
G01 X-0.7194 Y0.2969  
G01 X-0.6806 Y0.2969  
G01 X-0.6531 Y0.2694  
G01 X-0.6531 Y0.2306  
G01 X-0.6806 Y0.2031  
G01 X-0.6931 Y0.2031  
G01 X-0.6931 Y0.1969  
G01 X-0.6806 Y0.1969  
G01 X-0.6576 Y0.1739  
G01 X-0.6424 Y0.1739  
G01 X-0.6329 Y0.1834  
G01 X-0.6329 Y0.2166  
G00 Z0.1000  
G00 X-0.7349 Y0.2186  
G01 Z-0.0027 F10    
G01 X-0.7469 Y0.2306  F40    
G01 X-0.7469 Y0.2341  
G01 X-0.7531 Y0.2341  
G01 X-0.7531 Y0.2306  
G01 X-0.7806 Y0.2031  
G01 X-0.8194 Y0.2031  
G01 X-0.8469 Y0.2306  
G01 X-0.8469 Y0.2694  
G01 X-0.8199 Y0.2964  
G01 X-0.8199 Y0.4459  
G01 X-0.8485 Y0.4459  
G01 X-0.8569 Y0.4472  
G01 X-0.8650 Y0.4498  
G01 X-0.8726 Y0.4537  
G01 X-0.8795 Y0.4587  
G01 X-0.8856 Y0.4647  
G01 X-0.8906 Y0.4716  
G01 X-0.8944 Y0.4792  
G01 X-0.8971 Y0.4873  
G01 X-0.8971 Y0.4875  
G01 X-0.8971 Y0.2969  
G01 X-0.8806 Y0.2969  
G01 X-0.8531 Y0.2694  
G01 X-0.8531 Y0.2306  
G01 X-0.8801 Y0.2036  
G01 X-0.8801 Y0.1964  
G01 X-0.8531 Y0.1694  
G01 X-0.8531 Y0.1306  
G01 X-0.8778 Y0.1059  
G01 X-0.8757 Y0.1059  
G01 X-0.8469 Y0.1347  
G01 X-0.8469 Y0.1694  
G01 X-0.8194 Y0.1969  
G01 X-0.7806 Y0.1969  
G01 X-0.7576 Y0.1739  
G01 X-0.7424 Y0.1739  
G01 X-0.7349 Y0.1814  
G01 X-0.7349 Y0.2186  
G00 Z0.1000  
G00 X-0.9219 Y0.2056  
G01 Z-0.0027 F10    
G01 X-0.9469 Y0.2306  F40    
G01 X-0.9469 Y0.2694  
G01 X-0.9389 Y0.2774  
G01 X-0.9389 Y0.4721  
G01 X-1.9918 Y0.4721  
G01 X-1.9971 Y0.4735  
G01 X-2.0018 Y0.4763  
G01 X-2.0057 Y0.4802  
G01 X-2.0191 Y0.4935  
G01 X-2.0191 Y0.3487  
G01 X-1.9633 Y0.2929  
G01 X-1.9322 Y0.2929  
G01 X-1.9071 Y0.2678  
G01 X-1.9071 Y0.2367  
G01 X-1.7763 Y0.1059  
G01 X-0.9222 Y0.1059  
G01 X-0.9469 Y0.1306  
G01 X-0.9469 Y0.1694  
G01 X-0.9219 Y0.1944  
G01 X-0.9219 Y0.2056  
G00 Z0.1000  
G00 X-0.8971 Y0.5125  
G01 Z-0.0027 F10    
G01 X-0.8971 Y0.5127  F40    
G01 X-0.8944 Y0.5208  
G01 X-0.8942 Y0.5212  
G01 X-0.8971 Y0.5183  
G01 X-0.8971 Y0.5125  
G00 Z0.1000  
G00 X-1.1307 Y0.6159  
G01 Z-0.0027 F10    
G01 X-0.9389 Y0.8077  F40    
G01 X-0.9389 Y0.9525  
G01 X-0.9392 Y0.9523  
G01 X-1.1181 Y0.7733  
G01 X-1.1181 Y0.6689  
G01 X-1.1141 Y0.6649  
G01 X-1.1141 Y0.6351  
G01 X-1.1333 Y0.6159  
G01 X-1.1307 Y0.6159  
G00 Z0.1000  
G00 X-1.1859 Y0.6375  
G01 Z-0.0027 F10    
G01 X-1.1859 Y0.6649  F40    
G01 X-1.1649 Y0.6859  
G01 X-1.1599 Y0.6859  
G01 X-1.1599 Y0.7848  
G01 X-1.1585 Y0.7901  
G01 X-1.1557 Y0.7948  
G01 X-1.0365 Y0.9141  
G01 X-1.0649 Y0.9141  
G01 X-1.0819 Y0.9311  
G01 X-1.3118 Y0.9311  
G01 X-1.3171 Y0.9325  
G01 X-1.3218 Y0.9353  
G01 X-1.5007 Y1.1141  
G01 X-1.5035 Y1.1141  
G01 X-1.5105 Y1.1155  
G01 X-1.5170 Y1.1182  
G01 X-1.5229 Y1.1221  
G01 X-1.5279 Y1.1271  
G01 X-1.5318 Y1.1330  
G01 X-1.5345 Y1.1395  
G01 X-1.5359 Y1.1465  
G01 X-1.5359 Y1.1535  
G01 X-1.5356 Y1.1548  
G01 X-1.5431 Y1.1473  
G01 X-1.5431 Y1.1137  
G01 X-1.3129 Y0.8835  
G01 X-1.3105 Y0.8845  
G01 X-1.3035 Y0.8859  
G01 X-1.2965 Y0.8859  
G01 X-1.2895 Y0.8845  
G01 X-1.2830 Y0.8818  
G01 X-1.2771 Y0.8779  
G01 X-1.2721 Y0.8729  
G01 X-1.2708 Y0.8709  
G01 X-1.2292 Y0.8709  
G01 X-1.2279 Y0.8729  
G01 X-1.2229 Y0.8779  
G01 X-1.2170 Y0.8818  
G01 X-1.2105 Y0.8845  
G01 X-1.2035 Y0.8859  
G01 X-1.1965 Y0.8859  
G01 X-1.1895 Y0.8845  
G01 X-1.1830 Y0.8818  
G01 X-1.1771 Y0.8779  
G01 X-1.1721 Y0.8729  
G01 X-1.1682 Y0.8670  
G01 X-1.1655 Y0.8605  
G01 X-1.1641 Y0.8535  
G01 X-1.1641 Y0.8465  
G01 X-1.1655 Y0.8395  
G01 X-1.1682 Y0.8330  
G01 X-1.1721 Y0.8271  
G01 X-1.1771 Y0.8221  
G01 X-1.1830 Y0.8182  
G01 X-1.1861 Y0.8169  
G01 X-1.1861 Y0.6377  
G01 X-1.1859 Y0.6375  
G00 Z0.1000  
G00 X-1.0779 Y0.9729  
G01 Z-0.0027 F10    
G01 X-1.0649 Y0.9859  F40    
G01 X-1.0579 Y0.9859  
G01 X-1.0579 Y0.9888  
G01 X-1.0565 Y0.9941  
G01 X-1.0537 Y0.9988  
G01 X-1.0385 Y1.0141  
G01 X-1.0649 Y1.0141  
G01 X-1.0839 Y1.0331  
G01 X-1.1078 Y1.0331  
G01 X-1.1131 Y1.0345  
G01 X-1.1178 Y1.0373  
G01 X-1.1950 Y1.1144  
G01 X-1.1965 Y1.1141  
G01 X-1.2035 Y1.1141  
G01 X-1.2105 Y1.1155  
G01 X-1.2170 Y1.1182  
G01 X-1.2229 Y1.1221  
G01 X-1.2279 Y1.1271  
G01 X-1.2318 Y1.1330  
G01 X-1.2345 Y1.1395  
G01 X-1.2359 Y1.1465  
G01 X-1.2359 Y1.1535  
G01 X-1.2345 Y1.1605  
G01 X-1.2318 Y1.1670  
G01 X-1.2279 Y1.1729  
G01 X-1.2279 Y1.3271  
G01 X-1.2359 Y1.3351  
G01 X-1.2359 Y1.3649  
G01 X-1.2149 Y1.3859  
G01 X-1.1851 Y1.3859  
G01 X-1.1801 Y1.3809  
G01 X-1.1137 Y1.3809  
G01 X-1.0579 Y1.4367  
G01 X-1.0579 Y1.4533  
G01 X-1.0641 Y1.4595  
G01 X-1.0641 Y1.4351  
G01 X-1.0851 Y1.4141  
G01 X-1.1149 Y1.4141  
G01 X-1.1359 Y1.4351  
G01 X-1.1359 Y1.4411  
G01 X-1.2098 Y1.4411  
G01 X-1.2151 Y1.4425  
G01 X-1.2198 Y1.4453  
G01 X-1.2819 Y1.5074  
G01 X-1.2822 Y1.5071  
G01 X-1.3178 Y1.5071  
G01 X-1.3429 Y1.5322  
G01 X-1.3429 Y1.5431  
G01 X-1.5158 Y1.5431  
G01 X-1.5211 Y1.5445  
G01 X-1.5258 Y1.5473  
G01 X-1.5837 Y1.6051  
G01 X-1.6186 Y1.6051  
G01 X-1.6449 Y1.6314  
G01 X-1.6449 Y1.6451  
G01 X-1.7028 Y1.6451  
G01 X-1.7081 Y1.6465  
G01 X-1.7128 Y1.6493  
G01 X-1.7167 Y1.6532  
G01 X-1.9297 Y1.8661  
G01 X-1.9650 Y1.8661  
G01 X-1.9655 Y1.8635  
G01 X-1.9682 Y1.8570  
G01 X-1.9721 Y1.8511  
G01 X-1.9771 Y1.8461  
G01 X-1.9830 Y1.8422  
G01 X-1.9895 Y1.8395  
G01 X-1.9965 Y1.8381  
G01 X-2.0035 Y1.8381  
G01 X-2.0105 Y1.8395  
G01 X-2.0170 Y1.8422  
G01 X-2.0229 Y1.8461  
G01 X-2.0279 Y1.8511  
G01 X-2.0318 Y1.8570  
G01 X-2.0345 Y1.8635  
G01 X-2.0359 Y1.8705  
G01 X-2.0359 Y1.9295  
G01 X-2.0345 Y1.9365  
G01 X-2.0318 Y1.9430  
G01 X-2.0279 Y1.9489  
G01 X-2.0229 Y1.9539  
G01 X-2.0170 Y1.9578  
G01 X-2.0105 Y1.9605  
G01 X-2.0035 Y1.9619  
G01 X-1.9965 Y1.9619  
G01 X-1.9895 Y1.9605  
G01 X-1.9830 Y1.9578  
G01 X-1.9771 Y1.9539  
G01 X-1.9721 Y1.9489  
G01 X-1.9682 Y1.9430  
G01 X-1.9655 Y1.9365  
G01 X-1.9641 Y1.9295  
G01 X-1.9641 Y1.9079  
G01 X-1.9182 Y1.9079  
G01 X-1.9129 Y1.9065  
G01 X-1.9082 Y1.9037  
G01 X-1.7449 Y1.7405  
G01 X-1.7449 Y1.7663  
G01 X-2.0567 Y2.0782  
G01 X-2.0595 Y2.0829  
G01 X-2.0609 Y2.0882  
G01 X-2.0609 Y2.0897  
G01 X-2.0670 Y2.0922  
G01 X-2.0729 Y2.0961  
G01 X-2.0779 Y2.1011  
G01 X-2.0818 Y2.1070  
G01 X-2.0845 Y2.1135  
G01 X-2.0859 Y2.1205  
G01 X-2.0859 Y2.1795  
G01 X-2.0845 Y2.1865  
G01 X-2.0818 Y2.1930  
G01 X-2.0779 Y2.1989  
G01 X-2.0729 Y2.2039  
G01 X-2.0696 Y2.2061  
G01 X-2.1304 Y2.2061  
G01 X-2.1271 Y2.2039  
G01 X-2.1221 Y2.1989  
G01 X-2.1182 Y2.1930  
G01 X-2.1155 Y2.1865  
G01 X-2.1141 Y2.1795  
G01 X-2.1141 Y2.1205  
G01 X-2.1155 Y2.1135  
G01 X-2.1182 Y2.1070  
G01 X-2.1221 Y2.1011  
G01 X-2.1271 Y2.0961  
G01 X-2.1330 Y2.0922  
G01 X-2.1395 Y2.0895  
G01 X-2.1465 Y2.0881  
G01 X-2.1535 Y2.0881  
G01 X-2.1605 Y2.0895  
G01 X-2.1670 Y2.0922  
G01 X-2.1729 Y2.0961  
G01 X-2.1779 Y2.1011  
G01 X-2.1818 Y2.1070  
G01 X-2.1845 Y2.1135  
G01 X-2.1859 Y2.1205  
G01 X-2.1859 Y2.1381  
G01 X-2.2141 Y2.1381  
G01 X-2.2141 Y2.1205  
G01 X-2.2155 Y2.1135  
G01 X-2.2182 Y2.1070  
G01 X-2.2221 Y2.1011  
G01 X-2.2271 Y2.0961  
G01 X-2.2330 Y2.0922  
G01 X-2.2395 Y2.0895  
G01 X-2.2465 Y2.0881  
G01 X-2.2535 Y2.0881  
G01 X-2.2605 Y2.0895  
G01 X-2.2670 Y2.0922  
G01 X-2.2729 Y2.0961  
G01 X-2.2741 Y2.0973  
G01 X-2.2741 Y2.0249  
G01 X-2.2641 Y2.0149  
G01 X-2.2641 Y1.9851  
G01 X-2.2851 Y1.9641  
G01 X-2.3149 Y1.9641  
G01 X-2.3359 Y1.9851  
G01 X-2.3359 Y2.0149  
G01 X-2.3159 Y2.0349  
G01 X-2.3159 Y2.1108  
G01 X-2.3145 Y2.1161  
G01 X-2.3117 Y2.1208  
G01 X-2.2859 Y2.1467  
G01 X-2.2859 Y2.1795  
G01 X-2.2845 Y2.1865  
G01 X-2.2818 Y2.1930  
G01 X-2.2806 Y2.1949  
G01 X-2.3141 Y2.1613  
G01 X-2.3141 Y2.1205  
G01 X-2.3155 Y2.1135  
G01 X-2.3182 Y2.1070  
G01 X-2.3221 Y2.1011  
G01 X-2.3271 Y2.0961  
G01 X-2.3330 Y2.0922  
G01 X-2.3395 Y2.0895  
G01 X-2.3421 Y2.0890  
G01 X-2.3421 Y1.6747  
G01 X-2.3033 Y1.6359  
G01 X-2.2851 Y1.6359  
G01 X-2.2641 Y1.6149  
G01 X-2.2641 Y1.5967  
G01 X-2.2610 Y1.5936  
G01 X-2.1208 Y1.7337  
G01 X-2.1161 Y1.7365  
G01 X-2.1108 Y1.7379  
G01 X-1.8332 Y1.7379  
G01 X-1.8279 Y1.7365  
G01 X-1.8232 Y1.7337  
G01 X-1.8193 Y1.7298  
G01 X-1.4963 Y1.4068  
G01 X-1.4935 Y1.4021  
G01 X-1.4921 Y1.3968  
G01 X-1.4921 Y1.1850  
G01 X-1.4895 Y1.1845  
G01 X-1.4830 Y1.1818  
G01 X-1.4771 Y1.1779  
G01 X-1.4721 Y1.1729  
G01 X-1.4682 Y1.1670  
G01 X-1.4655 Y1.1605  
G01 X-1.4641 Y1.1535  
G01 X-1.4641 Y1.1465  
G01 X-1.4655 Y1.1395  
G01 X-1.4659 Y1.1385  
G01 X-1.3003 Y0.9729  
G01 X-1.0779 Y0.9729  
G00 Z0.1000  
G00 X-1.0161 Y0.9773  
G01 Z-0.0027 F10    
G01 X-1.0161 Y0.9669  F40    
G01 X-1.0141 Y0.9649  
G01 X-1.0141 Y0.9365  
G01 X-0.9729 Y0.9777  
G01 X-0.9729 Y1.0205  
G01 X-0.9732 Y1.0203  
G01 X-1.0161 Y0.9773  
G00 Z0.1000  
G00 X-1.0141 Y1.0385  
G01 Z-0.0027 F10    
G01 X-1.0069 Y1.0457  F40    
G01 X-1.0069 Y1.7253  
G01 X-1.0957 Y1.8141  
G01 X-1.1149 Y1.8141  
G01 X-1.1329 Y1.8321  
G01 X-1.2572 Y1.8321  
G01 X-1.2822 Y1.8071  
G01 X-1.3178 Y1.8071  
G01 X-1.3428 Y1.8321  
G01 X-1.5551 Y1.8321  
G01 X-1.5551 Y1.8314  
G01 X-1.5806 Y1.8059  
G01 X-1.3572 Y1.8059  
G01 X-1.3519 Y1.8045  
G01 X-1.3472 Y1.8017  
G01 X-1.3433 Y1.7978  
G01 X-1.0203 Y1.4748  
G01 X-1.0175 Y1.4701  
G01 X-1.0161 Y1.4648  
G01 X-1.0161 Y1.4252  
G01 X-1.0175 Y1.4199  
G01 X-1.0203 Y1.4152  
G01 X-1.0242 Y1.4113  
G01 X-1.0922 Y1.3433  
G01 X-1.0969 Y1.3405  
G01 X-1.1022 Y1.3391  
G01 X-1.1641 Y1.3391  
G01 X-1.1641 Y1.3351  
G01 X-1.1851 Y1.3141  
G01 X-1.1861 Y1.3141  
G01 X-1.1861 Y1.1831  
G01 X-1.1830 Y1.1818  
G01 X-1.1771 Y1.1779  
G01 X-1.1721 Y1.1729  
G01 X-1.1682 Y1.1670  
G01 X-1.1655 Y1.1605  
G01 X-1.1641 Y1.1535  
G01 X-1.1641 Y1.1465  
G01 X-1.1647 Y1.1433  
G01 X-1.0963 Y1.0749  
G01 X-1.0759 Y1.0749  
G01 X-1.0649 Y1.0859  
G01 X-1.0351 Y1.0859  
G01 X-1.0141 Y1.0649  
G01 X-1.0141 Y1.0385  
G00 Z0.1000  
G00 X-1.2721 Y1.1271  
G01 Z-0.0027 F10    
G01 X-1.2771 Y1.1221  F40    
G01 X-1.2830 Y1.1182  
G01 X-1.2895 Y1.1155  
G01 X-1.2965 Y1.1141  
G01 X-1.3035 Y1.1141  
G01 X-1.3105 Y1.1155  
G01 X-1.3170 Y1.1182  
G01 X-1.3229 Y1.1221  
G01 X-1.3279 Y1.1271  
G01 X-1.3318 Y1.1330  
G01 X-1.3327 Y1.1351  
G01 X-1.3673 Y1.1351  
G01 X-1.3682 Y1.1330  
G01 X-1.3721 Y1.1271  
G01 X-1.3771 Y1.1221  
G01 X-1.3830 Y1.1182  
G01 X-1.3895 Y1.1155  
G01 X-1.3965 Y1.1141  
G01 X-1.4035 Y1.1141  
G01 X-1.4105 Y1.1155  
G01 X-1.4170 Y1.1182  
G01 X-1.4229 Y1.1221  
G01 X-1.4279 Y1.1271  
G01 X-1.4318 Y1.1330  
G01 X-1.4345 Y1.1395  
G01 X-1.4359 Y1.1465  
G01 X-1.4359 Y1.1535  
G01 X-1.4345 Y1.1605  
G01 X-1.4318 Y1.1670  
G01 X-1.4279 Y1.1729  
G01 X-1.4229 Y1.1779  
G01 X-1.4170 Y1.1818  
G01 X-1.4105 Y1.1845  
G01 X-1.4035 Y1.1859  
G01 X-1.3965 Y1.1859  
G01 X-1.3895 Y1.1845  
G01 X-1.3830 Y1.1818  
G01 X-1.3771 Y1.1779  
G01 X-1.3761 Y1.1769  
G01 X-1.3239 Y1.1769  
G01 X-1.3229 Y1.1779  
G01 X-1.3170 Y1.1818  
G01 X-1.3105 Y1.1845  
G01 X-1.3035 Y1.1859  
G01 X-1.2965 Y1.1859  
G01 X-1.2895 Y1.1845  
G01 X-1.2830 Y1.1818  
G01 X-1.2771 Y1.1779  
G01 X-1.2721 Y1.1729  
G01 X-1.2682 Y1.1670  
G01 X-1.2655 Y1.1605  
G01 X-1.2641 Y1.1535  
G01 X-1.2641 Y1.1465  
G01 X-1.2655 Y1.1395  
G01 X-1.2682 Y1.1330  
G01 X-1.2721 Y1.1271  
G00 Z0.1000  
G00 X-1.5849 Y1.1259  
G01 Z-0.0027 F10    
G01 X-1.5849 Y1.1588  F40    
G01 X-1.5835 Y1.1641  
G01 X-1.5807 Y1.1688  
G01 X-1.5768 Y1.1727  
G01 X-1.5679 Y1.1817  
G01 X-1.5679 Y1.3313  
G01 X-1.5851 Y1.3141  
G01 X-1.6143 Y1.3141  
G01 X-1.6493 Y1.2792  
G01 X-1.6532 Y1.2753  
G01 X-2.0952 Y0.8333  
G01 X-2.0999 Y0.8305  
G01 X-2.1052 Y0.8291  
G01 X-2.1108 Y0.8291  
G01 X-2.2785 Y0.8291  
G01 X-2.0653 Y0.6159  
G01 X-2.0487 Y0.6159  
G01 X-1.8059 Y0.8587  
G01 X-1.8059 Y0.9208  
G01 X-1.8045 Y0.9261  
G01 X-1.8017 Y0.9308  
G01 X-1.7978 Y0.9347  
G01 X-1.6859 Y1.0467  
G01 X-1.6859 Y1.0555  
G01 X-1.8151 Y0.9263  
G01 X-1.8151 Y0.9159  
G01 X-1.8141 Y0.9149  
G01 X-1.8141 Y0.8851  
G01 X-1.8351 Y0.8641  
G01 X-1.8649 Y0.8641  
G01 X-1.8859 Y0.8851  
G01 X-1.8859 Y0.9149  
G01 X-1.8649 Y0.9359  
G01 X-1.8569 Y0.9359  
G01 X-1.8569 Y0.9378  
G01 X-1.8555 Y0.9431  
G01 X-1.8527 Y0.9478  
G01 X-1.6827 Y1.1178  
G01 X-1.6788 Y1.1217  
G01 X-1.6741 Y1.1245  
G01 X-1.6688 Y1.1259  
G01 X-1.5849 Y1.1259  
G00 Z0.1000  
G00 X-1.5855 Y1.3859  
G01 Z-0.0027 F10    
G01 X-1.8617 Y1.6621  F40    
G01 X-2.0143 Y1.6621  
G01 X-2.0219 Y1.6545  
G01 X-2.0170 Y1.6578  
G01 X-2.0105 Y1.6605  
G01 X-2.0035 Y1.6619  
G01 X-1.9965 Y1.6619  
G01 X-1.9895 Y1.6605  
G01 X-1.9830 Y1.6578  
G01 X-1.9771 Y1.6539  
G01 X-1.9721 Y1.6489  
G01 X-1.9682 Y1.6430  
G01 X-1.9655 Y1.6365  
G01 X-1.9641 Y1.6295  
G01 X-1.9641 Y1.6027  
G01 X-1.6745 Y1.3131  
G01 X-1.6359 Y1.3517  
G01 X-1.6359 Y1.3649  
G01 X-1.6149 Y1.3859  
G01 X-1.5855 Y1.3859  
G00 Z0.1000  
G00 X-1.7041 Y1.2835  
G01 Z-0.0027 F10    
G01 X-1.9719 Y1.5514  F40    
G01 X-1.9721 Y1.5511  
G01 X-1.9771 Y1.5461  
G01 X-1.9830 Y1.5422  
G01 X-1.9895 Y1.5395  
G01 X-1.9965 Y1.5381  
G01 X-2.0035 Y1.5381  
G01 X-2.0105 Y1.5395  
G01 X-2.0170 Y1.5422  
G01 X-2.0229 Y1.5461  
G01 X-2.0279 Y1.5511  
G01 X-2.0318 Y1.5570  
G01 X-2.0345 Y1.5635  
G01 X-2.0359 Y1.5705  
G01 X-2.0359 Y1.6295  
G01 X-2.0345 Y1.6365  
G01 X-2.0318 Y1.6430  
G01 X-2.0285 Y1.6479  
G01 X-2.0361 Y1.6403  
G01 X-2.0361 Y1.5557  
G01 X-2.0143 Y1.5339  
G01 X-2.0032 Y1.5339  
G01 X-1.9979 Y1.5325  
G01 X-1.9932 Y1.5297  
G01 X-1.9893 Y1.5258  
G01 X-1.8493 Y1.3859  
G01 X-1.8351 Y1.3859  
G01 X-1.8141 Y1.3649  
G01 X-1.8141 Y1.3351  
G01 X-1.8351 Y1.3141  
G01 X-1.8649 Y1.3141  
G01 X-1.8859 Y1.3351  
G01 X-1.8859 Y1.3633  
G01 X-2.0147 Y1.4921  
G01 X-2.0258 Y1.4921  
G01 X-2.0311 Y1.4935  
G01 X-2.0358 Y1.4963  
G01 X-2.0397 Y1.5002  
G01 X-2.0698 Y1.5303  
G01 X-2.0737 Y1.5342  
G01 X-2.0765 Y1.5389  
G01 X-2.0779 Y1.5442  
G01 X-2.0779 Y1.6518  
G01 X-2.0765 Y1.6571  
G01 X-2.0737 Y1.6618  
G01 X-2.0397 Y1.6958  
G01 X-2.0395 Y1.6961  
G01 X-2.0993 Y1.6961  
G01 X-2.2401 Y1.5553  
G01 X-2.2401 Y1.3859  
G01 X-2.2351 Y1.3859  
G01 X-2.2141 Y1.3649  
G01 X-2.2141 Y1.3351  
G01 X-2.2351 Y1.3141  
G01 X-2.2603 Y1.3141  
G01 X-2.3761 Y1.1983  
G01 X-2.3761 Y1.1769  
G01 X-2.3641 Y1.1649  
G01 X-2.3641 Y1.1351  
G01 X-2.3851 Y1.1141  
G01 X-2.4093 Y1.1141  
G01 X-2.4441 Y1.0793  
G01 X-2.4441 Y0.9947  
G01 X-2.4179 Y0.9685  
G01 X-2.4179 Y1.0171  
G01 X-2.4359 Y1.0351  
G01 X-2.4359 Y1.0649  
G01 X-2.4149 Y1.0859  
G01 X-2.3851 Y1.0859  
G01 X-2.3641 Y1.0649  
G01 X-2.3641 Y1.0351  
G01 X-2.3761 Y1.0231  
G01 X-2.3761 Y0.9777  
G01 X-2.2859 Y0.8875  
G01 X-2.2859 Y0.9149  
G01 X-2.2819 Y0.9189  
G01 X-2.2819 Y1.0283  
G01 X-2.3177 Y1.0641  
G01 X-2.3399 Y1.0641  
G01 X-2.3609 Y1.0851  
G01 X-2.3609 Y1.1149  
G01 X-2.3399 Y1.1359  
G01 X-2.3101 Y1.1359  
G01 X-2.2891 Y1.1149  
G01 X-2.2891 Y1.0947  
G01 X-2.2443 Y1.0498  
G01 X-2.2415 Y1.0451  
G01 X-2.2401 Y1.0398  
G01 X-2.2401 Y0.9359  
G01 X-2.2351 Y0.9359  
G01 X-2.2141 Y0.9149  
G01 X-2.2141 Y0.8851  
G01 X-2.2283 Y0.8709  
G01 X-2.1167 Y0.8709  
G01 X-1.7041 Y1.2835  
G00 Z0.1000  
G00 X-1.6913 Y1.6869  
G01 Z-0.0027 F10    
G01 X-1.6266 Y1.6869  F40    
G01 X-1.6186 Y1.6949  
G01 X-1.5814 Y1.6949  
G01 X-1.5551 Y1.6686  
G01 X-1.5551 Y1.6357  
G01 X-1.5043 Y1.5849  
G01 X-1.3258 Y1.5849  
G01 X-1.3178 Y1.5929  
G01 X-1.2822 Y1.5929  
G01 X-1.2571 Y1.5678  
G01 X-1.2571 Y1.5417  
G01 X-1.1983 Y1.4829  
G01 X-1.1179 Y1.4829  
G01 X-1.1149 Y1.4859  
G01 X-1.0905 Y1.4859  
G01 X-1.3687 Y1.7641  
G01 X-1.6348 Y1.7641  
G01 X-1.6401 Y1.7655  
G01 X-1.6448 Y1.7683  
G01 X-1.8488 Y1.9723  
G01 X-1.8527 Y1.9762  
G01 X-1.8555 Y1.9809  
G01 X-1.8569 Y1.9862  
G01 X-1.8569 Y2.0888  
G01 X-1.8605 Y2.0895  
G01 X-1.8670 Y2.0922  
G01 X-1.8729 Y2.0961  
G01 X-1.8779 Y2.1011  
G01 X-1.8818 Y2.1070  
G01 X-1.8845 Y2.1135  
G01 X-1.8859 Y2.1205  
G01 X-1.8859 Y2.1623  
G01 X-1.9215 Y2.1979  
G01 X-1.9182 Y2.1930  
G01 X-1.9155 Y2.1865  
G01 X-1.9141 Y2.1795  
G01 X-1.9141 Y2.1205  
G01 X-1.9155 Y2.1135  
G01 X-1.9182 Y2.1070  
G01 X-1.9221 Y2.1011  
G01 X-1.9271 Y2.0961  
G01 X-1.9330 Y2.0922  
G01 X-1.9395 Y2.0895  
G01 X-1.9465 Y2.0881  
G01 X-1.9535 Y2.0881  
G01 X-1.9605 Y2.0895  
G01 X-1.9670 Y2.0922  
G01 X-1.9729 Y2.0961  
G01 X-1.9779 Y2.1011  
G01 X-1.9818 Y2.1070  
G01 X-1.9845 Y2.1135  
G01 X-1.9859 Y2.1205  
G01 X-1.9859 Y2.1603  
G01 X-2.0179 Y2.1924  
G01 X-2.0155 Y2.1865  
G01 X-2.0141 Y2.1795  
G01 X-2.0141 Y2.1205  
G01 X-2.0155 Y2.1135  
G01 X-2.0182 Y2.1070  
G01 X-2.0191 Y2.1056  
G01 X-2.0191 Y2.0997  
G01 X-1.7143 Y1.7949  
G01 X-1.6814 Y1.7949  
G01 X-1.6551 Y1.7686  
G01 X-1.6551 Y1.7314  
G01 X-1.6814 Y1.7051  
G01 X-1.7095 Y1.7051  
G01 X-1.6913 Y1.6869  
G00 Z0.1000  
G00 X-1.6233 Y1.8059  
G01 Z-0.0027 F10    
G01 X-1.6194 Y1.8059  F40    
G01 X-1.6449 Y1.8314  
G01 X-1.6449 Y1.8533  
G01 X-1.7507 Y1.9592  
G01 X-1.7535 Y1.9639  
G01 X-1.7549 Y1.9692  
G01 X-1.7549 Y2.0884  
G01 X-1.7605 Y2.0895  
G01 X-1.7670 Y2.0922  
G01 X-1.7729 Y2.0961  
G01 X-1.7779 Y2.1011  
G01 X-1.7818 Y2.1070  
G01 X-1.7845 Y2.1135  
G01 X-1.7859 Y2.1205  
G01 X-1.7859 Y2.1795  
G01 X-1.7892 Y2.1763  
G01 X-1.8141 Y2.1513  
G01 X-1.8141 Y2.1205  
G01 X-1.8151 Y2.1154  
