(/Applications/pcbgcode.repo/pcb-gcode.ulp)
(Copyright 2005 - 2012 by John Johnson)
(See readme.txt for licensing terms.)
(This file generated from the board:)
(.../eagle/output_attenuator/zerod.brd)
(Current profile is .../pcbgcode.repo/profiles/mach.pp  )
(This file generated 10/23/14 11:57 PM)
(Settings from pcb-machine.h)
(spindle on time = 0.0000)
(  Tool Size)
(0.0103  )
(spindle speed = 30000.0000)
(tool change at 0.0000  0.0000  3.0000  )
(feed rate xy = F20    )
(feed rate z  = F10    )
(Z Axis Settings)
(  High     Up        Down     Drill)
(0.5000  	0.1000  	-0.0021 	-0.0631 )
(Settings from pcb-defaults.h)
(isolate min = 0.0010)
(isolate max = 0.0040)
(isolate step = 0.0010)
(Generated bottom outlines, bottom drill, )
(Unit of measure: inch)
(Inch Mode)
G20
(Absolute Coordinates)
G90
S30000
G00 Z0.5000  
G00 X0.0000  Y0.0000  
M03
G04 P0.000000
G00 Z0.1000  
G00 X-0.0673 Y1.3172  
G01 Z-0.0021 F10    
G01 X-0.0729 Y1.3116  F20    
G01 X-0.0793 Y1.3069  
G01 X-0.0864 Y1.3033  
G01 X-0.0939 Y1.3008  
G01 X-0.1018 Y1.2996  
G01 X-0.1982 Y1.2996  
G01 X-0.2061 Y1.3008  
G01 X-0.2136 Y1.3033  
G01 X-0.2207 Y1.3069  
G01 X-0.2271 Y1.3116  
G01 X-0.2327 Y1.3172  
G01 X-0.2374 Y1.3236  
G01 X-0.2410 Y1.3307  
G01 X-0.2410 Y1.3309  
G01 X-0.5858 Y1.3309  
G01 X-0.6597 Y1.2570  
G01 X-0.6632 Y1.2534  
G01 X-0.6676 Y1.2509  
G01 X-0.6725 Y1.2496  
G01 X-0.8775 Y1.2496  
G01 X-0.8824 Y1.2509  
G01 X-0.8868 Y1.2534  
G01 X-0.8892 Y1.2559  
G01 X-1.2288 Y1.2559  
G01 X-1.2161 Y1.2431  
G01 X-1.1821 Y1.2431  
G01 X-1.1569 Y1.2179  
G01 X-1.1569 Y1.1821  
G01 X-1.1809 Y1.1581  
G01 X-1.1809 Y1.1419  
G01 X-1.1569 Y1.1179  
G01 X-1.1569 Y1.0821  
G01 X-1.1821 Y1.0569  
G01 X-1.2161 Y1.0569  
G01 X-1.3097 Y0.9632  
G01 X-1.3132 Y0.9597  
G01 X-1.3176 Y0.9572  
G01 X-1.3225 Y0.9559  
G01 X-2.2463 Y0.9559  
G01 X-2.2511 Y0.9572  
G01 X-2.2555 Y0.9597  
G01 X-2.7243 Y1.4284  
G01 X-2.7278 Y1.4320  
G01 X-2.7303 Y1.4364  
G01 X-2.7316 Y1.4412  
G01 X-2.7316 Y2.1775  
G01 X-2.7303 Y2.1824  
G01 X-2.7278 Y2.1868  
G01 X-2.4528 Y2.4618  
G01 X-2.4493 Y2.4653  
G01 X-2.4449 Y2.4678  
G01 X-2.4400 Y2.4691  
G01 X-2.3321 Y2.4691  
G01 X-2.3321 Y2.4792  
G01 X-2.3309 Y2.4854  
G01 X-2.3285 Y2.4912  
G01 X-2.3250 Y2.4965  
G01 X-2.3205 Y2.5010  
G01 X-2.3152 Y2.5045  
G01 X-2.3094 Y2.5069  
G01 X-2.3032 Y2.5081  
G01 X-2.2968 Y2.5081  
G01 X-2.2906 Y2.5069  
G01 X-2.2850 Y2.5046  
G01 X-2.1903 Y2.5993  
G01 X-2.1868 Y2.6028  
G01 X-2.1824 Y2.6053  
G01 X-2.1775 Y2.6066  
G01 X-1.5850 Y2.6066  
G01 X-1.5834 Y2.6062  
G01 X-1.5153 Y2.6743  
G01 X-1.5118 Y2.6778  
G01 X-1.5074 Y2.6803  
G01 X-1.5025 Y2.6816  
G01 X-1.3454 Y2.6816  
G01 X-1.2598 Y2.7673  
G01 X-1.2613 Y2.7698  
G01 X-1.2647 Y2.7780  
G01 X-1.2670 Y2.7867  
G01 X-1.2681 Y2.7955  
G01 X-1.2681 Y2.8045  
G01 X-1.2670 Y2.8133  
G01 X-1.2647 Y2.8220  
G01 X-1.2613 Y2.8302  
G01 X-1.2568 Y2.8379  
G01 X-1.2513 Y2.8450  
G01 X-1.2450 Y2.8513  
G01 X-1.2379 Y2.8568  
G01 X-1.2302 Y2.8613  
G01 X-1.2220 Y2.8647  
G01 X-1.2133 Y2.8670  
G01 X-1.2045 Y2.8681  
G01 X-1.1955 Y2.8681  
G01 X-1.1867 Y2.8670  
G01 X-1.1780 Y2.8647  
G01 X-1.1758 Y2.8638  
G01 X-1.0691 Y2.9704  
G01 X-1.0691 Y2.9737  
G01 X-1.0821 Y2.9867  
G01 X-1.0821 Y2.9926  
G01 X-1.1329 Y3.0434  
G01 X-1.1671 Y3.0434  
G01 X-1.2257 Y2.9847  
G01 X-1.2301 Y2.9822  
G01 X-1.2350 Y2.9809  
G01 X-1.2737 Y2.9809  
G01 X-1.2867 Y2.9679  
G01 X-1.3133 Y2.9679  
G01 X-1.3321 Y2.9867  
G01 X-1.3321 Y2.9926  
G01 X-1.3829 Y3.0434  
G01 X-1.4171 Y3.0434  
G01 X-1.4757 Y2.9847  
G01 X-1.4801 Y2.9822  
G01 X-1.4850 Y2.9809  
G01 X-1.5237 Y2.9809  
G01 X-1.5367 Y2.9679  
G01 X-1.5633 Y2.9679  
G01 X-1.5821 Y2.9867  
G01 X-1.5821 Y2.9926  
G01 X-1.6329 Y3.0434  
G01 X-1.6671 Y3.0434  
G01 X-1.7257 Y2.9847  
G01 X-1.7301 Y2.9822  
G01 X-1.7350 Y2.9809  
G01 X-1.7737 Y2.9809  
G01 X-1.7867 Y2.9679  
G01 X-1.8133 Y2.9679  
G01 X-1.8321 Y2.9867  
G01 X-1.8321 Y2.9926  
G01 X-1.8829 Y3.0434  
G01 X-1.9171 Y3.0434  
G01 X-1.9757 Y2.9847  
G01 X-1.9801 Y2.9822  
G01 X-1.9850 Y2.9809  
G01 X-2.0237 Y2.9809  
G01 X-2.0367 Y2.9679  
G01 X-2.0633 Y2.9679  
G01 X-2.0821 Y2.9867  
G01 X-2.0821 Y2.9926  
G01 X-2.1329 Y3.0434  
G01 X-2.1671 Y3.0434  
G01 X-2.2257 Y2.9847  
G01 X-2.2301 Y2.9822  
G01 X-2.2350 Y2.9809  
G01 X-2.2737 Y2.9809  
G01 X-2.2867 Y2.9679  
G01 X-2.3133 Y2.9679  
G01 X-2.3321 Y2.9867  
G01 X-2.3321 Y2.9926  
G01 X-2.3829 Y3.0434  
G01 X-2.4171 Y3.0434  
G01 X-2.4757 Y2.9847  
G01 X-2.4801 Y2.9822  
G01 X-2.4850 Y2.9809  
G01 X-2.5237 Y2.9809  
G01 X-2.5367 Y2.9679  
G01 X-2.5633 Y2.9679  
G01 X-2.5821 Y2.9867  
G01 X-2.5821 Y2.9926  
G01 X-2.6329 Y3.0434  
G01 X-2.6671 Y3.0434  
G01 X-2.7257 Y2.9847  
G01 X-2.7301 Y2.9822  
G01 X-2.7350 Y2.9809  
G01 X-2.7737 Y2.9809  
G01 X-2.7867 Y2.9679  
G01 X-2.8133 Y2.9679  
G01 X-2.8321 Y2.9867  
G01 X-2.8321 Y2.9926  
G01 X-2.8829 Y3.0434  
G01 X-2.9171 Y3.0434  
G01 X-2.9757 Y2.9847  
G01 X-2.9801 Y2.9822  
G01 X-2.9850 Y2.9809  
G01 X-3.0237 Y2.9809  
G01 X-3.0367 Y2.9679  
G01 X-3.0633 Y2.9679  
G01 X-3.0821 Y2.9867  
G01 X-3.0821 Y3.0133  
G01 X-3.0633 Y3.0321  
G01 X-3.0367 Y3.0321  
G01 X-3.0237 Y3.0191  
G01 X-2.9954 Y3.0191  
G01 X-2.9403 Y3.0743  
G01 X-2.9368 Y3.0778  
G01 X-2.9324 Y3.0803  
G01 X-2.9275 Y3.0816  
G01 X-2.8725 Y3.0816  
G01 X-2.8676 Y3.0803  
G01 X-2.8632 Y3.0778  
G01 X-2.8154 Y3.0300  
G01 X-2.8133 Y3.0321  
G01 X-2.7867 Y3.0321  
G01 X-2.7737 Y3.0191  
G01 X-2.7454 Y3.0191  
G01 X-2.6903 Y3.0743  
G01 X-2.6868 Y3.0778  
G01 X-2.6824 Y3.0803  
G01 X-2.6775 Y3.0816  
G01 X-2.6225 Y3.0816  
G01 X-2.6176 Y3.0803  
G01 X-2.6132 Y3.0778  
G01 X-2.5654 Y3.0300  
G01 X-2.5633 Y3.0321  
G01 X-2.5367 Y3.0321  
G01 X-2.5237 Y3.0191  
G01 X-2.4954 Y3.0191  
G01 X-2.4403 Y3.0743  
G01 X-2.4368 Y3.0778  
G01 X-2.4324 Y3.0803  
G01 X-2.4275 Y3.0816  
G01 X-2.3725 Y3.0816  
G01 X-2.3676 Y3.0803  
G01 X-2.3632 Y3.0778  
G01 X-2.3154 Y3.0300  
G01 X-2.3133 Y3.0321  
G01 X-2.2867 Y3.0321  
G01 X-2.2737 Y3.0191  
G01 X-2.2454 Y3.0191  
G01 X-2.1903 Y3.0743  
G01 X-2.1868 Y3.0778  
G01 X-2.1824 Y3.0803  
G01 X-2.1775 Y3.0816  
G01 X-2.1225 Y3.0816  
G01 X-2.1176 Y3.0803  
G01 X-2.1132 Y3.0778  
G01 X-2.0654 Y3.0300  
G01 X-2.0633 Y3.0321  
G01 X-2.0367 Y3.0321  
G01 X-2.0237 Y3.0191  
G01 X-1.9954 Y3.0191  
G01 X-1.9403 Y3.0743  
G01 X-1.9368 Y3.0778  
G01 X-1.9324 Y3.0803  
G01 X-1.9275 Y3.0816  
G01 X-1.8725 Y3.0816  
G01 X-1.8676 Y3.0803  
G01 X-1.8632 Y3.0778  
G01 X-1.8154 Y3.0300  
G01 X-1.8133 Y3.0321  
G01 X-1.7867 Y3.0321  
G01 X-1.7737 Y3.0191  
G01 X-1.7454 Y3.0191  
G01 X-1.6903 Y3.0743  
G01 X-1.6868 Y3.0778  
G01 X-1.6824 Y3.0803  
G01 X-1.6775 Y3.0816  
G01 X-1.6225 Y3.0816  
G01 X-1.6176 Y3.0803  
G01 X-1.6132 Y3.0778  
G01 X-1.5654 Y3.0300  
G01 X-1.5633 Y3.0321  
G01 X-1.5367 Y3.0321  
G01 X-1.5237 Y3.0191  
G01 X-1.4954 Y3.0191  
G01 X-1.4403 Y3.0743  
G01 X-1.4368 Y3.0778  
G01 X-1.4324 Y3.0803  
G01 X-1.4275 Y3.0816  
G01 X-1.3725 Y3.0816  
G01 X-1.3676 Y3.0803  
G01 X-1.3632 Y3.0778  
G01 X-1.3154 Y3.0300  
G01 X-1.3133 Y3.0321  
G01 X-1.2867 Y3.0321  
G01 X-1.2737 Y3.0191  
G01 X-1.2454 Y3.0191  
G01 X-1.1868 Y3.0778  
G01 X-1.1824 Y3.0803  
G01 X-1.1775 Y3.0816  
G01 X-0.8725 Y3.0816  
G01 X-0.8676 Y3.0803  
G01 X-0.8632 Y3.0778  
G01 X-0.8597 Y3.0743  
G01 X-0.8154 Y3.0300  
G01 X-0.8133 Y3.0321  
G01 X-0.7867 Y3.0321  
G01 X-0.7679 Y3.0133  
G01 X-0.7679 Y2.9867  
G01 X-0.7867 Y2.9679  
G01 X-0.8051 Y2.9679  
G01 X-0.8507 Y2.9222  
G01 X-0.8551 Y2.9197  
G01 X-0.8600 Y2.9184  
G01 X-0.8921 Y2.9184  
G01 X-0.9809 Y2.8296  
G01 X-0.9809 Y2.7975  
G01 X-0.9822 Y2.7926  
G01 X-0.9847 Y2.7882  
G01 X-0.9882 Y2.7847  
G01 X-1.4882 Y2.2847  
G01 X-1.4926 Y2.2822  
G01 X-1.4975 Y2.2809  
G01 X-1.5237 Y2.2809  
G01 X-1.5367 Y2.2679  
G01 X-1.5633 Y2.2679  
G01 X-1.5821 Y2.2867  
G01 X-1.5821 Y2.3133  
G01 X-1.5633 Y2.3321  
G01 X-1.5367 Y2.3321  
G01 X-1.5237 Y2.3191  
G01 X-1.5079 Y2.3191  
G01 X-1.0191 Y2.8079  
G01 X-1.0191 Y2.8400  
G01 X-1.0178 Y2.8449  
G01 X-1.0153 Y2.8493  
G01 X-0.9153 Y2.9493  
G01 X-0.9118 Y2.9528  
G01 X-0.9074 Y2.9553  
G01 X-0.9025 Y2.9566  
G01 X-0.8704 Y2.9566  
G01 X-0.8333 Y2.9937  
G01 X-0.8829 Y3.0434  
G01 X-1.0788 Y3.0434  
G01 X-1.0654 Y3.0300  
G01 X-1.0633 Y3.0321  
G01 X-1.0367 Y3.0321  
G01 X-1.0179 Y3.0133  
G01 X-1.0179 Y2.9867  
G01 X-1.0309 Y2.9737  
G01 X-1.0309 Y2.9600  
G01 X-1.0322 Y2.9551  
G01 X-1.0347 Y2.9507  
G01 X-1.1451 Y2.8404  
G01 X-1.1432 Y2.8379  
G01 X-1.1387 Y2.8302  
G01 X-1.1353 Y2.8220  
G01 X-1.1330 Y2.8133  
G01 X-1.1319 Y2.8045  
G01 X-1.1319 Y2.7955  
G01 X-1.1330 Y2.7867  
G01 X-1.1353 Y2.7780  
G01 X-1.1387 Y2.7698  
G01 X-1.1432 Y2.7621  
G01 X-1.1487 Y2.7550  
G01 X-1.1550 Y2.7487  
G01 X-1.1621 Y2.7432  
G01 X-1.1698 Y2.7387  
G01 X-1.1780 Y2.7353  
G01 X-1.1867 Y2.7330  
G01 X-1.1955 Y2.7319  
G01 X-1.2045 Y2.7319  
G01 X-1.2133 Y2.7330  
G01 X-1.2220 Y2.7353  
G01 X-1.2302 Y2.7387  
G01 X-1.2327 Y2.7402  
G01 X-1.3257 Y2.6472  
G01 X-1.3301 Y2.6447  
G01 X-1.3350 Y2.6434  
G01 X-1.4921 Y2.6434  
G01 X-1.5659 Y2.5695  
G01 X-1.6679 Y2.4676  
G01 X-1.6679 Y2.4208  
G01 X-1.6691 Y2.4146  
G01 X-1.6715 Y2.4088  
G01 X-1.6750 Y2.4035  
G01 X-1.6795 Y2.3990  
G01 X-1.6848 Y2.3955  
G01 X-1.6906 Y2.3931  
G01 X-1.6968 Y2.3919  
G01 X-1.7032 Y2.3919  
G01 X-1.7094 Y2.3931  
G01 X-1.7152 Y2.3955  
G01 X-1.7205 Y2.3990  
G01 X-1.7250 Y2.4035  
G01 X-1.7285 Y2.4088  
G01 X-1.7309 Y2.4146  
G01 X-1.7321 Y2.4208  
G01 X-1.7321 Y2.4792  
G01 X-1.7309 Y2.4854  
G01 X-1.7285 Y2.4912  
G01 X-1.7250 Y2.4965  
G01 X-1.7205 Y2.5010  
G01 X-1.7152 Y2.5045  
G01 X-1.7094 Y2.5069  
G01 X-1.7032 Y2.5081  
G01 X-1.6968 Y2.5081  
G01 X-1.6906 Y2.5069  
G01 X-1.6850 Y2.5046  
G01 X-1.6212 Y2.5684  
G01 X-2.1671 Y2.5684  
G01 X-2.2679 Y2.4676  
G01 X-2.2679 Y2.4208  
G01 X-2.2691 Y2.4146  
G01 X-2.2715 Y2.4088  
G01 X-2.2750 Y2.4035  
G01 X-2.2795 Y2.3990  
G01 X-2.2848 Y2.3955  
G01 X-2.2906 Y2.3931  
G01 X-2.2968 Y2.3919  
G01 X-2.3032 Y2.3919  
G01 X-2.3094 Y2.3931  
G01 X-2.3152 Y2.3955  
G01 X-2.3205 Y2.3990  
G01 X-2.3250 Y2.4035  
G01 X-2.3285 Y2.4088  
G01 X-2.3309 Y2.4146  
G01 X-2.3321 Y2.4208  
G01 X-2.3321 Y2.4309  
G01 X-2.4296 Y2.4309  
G01 X-2.6934 Y2.1671  
G01 X-2.6934 Y1.4517  
G01 X-2.2358 Y0.9941  
G01 X-1.3329 Y0.9941  
G01 X-1.2431 Y1.0839  
G01 X-1.2431 Y1.1179  
G01 X-1.2191 Y1.1419  
G01 X-1.2191 Y1.1581  
G01 X-1.2431 Y1.1821  
G01 X-1.2431 Y1.2161  
G01 X-1.2653 Y1.2382  
G01 X-1.2678 Y1.2426  
G01 X-1.2691 Y1.2475  
G01 X-1.2691 Y1.3241  
G01 X-1.2705 Y1.3250  
G01 X-1.2750 Y1.3295  
G01 X-1.2785 Y1.3348  
G01 X-1.2809 Y1.3406  
G01 X-1.2821 Y1.3468  
G01 X-1.2821 Y1.3532  
G01 X-1.2809 Y1.3594  
G01 X-1.2785 Y1.3652  
G01 X-1.2750 Y1.3705  
G01 X-1.2705 Y1.3750  
G01 X-1.2652 Y1.3785  
G01 X-1.2594 Y1.3809  
G01 X-1.2532 Y1.3821  
G01 X-1.2468 Y1.3821  
G01 X-1.2406 Y1.3809  
G01 X-1.2357 Y1.3789  
G01 X-1.1868 Y1.4278  
G01 X-1.1824 Y1.4303  
G01 X-1.1775 Y1.4316  
G01 X-1.1079 Y1.4316  
G01 X-0.9243 Y1.6153  
G01 X-0.9199 Y1.6178  
G01 X-0.9150 Y1.6191  
G01 X-0.7763 Y1.6191  
G01 X-0.7633 Y1.6321  
G01 X-0.7367 Y1.6321  
G01 X-0.7179 Y1.6133  
G01 X-0.7179 Y1.5867  
G01 X-0.7367 Y1.5679  
G01 X-0.7633 Y1.5679  
G01 X-0.7763 Y1.5809  
G01 X-0.9046 Y1.5809  
G01 X-1.0847 Y1.4007  
G01 X-1.0882 Y1.3972  
G01 X-1.0926 Y1.3947  
G01 X-1.0975 Y1.3934  
G01 X-1.1671 Y1.3934  
G01 X-1.2189 Y1.3415  
G01 X-1.2191 Y1.3406  
G01 X-1.2215 Y1.3348  
G01 X-1.2250 Y1.3295  
G01 X-1.2295 Y1.3250  
G01 X-1.2309 Y1.3241  
G01 X-1.2309 Y1.2941  
G01 X-0.8787 Y1.2941  
G01 X-0.8739 Y1.2928  
G01 X-0.8695 Y1.2903  
G01 X-0.8671 Y1.2879  
G01 X-0.6829 Y1.2879  
G01 X-0.6055 Y1.3653  
G01 X-0.6011 Y1.3678  
G01 X-0.5963 Y1.3691  
G01 X-0.2410 Y1.3691  
G01 X-0.2410 Y1.3693  
G01 X-0.2374 Y1.3764  
G01 X-0.2327 Y1.3828  
G01 X-0.2271 Y1.3884  
G01 X-0.2207 Y1.3931  
G01 X-0.2136 Y1.3967  
G01 X-0.2061 Y1.3992  
G01 X-0.1982 Y1.4004  
G01 X-0.1018 Y1.4004  
G01 X-0.0939 Y1.3992  
G01 X-0.0864 Y1.3967  
G01 X-0.0793 Y1.3931  
G01 X-0.0729 Y1.3884  
G01 X-0.0673 Y1.3828  
G01 X-0.0626 Y1.3764  
G01 X-0.0590 Y1.3693  
G01 X-0.0566 Y1.3618  
G01 X-0.0554 Y1.3540  
G01 X-0.0554 Y1.3460  
G01 X-0.0566 Y1.3382  
G01 X-0.0590 Y1.3307  
G01 X-0.0626 Y1.3236  
G01 X-0.0673 Y1.3172  
G00 Z0.1000  
G00 X-0.0814 Y1.6716  
G01 Z-0.0021 F10    
G01 X-0.1216 Y1.6314  F20    
G01 X-0.1784 Y1.6314  
G01 X-0.2186 Y1.6716  
G01 X-0.2186 Y1.6809  
G01 X-0.4814 Y1.6809  
G01 X-0.4814 Y1.6716  
G01 X-0.5216 Y1.6314  
G01 X-0.5784 Y1.6314  
G01 X-0.5788 Y1.6317  
G01 X-0.7179 Y1.4926  
G01 X-0.7179 Y1.4867  
G01 X-0.7309 Y1.4737  
G01 X-0.7309 Y1.4004  
G01 X-0.7018 Y1.4004  
G01 X-0.6939 Y1.3992  
G01 X-0.6864 Y1.3967  
G01 X-0.6793 Y1.3931  
G01 X-0.6729 Y1.3884  
G01 X-0.6673 Y1.3828  
G01 X-0.6626 Y1.3764  
G01 X-0.6590 Y1.3693  
G01 X-0.6566 Y1.3618  
G01 X-0.6554 Y1.3540  
G01 X-0.6554 Y1.3460  
G01 X-0.6566 Y1.3382  
G01 X-0.6590 Y1.3307  
G01 X-0.6626 Y1.3236  
G01 X-0.6673 Y1.3172  
G01 X-0.6729 Y1.3116  
G01 X-0.6793 Y1.3069  
G01 X-0.6864 Y1.3033  
G01 X-0.6939 Y1.3008  
G01 X-0.7018 Y1.2996  
G01 X-0.7982 Y1.2996  
G01 X-0.8061 Y1.3008  
G01 X-0.8136 Y1.3033  
G01 X-0.8207 Y1.3069  
G01 X-0.8271 Y1.3116  
G01 X-0.8327 Y1.3172  
G01 X-0.8374 Y1.3236  
G01 X-0.8410 Y1.3307  
G01 X-0.8410 Y1.3309  
G01 X-0.9241 Y1.3309  
G01 X-0.9250 Y1.3295  
G01 X-0.9295 Y1.3250  
G01 X-0.9348 Y1.3215  
G01 X-0.9406 Y1.3191  
G01 X-0.9468 Y1.3179  
G01 X-0.9532 Y1.3179  
G01 X-0.9594 Y1.3191  
G01 X-0.9652 Y1.3215  
G01 X-0.9705 Y1.3250  
G01 X-0.9750 Y1.3295  
G01 X-0.9785 Y1.3348  
G01 X-0.9809 Y1.3406  
G01 X-0.9821 Y1.3468  
G01 X-0.9821 Y1.3532  
G01 X-0.9809 Y1.3594  
G01 X-0.9785 Y1.3652  
G01 X-0.9750 Y1.3705  
G01 X-0.9705 Y1.3750  
G01 X-0.9652 Y1.3785  
G01 X-0.9594 Y1.3809  
G01 X-0.9532 Y1.3821  
G01 X-0.9468 Y1.3821  
G01 X-0.9406 Y1.3809  
G01 X-0.9348 Y1.3785  
G01 X-0.9295 Y1.3750  
G01 X-0.9250 Y1.3705  
G01 X-0.9241 Y1.3691  
G01 X-0.8410 Y1.3691  
G01 X-0.8410 Y1.3693  
G01 X-0.8374 Y1.3764  
G01 X-0.8327 Y1.3828  
G01 X-0.8271 Y1.3884  
G01 X-0.8207 Y1.3931  
G01 X-0.8136 Y1.3967  
G01 X-0.8061 Y1.3992  
G01 X-0.7982 Y1.4004  
G01 X-0.7691 Y1.4004  
G01 X-0.7691 Y1.4737  
G01 X-0.7821 Y1.4867  
G01 X-0.7821 Y1.5133  
G01 X-0.7633 Y1.5321  
G01 X-0.7367 Y1.5321  
G01 X-0.7346 Y1.5300  
G01 X-0.6058 Y1.6587  
G01 X-0.6186 Y1.6716  
G01 X-0.6186 Y1.7284  
G01 X-0.5784 Y1.7686  
G01 X-0.5216 Y1.7686  
G01 X-0.4814 Y1.7284  
G01 X-0.4814 Y1.7191  
G01 X-0.4691 Y1.7191  
G01 X-0.4691 Y1.9296  
G01 X-0.4930 Y1.9534  
G01 X-0.4966 Y1.9570  
G01 X-0.4991 Y1.9614  
G01 X-0.5004 Y1.9662  
G01 X-0.5004 Y2.0338  
G01 X-0.4991 Y2.0386  
G01 X-0.4966 Y2.0430  
G01 X-0.4403 Y2.0993  
G01 X-0.4368 Y2.1028  
G01 X-0.4324 Y2.1053  
G01 X-0.4275 Y2.1066  
G01 X-0.1329 Y2.1066  
G01 X-0.1066 Y2.1329  
G01 X-0.1066 Y2.6421  
G01 X-0.2767 Y2.8121  
G01 X-0.4233 Y2.8121  
G01 X-0.4580 Y2.7775  
G01 X-0.4509 Y2.7704  
G01 X-0.4509 Y2.7296  
G01 X-0.4796 Y2.7009  
G01 X-0.4809 Y2.7009  
G01 X-0.4809 Y2.6725  
G01 X-0.4822 Y2.6676  
G01 X-0.4847 Y2.6632  
G01 X-0.5684 Y2.5796  
G01 X-0.5684 Y2.5225  
G01 X-0.5697 Y2.5176  
G01 X-0.5722 Y2.5132  
G01 X-0.8847 Y2.2007  
G01 X-0.8882 Y2.1972  
G01 X-0.8926 Y2.1947  
G01 X-0.8975 Y2.1934  
G01 X-1.5309 Y2.1934  
G01 X-1.5309 Y2.1763  
G01 X-1.5179 Y2.1633  
G01 X-1.5179 Y2.1367  
G01 X-1.5367 Y2.1179  
G01 X-1.5633 Y2.1179  
G01 X-1.5821 Y2.1367  
G01 X-1.5821 Y2.1633  
G01 X-1.5691 Y2.1763  
G01 X-1.5691 Y2.2046  
G01 X-1.6243 Y2.2597  
G01 X-1.6278 Y2.2632  
G01 X-1.6303 Y2.2676  
G01 X-1.6316 Y2.2725  
G01 X-1.6316 Y2.3434  
G01 X-1.7275 Y2.3434  
G01 X-1.7324 Y2.3447  
G01 X-1.7368 Y2.3472  
G01 X-1.7403 Y2.3507  
G01 X-1.7850 Y2.3954  
G01 X-1.7906 Y2.3931  
G01 X-1.7968 Y2.3919  
G01 X-1.8032 Y2.3919  
G01 X-1.8094 Y2.3931  
G01 X-1.8152 Y2.3955  
G01 X-1.8205 Y2.3990  
G01 X-1.8250 Y2.4035  
G01 X-1.8285 Y2.4088  
G01 X-1.8309 Y2.4146  
G01 X-1.8321 Y2.4208  
G01 X-1.8321 Y2.4676  
G01 X-1.8829 Y2.5184  
G01 X-2.1171 Y2.5184  
G01 X-2.1679 Y2.4676  
G01 X-2.1679 Y2.4208  
G01 X-2.1691 Y2.4146  
G01 X-2.1715 Y2.4088  
G01 X-2.1750 Y2.4035  
G01 X-2.1795 Y2.3990  
G01 X-2.1848 Y2.3955  
G01 X-2.1906 Y2.3931  
G01 X-2.1968 Y2.3919  
G01 X-2.2032 Y2.3919  
G01 X-2.2094 Y2.3931  
G01 X-2.2150 Y2.3954  
G01 X-2.3222 Y2.2882  
G01 X-2.3257 Y2.2847  
G01 X-2.3301 Y2.2822  
G01 X-2.3350 Y2.2809  
G01 X-2.4737 Y2.2809  
G01 X-2.4867 Y2.2679  
G01 X-2.4926 Y2.2679  
G01 X-2.6434 Y2.1171  
G01 X-2.6434 Y1.8829  
G01 X-2.5421 Y1.7816  
G01 X-2.5138 Y1.7816  
G01 X-2.5133 Y1.7821  
G01 X-2.5074 Y1.7821  
G01 X-2.3191 Y1.9704  
G01 X-2.3191 Y2.0237  
G01 X-2.3321 Y2.0367  
G01 X-2.3321 Y2.0633  
G01 X-2.3133 Y2.0821  
G01 X-2.2867 Y2.0821  
G01 X-2.2679 Y2.0633  
G01 X-2.2679 Y2.0367  
G01 X-2.2809 Y2.0237  
G01 X-2.2809 Y1.9600  
G01 X-2.2822 Y1.9551  
G01 X-2.2847 Y1.9507  
G01 X-2.4700 Y1.7654  
G01 X-2.4679 Y1.7633  
G01 X-2.4679 Y1.7367  
G01 X-2.4809 Y1.7237  
G01 X-2.4809 Y1.7079  
G01 X-2.3621 Y1.5891  
G01 X-2.3338 Y1.5891  
G01 X-2.3109 Y1.5662  
G01 X-2.3109 Y1.5338  
G01 X-2.3338 Y1.5109  
G01 X-2.3662 Y1.5109  
G01 X-2.3704 Y1.5150  
G01 X-2.3850 Y1.5004  
G01 X-2.2180 Y1.5004  
G01 X-2.2178 Y1.5011  
G01 X-2.2153 Y1.5055  
G01 X-2.2118 Y1.5091  
G01 X-2.0868 Y1.6341  
G01 X-2.0824 Y1.6366  
G01 X-2.0775 Y1.6379  
G01 X-1.8954 Y1.6379  
G01 X-1.8180 Y1.7153  
G01 X-1.8136 Y1.7178  
G01 X-1.8088 Y1.7191  
G01 X-1.6362 Y1.7191  
G01 X-1.6191 Y1.7362  
G01 X-1.6191 Y1.8525  
G01 X-1.6178 Y1.8574  
G01 X-1.6153 Y1.8618  
G01 X-1.5911 Y1.8859  
G01 X-1.5911 Y1.9170  
G01 X-1.5670 Y1.9411  
G01 X-1.5330 Y1.9411  
G01 X-1.5110 Y1.9191  
G01 X-1.2681 Y1.9191  
G01 X-1.2681 Y1.9282  
G01 X-1.2282 Y1.9681  
G01 X-1.1718 Y1.9681  
G01 X-1.1319 Y1.9282  
G01 X-1.1319 Y1.8718  
G01 X-1.1718 Y1.8319  
G01 X-1.2282 Y1.8319  
G01 X-1.2681 Y1.8718  
G01 X-1.2681 Y1.8809  
G01 X-1.5110 Y1.8809  
G01 X-1.5330 Y1.8589  
G01 X-1.5641 Y1.8589  
G01 X-1.5809 Y1.8421  
G01 X-1.5809 Y1.7362  
G01 X-1.5609 Y1.7162  
G01 X-1.5609 Y1.6838  
G01 X-1.5838 Y1.6609  
G01 X-1.6162 Y1.6609  
G01 X-1.6362 Y1.6809  
G01 X-1.7983 Y1.6809  
G01 X-1.8722 Y1.6070  
G01 X-1.8757 Y1.6034  
G01 X-1.8801 Y1.6009  
G01 X-1.8850 Y1.5996  
G01 X-2.0671 Y1.5996  
G01 X-2.1663 Y1.5004  
G01 X-2.0475 Y1.5004  
G01 X-2.0426 Y1.4991  
G01 X-2.0382 Y1.4966  
G01 X-2.0347 Y1.4930  
G01 X-1.9108 Y1.3691  
G01 X-1.8910 Y1.3691  
G01 X-1.8910 Y1.3693  
G01 X-1.8874 Y1.3764  
G01 X-1.8827 Y1.3828  
G01 X-1.8771 Y1.3884  
G01 X-1.8707 Y1.3931  
G01 X-1.8636 Y1.3967  
G01 X-1.8561 Y1.3992  
G01 X-1.8482 Y1.4004  
G01 X-1.7767 Y1.4004  
G01 X-1.6618 Y1.5153  
G01 X-1.6574 Y1.5178  
G01 X-1.6525 Y1.5191  
G01 X-1.4763 Y1.5191  
G01 X-1.4633 Y1.5321  
G01 X-1.4367 Y1.5321  
G01 X-1.4179 Y1.5133  
G01 X-1.4179 Y1.4867  
G01 X-1.4367 Y1.4679  
G01 X-1.4633 Y1.4679  
G01 X-1.4763 Y1.4809  
G01 X-1.6421 Y1.4809  
G01 X-1.7297 Y1.3933  
G01 X-1.7293 Y1.3931  
G01 X-1.7229 Y1.3884  
G01 X-1.7173 Y1.3828  
G01 X-1.7126 Y1.3764  
G01 X-1.7090 Y1.3693  
G01 X-1.7066 Y1.3618  
G01 X-1.7054 Y1.3540  
G01 X-1.7054 Y1.3460  
G01 X-1.7066 Y1.3382  
G01 X-1.7090 Y1.3307  
G01 X-1.7126 Y1.3236  
G01 X-1.7173 Y1.3172  
G01 X-1.7229 Y1.3116  
G01 X-1.7293 Y1.3069  
G01 X-1.7364 Y1.3033  
G01 X-1.7439 Y1.3008  
G01 X-1.7518 Y1.2996  
G01 X-1.8482 Y1.2996  
G01 X-1.8561 Y1.3008  
G01 X-1.8636 Y1.3033  
G01 X-1.8707 Y1.3069  
G01 X-1.8771 Y1.3116  
G01 X-1.8827 Y1.3172  
G01 X-1.8874 Y1.3236  
G01 X-1.8910 Y1.3307  
G01 X-1.8910 Y1.3309  
G01 X-1.9213 Y1.3309  
G01 X-1.9261 Y1.3322  
G01 X-1.9305 Y1.3347  
G01 X-2.0579 Y1.4621  
G01 X-2.4213 Y1.4621  
G01 X-2.4229 Y1.4625  
G01 X-2.5059 Y1.3796  
G01 X-2.5059 Y1.3267  
G01 X-2.2233 Y1.0441  
G01 X-1.5829 Y1.0441  
G01 X-1.5431 Y1.0839  
G01 X-1.5431 Y1.1179  
G01 X-1.5179 Y1.1431  
G01 X-1.4821 Y1.1431  
G01 X-1.4581 Y1.1191  
G01 X-1.4419 Y1.1191  
G01 X-1.4179 Y1.1431  
G01 X-1.3821 Y1.1431  
G01 X-1.3581 Y1.1191  
G01 X-1.3419 Y1.1191  
G01 X-1.3191 Y1.1419  
G01 X-1.3191 Y1.1581  
G01 X-1.3419 Y1.1809  
G01 X-1.3581 Y1.1809  
G01 X-1.3821 Y1.1569  
G01 X-1.4179 Y1.1569  
G01 X-1.4419 Y1.1809  
G01 X-1.4581 Y1.1809  
G01 X-1.4821 Y1.1569  
G01 X-1.5179 Y1.1569  
G01 X-1.5431 Y1.1821  
G01 X-1.5431 Y1.2179  
G01 X-1.5179 Y1.2431  
G01 X-1.4821 Y1.2431  
G01 X-1.4581 Y1.2191  
G01 X-1.4419 Y1.2191  
G01 X-1.4179 Y1.2431  
G01 X-1.3821 Y1.2431  
G01 X-1.3581 Y1.2191  
G01 X-1.3419 Y1.2191  
G01 X-1.3179 Y1.2431  
G01 X-1.2821 Y1.2431  
G01 X-1.2569 Y1.2179  
G01 X-1.2569 Y1.1821  
G01 X-1.2809 Y1.1581  
G01 X-1.2809 Y1.1419  
G01 X-1.2569 Y1.1179  
G01 X-1.2569 Y1.0821  
G01 X-1.2821 Y1.0569  
G01 X-1.3179 Y1.0569  
G01 X-1.3419 Y1.0809  
G01 X-1.3581 Y1.0809  
G01 X-1.3821 Y1.0569  
G01 X-1.4179 Y1.0569  
G01 X-1.4419 Y1.0809  
G01 X-1.4581 Y1.0809  
G01 X-1.4821 Y1.0569  
G01 X-1.5161 Y1.0569  
G01 X-1.5597 Y1.0132  
G01 X-1.5632 Y1.0097  
G01 X-1.5676 Y1.0072  
G01 X-1.5725 Y1.0059  
G01 X-2.2338 Y1.0059  
G01 X-2.2386 Y1.0072  
G01 X-2.2430 Y1.0097  
G01 X-2.5368 Y1.3034  
G01 X-2.5403 Y1.3070  
G01 X-2.5428 Y1.3114  
G01 X-2.5441 Y1.3162  
G01 X-2.5441 Y1.3900  
G01 X-2.5428 Y1.3949  
G01 X-2.5403 Y1.3993  
G01 X-2.4403 Y1.4993  
G01 X-2.4368 Y1.5028  
G01 X-2.3891 Y1.5504  
G01 X-2.3891 Y1.5621  
G01 X-2.5153 Y1.6882  
G01 X-2.5178 Y1.6926  
G01 X-2.5191 Y1.6975  
G01 X-2.5191 Y1.7237  
G01 X-2.5321 Y1.7367  
G01 X-2.5321 Y1.7434  
G01 X-2.5525 Y1.7434  
G01 X-2.5574 Y1.7447  
G01 X-2.5618 Y1.7472  
G01 X-2.6743 Y1.8597  
G01 X-2.6778 Y1.8632  
G01 X-2.6803 Y1.8676  
G01 X-2.6816 Y1.8725  
G01 X-2.6816 Y2.1275  
G01 X-2.6803 Y2.1324  
G01 X-2.6778 Y2.1368  
G01 X-2.5300 Y2.2846  
G01 X-2.5321 Y2.2867  
G01 X-2.5321 Y2.3133  
G01 X-2.5133 Y2.3321  
G01 X-2.4867 Y2.3321  
G01 X-2.4737 Y2.3191  
G01 X-2.3454 Y2.3191  
G01 X-2.2321 Y2.4324  
G01 X-2.2321 Y2.4792  
G01 X-2.2309 Y2.4854  
G01 X-2.2285 Y2.4912  
G01 X-2.2250 Y2.4965  
G01 X-2.2205 Y2.5010  
G01 X-2.2152 Y2.5045  
G01 X-2.2094 Y2.5069  
G01 X-2.2032 Y2.5081  
G01 X-2.1968 Y2.5081  
G01 X-2.1906 Y2.5069  
G01 X-2.1850 Y2.5046  
G01 X-2.1403 Y2.5493  
G01 X-2.1368 Y2.5528  
G01 X-2.1324 Y2.5553  
G01 X-2.1275 Y2.5566  
G01 X-1.8725 Y2.5566  
G01 X-1.8676 Y2.5553  
G01 X-1.8632 Y2.5528  
G01 X-1.8150 Y2.5046  
G01 X-1.8094 Y2.5069  
G01 X-1.8032 Y2.5081  
G01 X-1.7968 Y2.5081  
G01 X-1.7906 Y2.5069  
G01 X-1.7848 Y2.5045  
G01 X-1.7795 Y2.5010  
G01 X-1.7750 Y2.4965  
G01 X-1.7715 Y2.4912  
G01 X-1.7691 Y2.4854  
G01 X-1.7679 Y2.4792  
G01 X-1.7679 Y2.4324  
G01 X-1.7171 Y2.3816  
G01 X-1.6316 Y2.3816  
G01 X-1.6316 Y2.4183  
G01 X-1.6321 Y2.4208  
G01 X-1.6321 Y2.4792  
G01 X-1.6309 Y2.4854  
G01 X-1.6285 Y2.4912  
G01 X-1.6250 Y2.4965  
G01 X-1.6205 Y2.5010  
G01 X-1.6152 Y2.5045  
G01 X-1.6094 Y2.5069  
G01 X-1.6032 Y2.5081  
G01 X-1.5968 Y2.5081  
G01 X-1.5906 Y2.5069  
G01 X-1.5848 Y2.5045  
G01 X-1.5795 Y2.5010  
G01 X-1.5750 Y2.4965  
G01 X-1.5715 Y2.4912  
G01 X-1.5691 Y2.4854  
G01 X-1.5679 Y2.4792  
G01 X-1.5679 Y2.4208  
G01 X-1.5691 Y2.4146  
G01 X-1.5715 Y2.4088  
G01 X-1.5750 Y2.4035  
G01 X-1.5795 Y2.3990  
G01 X-1.5848 Y2.3955  
G01 X-1.5906 Y2.3931  
G01 X-1.5934 Y2.3925  
G01 X-1.5934 Y2.2829  
G01 X-1.5421 Y2.2316  
G01 X-0.9079 Y2.2316  
G01 X-0.6066 Y2.5329  
G01 X-0.6066 Y2.5900  
G01 X-0.6053 Y2.5949  
G01 X-0.6028 Y2.5993  
G01 X-0.5993 Y2.6028  
G01 X-0.5191 Y2.6829  
G01 X-0.5191 Y2.7009  
G01 X-0.5204 Y2.7009  
G01 X-0.5491 Y2.7296  
G01 X-0.5491 Y2.7704  
G01 X-0.5204 Y2.7991  
G01 X-0.4904 Y2.7991  
G01 X-0.4430 Y2.8466  
G01 X-0.4386 Y2.8491  
G01 X-0.4338 Y2.8504  
G01 X-0.2662 Y2.8504  
G01 X-0.2614 Y2.8491  
G01 X-0.2570 Y2.8466  
G01 X-0.0722 Y2.6618  
G01 X-0.0697 Y2.6574  
G01 X-0.0684 Y2.6525  
G01 X-0.0684 Y2.1225  
G01 X-0.0697 Y2.1176  
G01 X-0.0722 Y2.1132  
G01 X-0.0757 Y2.1097  
G01 X-0.1132 Y2.0722  
G01 X-0.1176 Y2.0697  
G01 X-0.1225 Y2.0684  
G01 X-0.4171 Y2.0684  
G01 X-0.4621 Y2.0233  
G01 X-0.4621 Y1.9767  
G01 X-0.4347 Y1.9493  
G01 X-0.4322 Y1.9449  
G01 X-0.4309 Y1.9400  
G01 X-0.4309 Y1.7191  
G01 X-0.2186 Y1.7191  
G01 X-0.2186 Y1.7284  
G01 X-0.1784 Y1.7686  
G01 X-0.1216 Y1.7686  
G01 X-0.0814 Y1.7284  
G01 X-0.0814 Y1.6716  
G00 Z0.1000  
G00 X-0.0814 Y1.8716  
G01 Z-0.0021 F10    
G01 X-0.1216 Y1.8314  F20    
G01 X-0.1784 Y1.8314  
G01 X-0.2186 Y1.8716  
G01 X-0.2186 Y1.9284  
G01 X-0.2121 Y1.9350  
G01 X-0.2579 Y1.9809  
G01 X-0.3552 Y1.9809  
G01 X-0.3584 Y1.9745  
G01 X-0.3629 Y1.9683  
G01 X-0.3683 Y1.9629  
G01 X-0.3745 Y1.9584  
G01 X-0.3813 Y1.9549  
G01 X-0.3886 Y1.9525  
G01 X-0.3962 Y1.9514  
G01 X-0.4038 Y1.9514  
G01 X-0.4114 Y1.9525  
G01 X-0.4187 Y1.9549  
G01 X-0.4255 Y1.9584  
G01 X-0.4317 Y1.9629  
G01 X-0.4371 Y1.9683  
G01 X-0.4416 Y1.9745  
G01 X-0.4451 Y1.9813  
G01 X-0.4475 Y1.9886  
G01 X-0.4486 Y1.9962  
G01 X-0.4486 Y2.0038  
G01 X-0.4475 Y2.0114  
G01 X-0.4451 Y2.0187  
G01 X-0.4416 Y2.0255  
G01 X-0.4371 Y2.0317  
G01 X-0.4317 Y2.0371  
G01 X-0.4255 Y2.0416  
G01 X-0.4187 Y2.0451  
G01 X-0.4114 Y2.0475  
G01 X-0.4038 Y2.0486  
G01 X-0.3962 Y2.0486  
G01 X-0.3886 Y2.0475  
G01 X-0.3813 Y2.0451  
G01 X-0.3745 Y2.0416  
G01 X-0.3683 Y2.0371  
G01 X-0.3629 Y2.0317  
G01 X-0.3584 Y2.0255  
G01 X-0.3552 Y2.0191  
G01 X-0.2475 Y2.0191  
G01 X-0.2426 Y2.0178  
G01 X-0.2382 Y2.0153  
G01 X-0.1850 Y1.9621  
G01 X-0.1784 Y1.9686  
G01 X-0.1216 Y1.9686  
G01 X-0.0814 Y1.9284  
G01 X-0.0814 Y1.8716  
G00 Z0.1000  
G00 X-0.1179 Y2.1367  
G01 Z-0.0021 F10    
G01 X-0.1367 Y2.1179  F20    
G01 X-0.1633 Y2.1179  
G01 X-0.1821 Y2.1367  
G01 X-0.1821 Y2.1633  
G01 X-0.1691 Y2.1763  
G01 X-0.1691 Y2.3421  
G01 X-0.3791 Y2.5521  
G01 X-0.3798 Y2.5514  
G01 X-0.4202 Y2.5514  
G01 X-0.4486 Y2.5798  
G01 X-0.4486 Y2.6202  
G01 X-0.4202 Y2.6486  
G01 X-0.3798 Y2.6486  
G01 X-0.3514 Y2.6202  
G01 X-0.3514 Y2.5798  
G01 X-0.3521 Y2.5791  
G01 X-0.1347 Y2.3618  
G01 X-0.1322 Y2.3574  
G01 X-0.1309 Y2.3525  
G01 X-0.1309 Y2.1763  
G01 X-0.1179 Y2.1633  
G01 X-0.1179 Y2.1367  
G00 Z0.1000  
G00 X-0.1179 Y2.5367  
G01 Z-0.0021 F10    
G01 X-0.1367 Y2.5179  F20    
G01 X-0.1633 Y2.5179  
G01 X-0.1821 Y2.5367  
G01 X-0.1821 Y2.5633  
G01 X-0.1691 Y2.5763  
G01 X-0.1691 Y2.5921  
G01 X-0.2788 Y2.7017  
G01 X-0.2796 Y2.7009  
G01 X-0.3204 Y2.7009  
G01 X-0.3491 Y2.7296  
G01 X-0.3491 Y2.7704  
G01 X-0.3204 Y2.7991  
G01 X-0.2796 Y2.7991  
G01 X-0.2509 Y2.7704  
G01 X-0.2509 Y2.7296  
G01 X-0.2517 Y2.7288  
G01 X-0.1347 Y2.6118  
G01 X-0.1322 Y2.6074  
G01 X-0.1309 Y2.6025  
G01 X-0.1309 Y2.5763  
G01 X-0.1179 Y2.5633  
G01 X-0.1179 Y2.5367  
G00 Z0.1000  
G00 X-0.4659 Y2.5570  
G01 Z-0.0021 F10    
G01 X-0.4695 Y2.5534  F20    
G01 X-0.6934 Y2.3296  
G01 X-0.6934 Y1.9475  
G01 X-0.6947 Y1.9426  
G01 X-0.6972 Y1.9382  
G01 X-0.7007 Y1.9347  
G01 X-0.8309 Y1.8046  
G01 X-0.8309 Y1.7763  
G01 X-0.8179 Y1.7633  
G01 X-0.8179 Y1.7367  
G01 X-0.8367 Y1.7179  
G01 X-0.8633 Y1.7179  
G01 X-0.8821 Y1.7367  
G01 X-0.8821 Y1.7633  
G01 X-0.8691 Y1.7763  
G01 X-0.8691 Y1.8150  
G01 X-0.8678 Y1.8199  
G01 X-0.8653 Y1.8243  
G01 X-0.7316 Y1.9579  
G01 X-0.7316 Y2.3400  
G01 X-0.7303 Y2.3449  
G01 X-0.7278 Y2.3493  
G01 X-0.5004 Y2.5767  
G01 X-0.5004 Y2.6338  
G01 X-0.4991 Y2.6386  
G01 X-0.4966 Y2.6430  
G01 X-0.4295 Y2.7100  
G01 X-0.4491 Y2.7296  
G01 X-0.4491 Y2.7704  
G01 X-0.4204 Y2.7991  
G01 X-0.3796 Y2.7991  
G01 X-0.3509 Y2.7704  
G01 X-0.3509 Y2.7296  
G01 X-0.3796 Y2.7009  
G01 X-0.3846 Y2.7009  
G01 X-0.3847 Y2.7007  
G01 X-0.3882 Y2.6972  
G01 X-0.4621 Y2.6233  
G01 X-0.4621 Y2.5662  
G01 X-0.4634 Y2.5614  
G01 X-0.4659 Y2.5570  
G00 Z0.1000  
G00 X-0.6179 Y2.5633  
G01 Z-0.0021 F10    
G01 X-0.6179 Y2.5367  F20    
G01 X-0.6367 Y2.5179  
G01 X-0.6633 Y2.5179  
G01 X-0.6821 Y2.5367  
G01 X-0.6821 Y2.5551  
G01 X-0.8654 Y2.7383  
G01 X-0.8718 Y2.7319  
G01 X-0.9282 Y2.7319  
G01 X-0.9681 Y2.7718  
G01 X-0.9681 Y2.8282  
G01 X-0.9282 Y2.8681  
G01 X-0.8718 Y2.8681  
G01 X-0.8319 Y2.8282  
G01 X-0.8319 Y2.7718  
G01 X-0.8383 Y2.7654  
G01 X-0.6551 Y2.5821  
G01 X-0.6367 Y2.5821  
G01 X-0.6179 Y2.5633  
G00 Z0.1000  
G00 X-0.6367 Y2.1821  
G01 Z-0.0021 F10    
G01 X-0.6179 Y2.1633  F20    
G01 X-0.6179 Y2.1367  
G01 X-0.6309 Y2.1237  
G01 X-0.6309 Y2.0079  
G01 X-0.5850 Y1.9621  
G01 X-0.5784 Y1.9686  
G01 X-0.5216 Y1.9686  
G01 X-0.4814 Y1.9284  
G01 X-0.4814 Y1.8716  
G01 X-0.5216 Y1.8314  
G01 X-0.5784 Y1.8314  
G01 X-0.6186 Y1.8716  
G01 X-0.6186 Y1.9284  
G01 X-0.6121 Y1.9350  
G01 X-0.6653 Y1.9882  
G01 X-0.6678 Y1.9926  
G01 X-0.6691 Y1.9975  
G01 X-0.6691 Y2.1237  
G01 X-0.6821 Y2.1367  
G01 X-0.6821 Y2.1633  
G01 X-0.6633 Y2.1821  
G01 X-0.6367 Y2.1821  
G00 Z0.1000  
G00 X-0.8550 Y1.9513  
G01 Z-0.0021 F10    
G01 X-0.8487 Y1.9450  F20    
G01 X-0.8432 Y1.9379  
G01 X-0.8387 Y1.9302  
G01 X-0.8353 Y1.9220  
G01 X-0.8330 Y1.9133  
G01 X-0.8319 Y1.9045  
G01 X-0.8319 Y1.8955  
G01 X-0.8330 Y1.8867  
G01 X-0.8353 Y1.8780  
G01 X-0.8387 Y1.8698  
G01 X-0.8432 Y1.8621  
G01 X-0.8487 Y1.8550  
G01 X-0.8550 Y1.8487  
G01 X-0.8621 Y1.8432  
G01 X-0.8698 Y1.8387  
G01 X-0.8780 Y1.8353  
G01 X-0.8867 Y1.8330  
G01 X-0.8955 Y1.8319  
G01 X-0.9045 Y1.8319  
G01 X-0.9133 Y1.8330  
G01 X-0.9220 Y1.8353  
G01 X-0.9302 Y1.8387  
G01 X-0.9327 Y1.8402  
G01 X-0.9659 Y1.8070  
G01 X-0.9695 Y1.8034  
G01 X-1.1182 Y1.6548  
G01 X-1.1179 Y1.6532  
G01 X-1.1179 Y1.6468  
G01 X-1.1191 Y1.6406  
G01 X-1.1215 Y1.6348  
G01 X-1.1250 Y1.6295  
G01 X-1.1295 Y1.6250  
G01 X-1.1348 Y1.6215  
G01 X-1.1406 Y1.6191  
G01 X-1.1468 Y1.6179  
G01 X-1.1532 Y1.6179  
G01 X-1.1594 Y1.6191  
G01 X-1.1652 Y1.6215  
G01 X-1.1705 Y1.6250  
G01 X-1.1750 Y1.6295  
G01 X-1.1759 Y1.6309  
G01 X-1.2241 Y1.6309  
G01 X-1.2250 Y1.6295  
G01 X-1.2295 Y1.6250  
G01 X-1.2348 Y1.6215  
G01 X-1.2406 Y1.6191  
G01 X-1.2468 Y1.6179  
G01 X-1.2532 Y1.6179  
G01 X-1.2594 Y1.6191  
G01 X-1.2652 Y1.6215  
G01 X-1.2705 Y1.6250  
G01 X-1.2750 Y1.6295  
G01 X-1.2785 Y1.6348  
G01 X-1.2809 Y1.6406  
G01 X-1.2821 Y1.6468  
G01 X-1.2821 Y1.6532  
G01 X-1.2809 Y1.6594  
G01 X-1.2785 Y1.6652  
G01 X-1.2750 Y1.6705  
G01 X-1.2705 Y1.6750  
G01 X-1.2652 Y1.6785  
G01 X-1.2594 Y1.6809  
G01 X-1.2532 Y1.6821  
G01 X-1.2468 Y1.6821  
G01 X-1.2406 Y1.6809  
G01 X-1.2348 Y1.6785  
G01 X-1.2295 Y1.6750  
G01 X-1.2250 Y1.6705  
G01 X-1.2241 Y1.6691  
G01 X-1.1759 Y1.6691  
G01 X-1.1750 Y1.6705  
G01 X-1.1705 Y1.6750  
G01 X-1.1652 Y1.6785  
G01 X-1.1594 Y1.6809  
G01 X-1.1532 Y1.6821  
G01 X-1.1468 Y1.6821  
G01 X-1.1452 Y1.6818  
G01 X-1.0083 Y1.8187  
G01 X-1.1704 Y1.9809  
G01 X-1.5421 Y1.9809  
G01 X-1.7070 Y1.8159  
G01 X-1.7114 Y1.8134  
G01 X-1.7162 Y1.8121  
G01 X-1.8546 Y1.8121  
G01 X-1.9195 Y1.7472  
G01 X-1.9239 Y1.7447  
G01 X-1.9287 Y1.7434  
G01 X-2.0679 Y1.7434  
G01 X-2.0679 Y1.7367  
G01 X-2.0867 Y1.7179  
G01 X-2.1133 Y1.7179  
G01 X-2.1321 Y1.7367  
G01 X-2.1321 Y1.7633  
G01 X-2.1191 Y1.7763  
G01 X-2.1191 Y1.7796  
G01 X-2.2074 Y1.8679  
G01 X-2.2133 Y1.8679  
G01 X-2.2321 Y1.8867  
G01 X-2.2321 Y1.9133  
G01 X-2.2133 Y1.9321  
G01 X-2.1867 Y1.9321  
G01 X-2.1679 Y1.9133  
G01 X-2.1679 Y1.8867  
G01 X-2.1700 Y1.8846  
G01 X-2.0847 Y1.7993  
G01 X-2.0822 Y1.7949  
G01 X-2.0809 Y1.7900  
G01 X-2.0809 Y1.7816  
G01 X-1.9392 Y1.7816  
G01 X-1.8778 Y1.8430  
G01 X-1.8743 Y1.8466  
G01 X-1.8699 Y1.8491  
G01 X-1.8650 Y1.8504  
G01 X-1.7267 Y1.8504  
G01 X-1.5653 Y2.0118  
G01 X-1.5618 Y2.0153  
G01 X-1.5574 Y2.0178  
G01 X-1.5525 Y2.0191  
G01 X-1.1600 Y2.0191  
G01 X-1.1551 Y2.0178  
G01 X-1.1507 Y2.0153  
G01 X-0.9812 Y1.8458  
G01 X-0.9598 Y1.8673  
G01 X-0.9613 Y1.8698  
G01 X-0.9647 Y1.8780  
G01 X-0.9670 Y1.8867  
G01 X-0.9681 Y1.8955  
G01 X-0.9681 Y1.9045  
G01 X-0.9670 Y1.9133  
G01 X-0.9647 Y1.9220  
G01 X-0.9613 Y1.9302  
G01 X-0.9568 Y1.9379  
G01 X-0.9513 Y1.9450  
G01 X-0.9450 Y1.9513  
G01 X-0.9379 Y1.9568  
G01 X-0.9302 Y1.9613  
G01 X-0.9220 Y1.9647  
G01 X-0.9133 Y1.9670  
G01 X-0.9045 Y1.9681  
G01 X-0.8955 Y1.9681  
G01 X-0.8867 Y1.9670  
G01 X-0.8780 Y1.9647  
G01 X-0.8698 Y1.9613  
G01 X-0.8621 Y1.9568  
G01 X-0.8550 Y1.9513  
G00 Z0.1000  
G00 X-0.9295 Y1.6750  
G01 Z-0.0021 F10    
G01 X-0.9250 Y1.6705  F20    
G01 X-0.9215 Y1.6652  
G01 X-0.9191 Y1.6594  
G01 X-0.9179 Y1.6532  
G01 X-0.9179 Y1.6468  
G01 X-0.9191 Y1.6406  
G01 X-0.9215 Y1.6348  
G01 X-0.9250 Y1.6295  
G01 X-0.9295 Y1.6250  
G01 X-0.9348 Y1.6215  
G01 X-0.9406 Y1.6191  
G01 X-0.9468 Y1.6179  
G01 X-0.9532 Y1.6179  
G01 X-0.9594 Y1.6191  
G01 X-0.9643 Y1.6211  
G01 X-1.1347 Y1.4507  
G01 X-1.1382 Y1.4472  
G01 X-1.1426 Y1.4447  
G01 X-1.1475 Y1.4434  
G01 X-1.3671 Y1.4434  
G01 X-1.4179 Y1.3926  
G01 X-1.4179 Y1.3867  
G01 X-1.4309 Y1.3737  
G01 X-1.4309 Y1.3475  
G01 X-1.4322 Y1.3426  
G01 X-1.4347 Y1.3382  
G01 X-1.5569 Y1.2161  
G01 X-1.5569 Y1.1821  
G01 X-1.5809 Y1.1581  
G01 X-1.5809 Y1.1419  
G01 X-1.5569 Y1.1179  
G01 X-1.5569 Y1.0821  
G01 X-1.5821 Y1.0569  
G01 X-1.6179 Y1.0569  
G01 X-1.6431 Y1.0821  
G01 X-1.6431 Y1.1179  
G01 X-1.6191 Y1.1419  
G01 X-1.6191 Y1.1581  
G01 X-1.6419 Y1.1809  
G01 X-1.8338 Y1.1809  
G01 X-1.8386 Y1.1822  
G01 X-1.8430 Y1.1847  
G01 X-1.8466 Y1.1882  
G01 X-1.9892 Y1.3309  
G01 X-2.3090 Y1.3309  
G01 X-2.3090 Y1.3307  
G01 X-2.3126 Y1.3236  
G01 X-2.3173 Y1.3172  
G01 X-2.3229 Y1.3116  
G01 X-2.3293 Y1.3069  
G01 X-2.3364 Y1.3033  
G01 X-2.3439 Y1.3008  
G01 X-2.3518 Y1.2996  
G01 X-2.4482 Y1.2996  
G01 X-2.4561 Y1.3008  
G01 X-2.4636 Y1.3033  
G01 X-2.4707 Y1.3069  
G01 X-2.4771 Y1.3116  
G01 X-2.4827 Y1.3172  
G01 X-2.4874 Y1.3236  
G01 X-2.4910 Y1.3307  
G01 X-2.4934 Y1.3382  
G01 X-2.4946 Y1.3460  
G01 X-2.4946 Y1.3540  
G01 X-2.4934 Y1.3618  
G01 X-2.4910 Y1.3693  
G01 X-2.4874 Y1.3764  
G01 X-2.4827 Y1.3828  
G01 X-2.4771 Y1.3884  
G01 X-2.4707 Y1.3931  
G01 X-2.4636 Y1.3967  
G01 X-2.4561 Y1.3992  
G01 X-2.4482 Y1.4004  
G01 X-2.3518 Y1.4004  
G01 X-2.3439 Y1.3992  
G01 X-2.3364 Y1.3967  
G01 X-2.3293 Y1.3931  
G01 X-2.3229 Y1.3884  
G01 X-2.3173 Y1.3828  
G01 X-2.3126 Y1.3764  
G01 X-2.3090 Y1.3693  
G01 X-2.3090 Y1.3691  
G01 X-1.9787 Y1.3691  
G01 X-1.9739 Y1.3678  
G01 X-1.9695 Y1.3653  
G01 X-1.8233 Y1.2191  
G01 X-1.6419 Y1.2191  
G01 X-1.6179 Y1.2431  
G01 X-1.5839 Y1.2431  
G01 X-1.4691 Y1.3579  
G01 X-1.4691 Y1.3737  
G01 X-1.4821 Y1.3867  
G01 X-1.4821 Y1.4133  
G01 X-1.4633 Y1.4321  
G01 X-1.4367 Y1.4321  
G01 X-1.4346 Y1.4300  
G01 X-1.3868 Y1.4778  
G01 X-1.3824 Y1.4803  
G01 X-1.3775 Y1.4816  
G01 X-1.1579 Y1.4816  
G01 X-0.9811 Y1.6585  
G01 X-0.9809 Y1.6594  
G01 X-0.9785 Y1.6652  
G01 X-0.9750 Y1.6705  
G01 X-0.9705 Y1.6750  
G01 X-0.9652 Y1.6785  
G01 X-0.9594 Y1.6809  
G01 X-0.9532 Y1.6821  
G01 X-0.9468 Y1.6821  
G01 X-0.9406 Y1.6809  
G01 X-0.9348 Y1.6785  
G01 X-0.9295 Y1.6750  
G00 Z0.1000  
G00 X-1.0295 Y1.6750  
G01 Z-0.0021 F10    
G01 X-1.0250 Y1.6705  F20    
G01 X-1.0215 Y1.6652  
G01 X-1.0191 Y1.6594  
G01 X-1.0179 Y1.6532  
G01 X-1.0179 Y1.6468  
G01 X-1.0191 Y1.6406  
G01 X-1.0215 Y1.6348  
G01 X-1.0250 Y1.6295  
G01 X-1.0295 Y1.6250  
G01 X-1.0348 Y1.6215  
G01 X-1.0406 Y1.6191  
G01 X-1.0468 Y1.6179  
G01 X-1.0532 Y1.6179  
G01 X-1.0594 Y1.6191  
G01 X-1.0643 Y1.6211  
G01 X-1.1097 Y1.5757  
G01 X-1.1132 Y1.5722  
G01 X-1.1176 Y1.5697  
G01 X-1.1225 Y1.5684  
G01 X-1.2775 Y1.5684  
G01 X-1.2824 Y1.5697  
G01 X-1.2868 Y1.5722  
G01 X-1.3204 Y1.6059  
G01 X-1.4046 Y1.6059  
G01 X-1.4757 Y1.5347  
G01 X-1.4801 Y1.5322  
G01 X-1.4850 Y1.5309  
G01 X-2.0138 Y1.5309  
G01 X-2.0338 Y1.5109  
G01 X-2.0662 Y1.5109  
G01 X-2.0891 Y1.5338  
G01 X-2.0891 Y1.5662  
G01 X-2.0662 Y1.5891  
G01 X-2.0338 Y1.5891  
G01 X-2.0138 Y1.5691  
G01 X-1.4954 Y1.5691  
G01 X-1.4278 Y1.6368  
G01 X-1.4243 Y1.6403  
G01 X-1.4199 Y1.6428  
G01 X-1.4150 Y1.6441  
G01 X-1.3316 Y1.6441  
G01 X-1.3316 Y1.6900  
G01 X-1.3303 Y1.6949  
G01 X-1.3278 Y1.6993  
G01 X-1.2821 Y1.7449  
G01 X-1.2821 Y1.7633  
G01 X-1.2633 Y1.7821  
G01 X-1.2367 Y1.7821  
G01 X-1.2179 Y1.7633  
G01 X-1.2179 Y1.7367  
G01 X-1.2367 Y1.7179  
G01 X-1.2551 Y1.7179  
G01 X-1.2934 Y1.6796  
G01 X-1.2934 Y1.6329  
G01 X-1.2671 Y1.6066  
G01 X-1.1329 Y1.6066  
G01 X-1.0811 Y1.6585  
G01 X-1.0809 Y1.6594  
G01 X-1.0785 Y1.6652  
G01 X-1.0750 Y1.6705  
G01 X-1.0705 Y1.6750  
G01 X-1.0652 Y1.6785  
G01 X-1.0594 Y1.6809  
G01 X-1.0532 Y1.6821  
G01 X-1.0468 Y1.6821  
G01 X-1.0406 Y1.6809  
G01 X-1.0348 Y1.6785  
G01 X-1.0295 Y1.6750  
G00 Z0.1000  
G00 X-1.0295 Y1.3750  
G01 Z-0.0021 F10    
G01 X-1.0250 Y1.3705  F20    
G01 X-1.0215 Y1.3652  
G01 X-1.0191 Y1.3594  
G01 X-1.0179 Y1.3532  
G01 X-1.0179 Y1.3468  
G01 X-1.0191 Y1.3406  
G01 X-1.0215 Y1.3348  
G01 X-1.0250 Y1.3295  
G01 X-1.0295 Y1.3250  
G01 X-1.0348 Y1.3215  
G01 X-1.0406 Y1.3191  
G01 X-1.0468 Y1.3179  
G01 X-1.0532 Y1.3179  
G01 X-1.0594 Y1.3191  
G01 X-1.0652 Y1.3215  
G01 X-1.0705 Y1.3250  
G01 X-1.0750 Y1.3295  
G01 X-1.0759 Y1.3309  
G01 X-1.1241 Y1.3309  
G01 X-1.1250 Y1.3295  
G01 X-1.1295 Y1.3250  
G01 X-1.1348 Y1.3215  
G01 X-1.1406 Y1.3191  
G01 X-1.1468 Y1.3179  
G01 X-1.1532 Y1.3179  
G01 X-1.1594 Y1.3191  
G01 X-1.1652 Y1.3215  
G01 X-1.1705 Y1.3250  
G01 X-1.1750 Y1.3295  
G01 X-1.1785 Y1.3348  
G01 X-1.1809 Y1.3406  
G01 X-1.1821 Y1.3468  
G01 X-1.1821 Y1.3532  
G01 X-1.1809 Y1.3594  
G01 X-1.1785 Y1.3652  
G01 X-1.1750 Y1.3705  
G01 X-1.1705 Y1.3750  
G01 X-1.1652 Y1.3785  
G01 X-1.1594 Y1.3809  
G01 X-1.1532 Y1.3821  
G01 X-1.1468 Y1.3821  
G01 X-1.1406 Y1.3809  
G01 X-1.1348 Y1.3785  
G01 X-1.1295 Y1.3750  
G01 X-1.1250 Y1.3705  
G01 X-1.1241 Y1.3691  
G01 X-1.0759 Y1.3691  
G01 X-1.0750 Y1.3705  
G01 X-1.0705 Y1.3750  
G01 X-1.0652 Y1.3785  
G01 X-1.0594 Y1.3809  
G01 X-1.0532 Y1.3821  
G01 X-1.0468 Y1.3821  
G01 X-1.0406 Y1.3809  
G01 X-1.0348 Y1.3785  
G01 X-1.0295 Y1.3750  
G00 Z0.1000  
G00 X-1.0179 Y1.2431  
G01 Z-0.0021 F10    
G01 X-0.9821 Y1.2431  F20    
G01 X-0.9569 Y1.2179  
G01 X-0.9569 Y1.1821  
G01 X-0.9821 Y1.1569  
G01 X-1.0179 Y1.1569  
G01 X-1.0431 Y1.1821  
G01 X-1.0431 Y1.2179  
G01 X-1.0179 Y1.2431  
G00 Z0.1000  
G00 X-1.0821 Y1.2431  
G01 Z-0.0021 F10    
G01 X-1.0569 Y1.2179  F20    
G01 X-1.0569 Y1.1821  
G01 X-1.0821 Y1.1569  
G01 X-1.1179 Y1.1569  
G01 X-1.1431 Y1.1821  
G01 X-1.1431 Y1.2179  
G01 X-1.1179 Y1.2431  
G01 X-1.0821 Y1.2431  
G00 Z0.1000  
G00 X-1.0821 Y1.1431  
G01 Z-0.0021 F10    
G01 X-1.0569 Y1.1179  F20    
G01 X-1.0569 Y1.0821  
G01 X-1.0821 Y1.0569  
G01 X-1.1179 Y1.0569  
G01 X-1.1431 Y1.0821  
G01 X-1.1431 Y1.1179  
G01 X-1.1179 Y1.1431  
G01 X-1.0821 Y1.1431  
G00 Z0.1000  
G00 X-1.0431 Y1.1179  
G01 Z-0.0021 F10    
G01 X-1.0179 Y1.1431  F20    
G01 X-0.9821 Y1.1431  
G01 X-0.9569 Y1.1179  
G01 X-0.9569 Y1.0821  
G01 X-0.9821 Y1.0569  
G01 X-1.0179 Y1.0569  
G01 X-1.0431 Y1.0821  
G01 X-1.0431 Y1.1179  
G00 Z0.1000  
G00 X-0.9431 Y1.1179  
G01 Z-0.0021 F10    
G01 X-0.9179 Y1.1431  F20    
G01 X-0.8821 Y1.1431  
G01 X-0.8569 Y1.1179  
G01 X-0.8569 Y1.0821  
G01 X-0.8821 Y1.0569  
G01 X-0.9179 Y1.0569  
G01 X-0.9431 Y1.0821  
G01 X-0.9431 Y1.1179  
G00 Z0.1000  
G00 X-0.9431 Y1.1821  
G01 Z-0.0021 F10    
G01 X-0.9431 Y1.2179  F20    
G01 X-0.9179 Y1.2431  
G01 X-0.8821 Y1.2431  
G01 X-0.8569 Y1.2179  
G01 X-0.8569 Y1.1821  
G01 X-0.8821 Y1.1569  
G01 X-0.9179 Y1.1569  
G01 X-0.9431 Y1.1821  
G00 Z0.1000  
G00 X-1.8609 Y1.6838  
G01 Z-0.0021 F10    
G01 X-1.8838 Y1.6609  F20    
G01 X-1.9162 Y1.6609  
G01 X-1.9362 Y1.6809  
G01 X-2.0546 Y1.6809  
G01 X-2.0597 Y1.6757  
G01 X-2.0632 Y1.6722  
G01 X-2.0676 Y1.6697  
G01 X-2.0725 Y1.6684  
G01 X-2.1275 Y1.6684  
G01 X-2.1324 Y1.6697  
G01 X-2.1368 Y1.6722  
G01 X-2.2743 Y1.8097  
G01 X-2.2778 Y1.8132  
G01 X-2.2803 Y1.8176  
G01 X-2.2816 Y1.8225  
G01 X-2.2816 Y1.9275  
G01 X-2.2803 Y1.9324  
G01 X-2.2778 Y1.9368  
G01 X-2.2368 Y1.9778  
G01 X-2.2324 Y1.9803  
G01 X-2.2275 Y1.9816  
G01 X-1.9691 Y1.9816  
G01 X-1.9691 Y2.1237  
G01 X-1.9821 Y2.1367  
G01 X-1.9821 Y2.1633  
G01 X-1.9633 Y2.1821  
G01 X-1.9367 Y2.1821  
G01 X-1.9179 Y2.1633  
G01 X-1.9179 Y2.1367  
G01 X-1.9309 Y2.1237  
G01 X-1.9309 Y1.9475  
G01 X-1.9322 Y1.9426  
G01 X-1.9347 Y1.9382  
G01 X-1.9538 Y1.9191  
G01 X-1.7890 Y1.9191  
G01 X-1.7670 Y1.9411  
G01 X-1.7330 Y1.9411  
G01 X-1.7089 Y1.9170  
G01 X-1.7089 Y1.8830  
G01 X-1.7330 Y1.8589  
G01 X-1.7670 Y1.8589  
G01 X-1.7890 Y1.8809  
G01 X-1.9900 Y1.8809  
G01 X-1.9916 Y1.8813  
G01 X-2.0179 Y1.8551  
G01 X-2.0179 Y1.8208  
G01 X-2.0191 Y1.8146  
G01 X-2.0215 Y1.8088  
G01 X-2.0250 Y1.8035  
G01 X-2.0295 Y1.7990  
G01 X-2.0348 Y1.7955  
G01 X-2.0406 Y1.7931  
G01 X-2.0468 Y1.7919  
G01 X-2.0532 Y1.7919  
G01 X-2.0594 Y1.7931  
G01 X-2.0652 Y1.7955  
G01 X-2.0705 Y1.7990  
G01 X-2.0750 Y1.8035  
G01 X-2.0785 Y1.8088  
G01 X-2.0809 Y1.8146  
G01 X-2.0821 Y1.8208  
G01 X-2.0821 Y1.8792  
G01 X-2.0809 Y1.8854  
G01 X-2.0785 Y1.8912  
G01 X-2.0750 Y1.8965  
G01 X-2.0705 Y1.9010  
G01 X-2.0652 Y1.9045  
G01 X-2.0594 Y1.9069  
G01 X-2.0532 Y1.9081  
G01 X-2.0468 Y1.9081  
G01 X-2.0406 Y1.9069  
G01 X-2.0348 Y1.9045  
G01 X-2.0295 Y1.9010  
G01 X-2.0278 Y1.8993  
G01 X-2.0091 Y1.9180  
G01 X-1.9837 Y1.9434  
G01 X-2.2171 Y1.9434  
G01 X-2.2434 Y1.9171  
G01 X-2.2434 Y1.8329  
G01 X-2.1171 Y1.7066  
G01 X-2.0829 Y1.7066  
G01 X-2.0743 Y1.7153  
G01 X-2.0699 Y1.7178  
G01 X-2.0650 Y1.7191  
G01 X-1.9362 Y1.7191  
G01 X-1.9162 Y1.7391  
G01 X-1.8838 Y1.7391  
G01 X-1.8609 Y1.7162  
G01 X-1.8609 Y1.6838  
G00 Z0.1000  
G00 X-1.6911 Y1.9830  
G01 Z-0.0021 F10    
G01 X-1.6911 Y2.0170  F20    
G01 X-1.6691 Y2.0390  
G01 X-1.6691 Y2.0796  
G01 X-1.9153 Y2.3257  
G01 X-1.9178 Y2.3301  
G01 X-1.9191 Y2.3350  
G01 X-1.9191 Y2.3981  
G01 X-1.9205 Y2.3990  
G01 X-1.9250 Y2.4035  
G01 X-1.9285 Y2.4088  
G01 X-1.9309 Y2.4146  
G01 X-1.9321 Y2.4208  
G01 X-1.9321 Y2.4792  
G01 X-1.9309 Y2.4854  
G01 X-1.9285 Y2.4912  
G01 X-1.9250 Y2.4965  
G01 X-1.9205 Y2.5010  
G01 X-1.9152 Y2.5045  
G01 X-1.9094 Y2.5069  
G01 X-1.9032 Y2.5081  
G01 X-1.8968 Y2.5081  
G01 X-1.8906 Y2.5069  
G01 X-1.8848 Y2.5045  
G01 X-1.8795 Y2.5010  
G01 X-1.8750 Y2.4965  
G01 X-1.8715 Y2.4912  
G01 X-1.8691 Y2.4854  
G01 X-1.8679 Y2.4792  
G01 X-1.8679 Y2.4208  
G01 X-1.8691 Y2.4146  
G01 X-1.8715 Y2.4088  
G01 X-1.8750 Y2.4035  
G01 X-1.8795 Y2.3990  
G01 X-1.8809 Y2.3981  
G01 X-1.8809 Y2.3454  
G01 X-1.6382 Y2.1028  
G01 X-1.6347 Y2.0993  
G01 X-1.6322 Y2.0949  
G01 X-1.6309 Y2.0900  
G01 X-1.6309 Y2.0390  
G01 X-1.6089 Y2.0170  
G01 X-1.6089 Y1.9830  
G01 X-1.6330 Y1.9589  
G01 X-1.6670 Y1.9589  
G01 X-1.6911 Y1.9830  
G00 Z0.1000  
G00 X-2.0250 Y2.1035  
G01 Z-0.0021 F10    
G01 X-2.0295 Y2.0990  F20    
G01 X-2.0348 Y2.0955  
G01 X-2.0406 Y2.0931  
G01 X-2.0468 Y2.0919  
G01 X-2.0532 Y2.0919  
G01 X-2.0594 Y2.0931  
G01 X-2.0652 Y2.0955  
G01 X-2.0705 Y2.0990  
G01 X-2.0750 Y2.1035  
G01 X-2.0785 Y2.1088  
G01 X-2.0809 Y2.1146  
G01 X-2.0821 Y2.1208  
G01 X-2.0821 Y2.1309  
G01 X-2.2737 Y2.1309  
G01 X-2.2867 Y2.1179  
G01 X-2.3133 Y2.1179  
G01 X-2.3321 Y2.1367  
G01 X-2.3321 Y2.1633  
G01 X-2.3133 Y2.1821  
G01 X-2.2867 Y2.1821  
G01 X-2.2737 Y2.1691  
G01 X-2.0821 Y2.1691  
G01 X-2.0821 Y2.1792  
G01 X-2.0809 Y2.1854  
G01 X-2.0785 Y2.1912  
G01 X-2.0750 Y2.1965  
G01 X-2.0705 Y2.2010  
G01 X-2.0652 Y2.2045  
G01 X-2.0594 Y2.2069  
G01 X-2.0532 Y2.2081  
G01 X-2.0468 Y2.2081  
G01 X-2.0406 Y2.2069  
G01 X-2.0348 Y2.2045  
G01 X-2.0295 Y2.2010  
G01 X-2.0278 Y2.1993  
G01 X-1.9691 Y2.2579  
G01 X-1.9691 Y2.2737  
G01 X-1.9821 Y2.2867  
G01 X-1.9821 Y2.3133  
G01 X-1.9633 Y2.3321  
G01 X-1.9367 Y2.3321  
G01 X-1.9179 Y2.3133  
G01 X-1.9179 Y2.2867  
G01 X-1.9309 Y2.2737  
G01 X-1.9309 Y2.2475  
G01 X-1.9322 Y2.2426  
G01 X-1.9347 Y2.2382  
G01 X-2.0179 Y2.1551  
G01 X-2.0179 Y2.1208  
G01 X-2.0191 Y2.1146  
G01 X-2.0215 Y2.1088  
G01 X-2.0250 Y2.1035  
G00 Z0.1000  
G00 X-2.0679 Y2.2867  
G01 Z-0.0021 F10    
G01 X-2.0867 Y2.2679  F20    
G01 X-2.1133 Y2.2679  
G01 X-2.1321 Y2.2867  
G01 X-2.1321 Y2.3133  
G01 X-2.1191 Y2.3263  
G01 X-2.1191 Y2.3981  
G01 X-2.1205 Y2.3990  
G01 X-2.1250 Y2.4035  
G01 X-2.1285 Y2.4088  
G01 X-2.1309 Y2.4146  
G01 X-2.1321 Y2.4208  
G01 X-2.1321 Y2.4792  
G01 X-2.1309 Y2.4854  
G01 X-2.1285 Y2.4912  
G01 X-2.1250 Y2.4965  
G01 X-2.1205 Y2.5010  
G01 X-2.1152 Y2.5045  
G01 X-2.1094 Y2.5069  
G01 X-2.1032 Y2.5081  
G01 X-2.0968 Y2.5081  
G01 X-2.0906 Y2.5069  
G01 X-2.0848 Y2.5045  
G01 X-2.0795 Y2.5010  
G01 X-2.0750 Y2.4965  
G01 X-2.0715 Y2.4912  
G01 X-2.0691 Y2.4854  
G01 X-2.0679 Y2.4792  
G01 X-2.0679 Y2.4691  
G01 X-2.0321 Y2.4691  
G01 X-2.0321 Y2.4792  
G01 X-2.0309 Y2.4854  
G01 X-2.0285 Y2.4912  
G01 X-2.0250 Y2.4965  
G01 X-2.0205 Y2.5010  
G01 X-2.0152 Y2.5045  
G01 X-2.0094 Y2.5069  
G01 X-2.0032 Y2.5081  
G01 X-1.9968 Y2.5081  
G01 X-1.9906 Y2.5069  
G01 X-1.9848 Y2.5045  
G01 X-1.9795 Y2.5010  
G01 X-1.9750 Y2.4965  
G01 X-1.9715 Y2.4912  
G01 X-1.9691 Y2.4854  
G01 X-1.9679 Y2.4792  
G01 X-1.9679 Y2.4208  
G01 X-1.9691 Y2.4146  
G01 X-1.9715 Y2.4088  
G01 X-1.9750 Y2.4035  
G01 X-1.9795 Y2.3990  
G01 X-1.9848 Y2.3955  
G01 X-1.9906 Y2.3931  
G01 X-1.9968 Y2.3919  
G01 X-2.0032 Y2.3919  
G01 X-2.0094 Y2.3931  
G01 X-2.0152 Y2.3955  
G01 X-2.0205 Y2.3990  
G01 X-2.0250 Y2.4035  
G01 X-2.0285 Y2.4088  
G01 X-2.0309 Y2.4146  
G01 X-2.0321 Y2.4208  
G01 X-2.0321 Y2.4309  
G01 X-2.0679 Y2.4309  
G01 X-2.0679 Y2.4208  
G01 X-2.0691 Y2.4146  
G01 X-2.0715 Y2.4088  
G01 X-2.0750 Y2.4035  
G01 X-2.0795 Y2.3990  
G01 X-2.0809 Y2.3981  
G01 X-2.0809 Y2.3263  
G01 X-2.0679 Y2.3133  
G01 X-2.0679 Y2.2867  
G00 Z0.1000  
G00 X-2.0750 Y2.7035  
G01 Z-0.0021 F10    
G01 X-2.0795 Y2.6990  F20    
G01 X-2.0848 Y2.6955  
G01 X-2.0906 Y2.6931  
G01 X-2.0968 Y2.6919  
G01 X-2.1032 Y2.6919  
G01 X-2.1094 Y2.6931  
G01 X-2.1152 Y2.6955  
G01 X-2.1205 Y2.6990  
G01 X-2.1250 Y2.7035  
G01 X-2.1285 Y2.7088  
G01 X-2.1309 Y2.7146  
G01 X-2.1321 Y2.7208  
G01 X-2.1321 Y2.7676  
G01 X-2.2329 Y2.8684  
G01 X-2.5400 Y2.8684  
G01 X-2.5449 Y2.8697  
G01 X-2.5493 Y2.8722  
G01 X-2.6449 Y2.9679  
G01 X-2.6633 Y2.9679  
G01 X-2.6821 Y2.9867  
G01 X-2.6821 Y3.0133  
G01 X-2.6633 Y3.0321  
G01 X-2.6367 Y3.0321  
G01 X-2.6179 Y3.0133  
G01 X-2.6179 Y2.9949  
G01 X-2.5296 Y2.9066  
G01 X-2.2225 Y2.9066  
G01 X-2.2176 Y2.9053  
G01 X-2.2132 Y2.9028  
G01 X-2.2097 Y2.8993  
G01 X-2.1150 Y2.8046  
G01 X-2.1094 Y2.8069  
G01 X-2.1032 Y2.8081  
G01 X-2.0968 Y2.8081  
G01 X-2.0906 Y2.8069  
G01 X-2.0848 Y2.8045  
G01 X-2.0795 Y2.8010  
G01 X-2.0750 Y2.7965  
G01 X-2.0715 Y2.7912  
G01 X-2.0691 Y2.7854  
G01 X-2.0679 Y2.7792  
G01 X-2.0679 Y2.7208  
G01 X-2.0691 Y2.7146  
G01 X-2.0715 Y2.7088  
G01 X-2.0750 Y2.7035  
G00 Z0.1000  
G00 X-2.0250 Y2.7035  
G01 Z-0.0021 F10    
G01 X-2.0285 Y2.7088  F20    
G01 X-2.0309 Y2.7146  
G01 X-2.0321 Y2.7208  
G01 X-2.0321 Y2.7676  
G01 X-2.1829 Y2.9184  
G01 X-2.3400 Y2.9184  
G01 X-2.3449 Y2.9197  
G01 X-2.3493 Y2.9222  
G01 X-2.3949 Y2.9679  
G01 X-2.4133 Y2.9679  
G01 X-2.4321 Y2.9867  
G01 X-2.4321 Y3.0133  
G01 X-2.4133 Y3.0321  
G01 X-2.3867 Y3.0321  
G01 X-2.3679 Y3.0133  
G01 X-2.3679 Y2.9949  
G01 X-2.3296 Y2.9566  
G01 X-2.1725 Y2.9566  
G01 X-2.1676 Y2.9553  
G01 X-2.1632 Y2.9528  
G01 X-2.1597 Y2.9493  
G01 X-2.0150 Y2.8046  
G01 X-2.0094 Y2.8069  
G01 X-2.0032 Y2.8081  
G01 X-1.9968 Y2.8081  
G01 X-1.9906 Y2.8069  
G01 X-1.9848 Y2.8045  
G01 X-1.9795 Y2.8010  
G01 X-1.9750 Y2.7965  
G01 X-1.9715 Y2.7912  
G01 X-1.9691 Y2.7854  
G01 X-1.9679 Y2.7792  
G01 X-1.9679 Y2.7208  
G01 X-1.9691 Y2.7146  
G01 X-1.9715 Y2.7088  
G01 X-1.9750 Y2.7035  
G01 X-1.9795 Y2.6990  
G01 X-1.9848 Y2.6955  
G01 X-1.9906 Y2.6931  
G01 X-1.9968 Y2.6919  
G01 X-2.0032 Y2.6919  
G01 X-2.0094 Y2.6931  
G01 X-2.0152 Y2.6955  
G01 X-2.0205 Y2.6990  
G01 X-2.0250 Y2.7035  
G00 Z0.1000  
G00 X-1.9250 Y2.7035  
G01 Z-0.0021 F10    
G01 X-1.9285 Y2.7088  F20    
G01 X-1.9309 Y2.7146  
G01 X-1.9321 Y2.7208  
G01 X-1.9321 Y2.7676  
G01 X-2.1346 Y2.9700  
G01 X-2.1367 Y2.9679  
G01 X-2.1633 Y2.9679  
G01 X-2.1821 Y2.9867  
G01 X-2.1821 Y3.0133  
G01 X-2.1633 Y3.0321  
G01 X-2.1367 Y3.0321  
G01 X-2.1179 Y3.0133  
G01 X-2.1179 Y3.0074  
G01 X-1.9150 Y2.8046  
G01 X-1.9094 Y2.8069  
G01 X-1.9032 Y2.8081  
G01 X-1.8968 Y2.8081  
G01 X-1.8906 Y2.8069  
G01 X-1.8848 Y2.8045  
G01 X-1.8795 Y2.8010  
G01 X-1.8750 Y2.7965  
G01 X-1.8715 Y2.7912  
G01 X-1.8691 Y2.7854  
G01 X-1.8679 Y2.7792  
G01 X-1.8679 Y2.7208  
G01 X-1.8691 Y2.7146  
G01 X-1.8715 Y2.7088  
G01 X-1.8750 Y2.7035  
G01 X-1.8795 Y2.6990  
G01 X-1.8848 Y2.6955  
G01 X-1.8906 Y2.6931  
G01 X-1.8968 Y2.6919  
G01 X-1.9032 Y2.6919  
G01 X-1.9094 Y2.6931  
G01 X-1.9152 Y2.6955  
G01 X-1.9205 Y2.6990  
G01 X-1.9250 Y2.7035  
G00 Z0.1000  
G00 X-1.8250 Y2.7035  
G01 Z-0.0021 F10    
G01 X-1.8285 Y2.7088  F20    
G01 X-1.8309 Y2.7146  
G01 X-1.8321 Y2.7208  
G01 X-1.8321 Y2.7792  
G01 X-1.8309 Y2.7854  
G01 X-1.8285 Y2.7912  
G01 X-1.8250 Y2.7965  
G01 X-1.8205 Y2.8010  
G01 X-1.8191 Y2.8019  
G01 X-1.8191 Y2.8921  
G01 X-1.8949 Y2.9679  
G01 X-1.9133 Y2.9679  
G01 X-1.9321 Y2.9867  
G01 X-1.9321 Y3.0133  
G01 X-1.9133 Y3.0321  
G01 X-1.8867 Y3.0321  
G01 X-1.8679 Y3.0133  
G01 X-1.8679 Y2.9949  
G01 X-1.7847 Y2.9118  
G01 X-1.7822 Y2.9074  
G01 X-1.7809 Y2.9025  
G01 X-1.7809 Y2.8019  
G01 X-1.7795 Y2.8010  
G01 X-1.7750 Y2.7965  
G01 X-1.7715 Y2.7912  
G01 X-1.7691 Y2.7854  
G01 X-1.7679 Y2.7792  
G01 X-1.7679 Y2.7208  
G01 X-1.7691 Y2.7146  
G01 X-1.7715 Y2.7088  
G01 X-1.7750 Y2.7035  
G01 X-1.7795 Y2.6990  
G01 X-1.7848 Y2.6955  
G01 X-1.7906 Y2.6931  
G01 X-1.7968 Y2.6919  
G01 X-1.8032 Y2.6919  
G01 X-1.8094 Y2.6931  
G01 X-1.8152 Y2.6955  
G01 X-1.8205 Y2.6990  
G01 X-1.8250 Y2.7035  
G00 Z0.1000  
G00 X-1.7250 Y2.7035  
G01 Z-0.0021 F10    
G01 X-1.7285 Y2.7088  F20    
G01 X-1.7309 Y2.7146  
G01 X-1.7321 Y2.7208  
G01 X-1.7321 Y2.7792  
G01 X-1.7309 Y2.7854  
G01 X-1.7285 Y2.7912  
G01 X-1.7250 Y2.7965  
G01 X-1.7205 Y2.8010  
G01 X-1.7152 Y2.8045  
G01 X-1.7094 Y2.8069  
G01 X-1.7032 Y2.8081  
G01 X-1.6968 Y2.8081  
G01 X-1.6906 Y2.8069  
G01 X-1.6850 Y2.8046  
G01 X-1.6691 Y2.8204  
G01 X-1.6691 Y2.9737  
G01 X-1.6821 Y2.9867  
G01 X-1.6821 Y3.0133  
G01 X-1.6633 Y3.0321  
G01 X-1.6367 Y3.0321  
G01 X-1.6179 Y3.0133  
G01 X-1.6179 Y2.9867  
G01 X-1.6309 Y2.9737  
G01 X-1.6309 Y2.8100  
G01 X-1.6322 Y2.8051  
G01 X-1.6347 Y2.8007  
G01 X-1.6679 Y2.7676  
G01 X-1.6679 Y2.7208  
G01 X-1.6691 Y2.7146  
G01 X-1.6715 Y2.7088  
G01 X-1.6750 Y2.7035  
G01 X-1.6795 Y2.6990  
G01 X-1.6848 Y2.6955  
G01 X-1.6906 Y2.6931  
G01 X-1.6968 Y2.6919  
G01 X-1.7032 Y2.6919  
G01 X-1.7094 Y2.6931  
G01 X-1.7152 Y2.6955  
G01 X-1.7205 Y2.6990  
G01 X-1.7250 Y2.7035  
G00 Z0.1000  
G00 X-1.6250 Y2.7035  
G01 Z-0.0021 F10    
G01 X-1.6285 Y2.7088  F20    
G01 X-1.6309 Y2.7146  
G01 X-1.6321 Y2.7208  
G01 X-1.6321 Y2.7792  
G01 X-1.6309 Y2.7854  
G01 X-1.6285 Y2.7912  
G01 X-1.6250 Y2.7965  
G01 X-1.6205 Y2.8010  
G01 X-1.6152 Y2.8045  
G01 X-1.6094 Y2.8069  
G01 X-1.6032 Y2.8081  
G01 X-1.5968 Y2.8081  
G01 X-1.5906 Y2.8069  
G01 X-1.5850 Y2.8046  
G01 X-1.4191 Y2.9704  
G01 X-1.4191 Y2.9737  
G01 X-1.4321 Y2.9867  
G01 X-1.4321 Y3.0133  
G01 X-1.4133 Y3.0321  
G01 X-1.3867 Y3.0321  
G01 X-1.3679 Y3.0133  
G01 X-1.3679 Y2.9867  
G01 X-1.3809 Y2.9737  
G01 X-1.3809 Y2.9600  
G01 X-1.3822 Y2.9551  
G01 X-1.3847 Y2.9507  
G01 X-1.5679 Y2.7676  
G01 X-1.5679 Y2.7208  
G01 X-1.5691 Y2.7146  
G01 X-1.5715 Y2.7088  
G01 X-1.5750 Y2.7035  
G01 X-1.5795 Y2.6990  
G01 X-1.5848 Y2.6955  
G01 X-1.5906 Y2.6931  
G01 X-1.5968 Y2.6919  
G01 X-1.6032 Y2.6919  
G01 X-1.6094 Y2.6931  
G01 X-1.6152 Y2.6955  
G01 X-1.6205 Y2.6990  
G01 X-1.6250 Y2.7035  
G00 Z0.1000  
G00 X-1.5250 Y2.7035  
G01 Z-0.0021 F10    
G01 X-1.5285 Y2.7088  F20    
G01 X-1.5309 Y2.7146  
G01 X-1.5321 Y2.7208  
G01 X-1.5321 Y2.7792  
G01 X-1.5309 Y2.7854  
G01 X-1.5285 Y2.7912  
G01 X-1.5250 Y2.7965  
G01 X-1.5205 Y2.8010  
G01 X-1.5152 Y2.8045  
G01 X-1.5094 Y2.8069  
G01 X-1.5032 Y2.8081  
G01 X-1.4968 Y2.8081  
G01 X-1.4906 Y2.8069  
G01 X-1.4848 Y2.8045  
G01 X-1.4795 Y2.8010  
G01 X-1.4750 Y2.7965  
G01 X-1.4715 Y2.7912  
G01 X-1.4691 Y2.7854  
G01 X-1.4679 Y2.7792  
G01 X-1.4679 Y2.7691  
G01 X-1.4079 Y2.7691  
G01 X-1.1821 Y2.9949  
G01 X-1.1821 Y3.0133  
G01 X-1.1633 Y3.0321  
G01 X-1.1367 Y3.0321  
G01 X-1.1179 Y3.0133  
G01 X-1.1179 Y2.9867  
G01 X-1.1367 Y2.9679  
G01 X-1.1551 Y2.9679  
G01 X-1.3882 Y2.7347  
G01 X-1.3926 Y2.7322  
G01 X-1.3975 Y2.7309  
G01 X-1.4679 Y2.7309  
G01 X-1.4679 Y2.7208  
G01 X-1.4691 Y2.7146  
G01 X-1.4715 Y2.7088  
G01 X-1.4750 Y2.7035  
G01 X-1.4795 Y2.6990  
G01 X-1.4848 Y2.6955  
G01 X-1.4906 Y2.6931  
G01 X-1.4968 Y2.6919  
G01 X-1.5032 Y2.6919  
G01 X-1.5094 Y2.6931  
G01 X-1.5152 Y2.6955  
G01 X-1.5205 Y2.6990  
G01 X-1.5250 Y2.7035  
G00 Z0.1000  
G00 X-1.5250 Y2.4965  
G01 Z-0.0021 F10    
G01 X-1.5205 Y2.5010  F20    
G01 X-1.5152 Y2.5045  
G01 X-1.5094 Y2.5069  
G01 X-1.5032 Y2.5081  
G01 X-1.4968 Y2.5081  
G01 X-1.4906 Y2.5069  
G01 X-1.4848 Y2.5045  
G01 X-1.4795 Y2.5010  
G01 X-1.4750 Y2.4965  
G01 X-1.4715 Y2.4912  
G01 X-1.4691 Y2.4854  
G01 X-1.4679 Y2.4792  
G01 X-1.4679 Y2.4691  
G01 X-1.4204 Y2.4691  
G01 X-1.1191 Y2.7704  
G01 X-1.1191 Y2.8025  
G01 X-1.1178 Y2.8074  
G01 X-1.1153 Y2.8118  
G01 X-1.1118 Y2.8153  
G01 X-0.9321 Y2.9949  
G01 X-0.9321 Y3.0133  
G01 X-0.9133 Y3.0321  
G01 X-0.8867 Y3.0321  
G01 X-0.8679 Y3.0133  
G01 X-0.8679 Y2.9867  
G01 X-0.8867 Y2.9679  
G01 X-0.9051 Y2.9679  
G01 X-1.0809 Y2.7921  
G01 X-1.0809 Y2.7600  
G01 X-1.0822 Y2.7551  
G01 X-1.0847 Y2.7507  
G01 X-1.3972 Y2.4382  
G01 X-1.4007 Y2.4347  
G01 X-1.4051 Y2.4322  
G01 X-1.4100 Y2.4309  
G01 X-1.4679 Y2.4309  
G01 X-1.4679 Y2.4208  
G01 X-1.4691 Y2.4146  
G01 X-1.4715 Y2.4088  
G01 X-1.4750 Y2.4035  
G01 X-1.4795 Y2.3990  
G01 X-1.4848 Y2.3955  
G01 X-1.4906 Y2.3931  
G01 X-1.4968 Y2.3919  
G01 X-1.5032 Y2.3919  
G01 X-1.5094 Y2.3931  
G01 X-1.5152 Y2.3955  
G01 X-1.5205 Y2.3990  
G01 X-1.5250 Y2.4035  
G01 X-1.5285 Y2.4088  
G01 X-1.5309 Y2.4146  
G01 X-1.5321 Y2.4208  
G01 X-1.5321 Y2.4792  
G01 X-1.5309 Y2.4854  
G01 X-1.5285 Y2.4912  
G01 X-1.5250 Y2.4965  
G00 Z0.1000  
G00 X-2.1750 Y2.7035  
G01 Z-0.0021 F10    
G01 X-2.1795 Y2.6990  F20    
G01 X-2.1848 Y2.6955  
G01 X-2.1906 Y2.6931  
G01 X-2.1968 Y2.6919  
G01 X-2.2032 Y2.6919  
G01 X-2.2094 Y2.6931  
G01 X-2.2152 Y2.6955  
G01 X-2.2205 Y2.6990  
G01 X-2.2250 Y2.7035  
G01 X-2.2285 Y2.7088  
G01 X-2.2309 Y2.7146  
G01 X-2.2321 Y2.7208  
G01 X-2.2321 Y2.7676  
G01 X-2.2829 Y2.8184  
G01 X-2.7400 Y2.8184  
G01 X-2.7449 Y2.8197  
G01 X-2.7493 Y2.8222  
G01 X-2.8949 Y2.9679  
G01 X-2.9133 Y2.9679  
G01 X-2.9321 Y2.9867  
G01 X-2.9321 Y3.0133  
G01 X-2.9133 Y3.0321  
G01 X-2.8867 Y3.0321  
G01 X-2.8679 Y3.0133  
G01 X-2.8679 Y2.9949  
G01 X-2.7296 Y2.8566  
G01 X-2.2725 Y2.8566  
G01 X-2.2676 Y2.8553  
G01 X-2.2632 Y2.8528  
G01 X-2.2597 Y2.8493  
G01 X-2.2150 Y2.8046  
G01 X-2.2094 Y2.8069  
G01 X-2.2032 Y2.8081  
G01 X-2.1968 Y2.8081  
G01 X-2.1906 Y2.8069  
G01 X-2.1848 Y2.8045  
G01 X-2.1795 Y2.8010  
G01 X-2.1750 Y2.7965  
G01 X-2.1715 Y2.7912  
G01 X-2.1691 Y2.7854  
G01 X-2.1679 Y2.7792  
G01 X-2.1679 Y2.7208  
G01 X-2.1691 Y2.7146  
G01 X-2.1715 Y2.7088  
G01 X-2.1750 Y2.7035  
G00 Z0.1000  
G00 X-2.2750 Y2.7035  
G01 Z-0.0021 F10    
G01 X-2.2795 Y2.6990  F20    
G01 X-2.2848 Y2.6955  
G01 X-2.2906 Y2.6931  
G01 X-2.2968 Y2.6919  
G01 X-2.3032 Y2.6919  
G01 X-2.3094 Y2.6931  
G01 X-2.3152 Y2.6955  
G01 X-2.3205 Y2.6990  
G01 X-2.3250 Y2.7035  
G01 X-2.3285 Y2.7088  
G01 X-2.3309 Y2.7146  
G01 X-2.3321 Y2.7208  
G01 X-2.3321 Y2.7309  
G01 X-2.9025 Y2.7309  
G01 X-2.9074 Y2.7322  
G01 X-2.9118 Y2.7347  
G01 X-3.1449 Y2.9679  
G01 X-3.1633 Y2.9679  
G01 X-3.1821 Y2.9867  
G01 X-3.1821 Y3.0133  
G01 X-3.1633 Y3.0321  
G01 X-3.1367 Y3.0321  
G01 X-3.1179 Y3.0133  
G01 X-3.1179 Y2.9949  
G01 X-2.8921 Y2.7691  
G01 X-2.3321 Y2.7691  
G01 X-2.3321 Y2.7792  
G01 X-2.3309 Y2.7854  
G01 X-2.3285 Y2.7912  
G01 X-2.3250 Y2.7965  
G01 X-2.3205 Y2.8010  
G01 X-2.3152 Y2.8045  
G01 X-2.3094 Y2.8069  
G01 X-2.3032 Y2.8081  
G01 X-2.2968 Y2.8081  
G01 X-2.2906 Y2.8069  
G01 X-2.2848 Y2.8045  
G01 X-2.2795 Y2.8010  
G01 X-2.2750 Y2.7965  
G01 X-2.2715 Y2.7912  
G01 X-2.2691 Y2.7854  
G01 X-2.2679 Y2.7792  
G01 X-2.2679 Y2.7208  
G01 X-2.2691 Y2.7146  
G01 X-2.2715 Y2.7088  
G01 X-2.2750 Y2.7035  
G00 Z0.1000  
G00 X-2.3617 Y2.1321  
G01 Z-0.0021 F10    
G01 X-2.3429 Y2.1133  F20    
G01 X-2.3429 Y2.0867  
G01 X-2.3617 Y2.0679  
G01 X-2.3883 Y2.0679  
G01 X-2.3967 Y2.0762  
G01 X-2.5679 Y1.9051  
G01 X-2.5679 Y1.8867  
G01 X-2.5867 Y1.8679  
G01 X-2.6133 Y1.8679  
G01 X-2.6321 Y1.8867  
G01 X-2.6321 Y1.9133  
G01 X-2.6133 Y1.9321  
G01 X-2.5949 Y1.9321  
G01 X-2.4118 Y2.1153  
G01 X-2.4074 Y2.1178  
G01 X-2.4025 Y2.1191  
G01 X-2.4013 Y2.1191  
G01 X-2.3883 Y2.1321  
G01 X-2.3617 Y2.1321  
G00 Z0.1000  
G00 X-0.0665 Y1.3165  
G01 Z-0.0021 F10    
G01 X-0.0723 Y1.3108  F20    
G01 X-0.0788 Y1.3060  
G01 X-0.0860 Y1.3024  
G01 X-0.0937 Y1.2999  
G01 X-0.1017 Y1.2986  
G01 X-0.1983 Y1.2986  
G01 X-0.2063 Y1.2999  
G01 X-0.2140 Y1.3024  
G01 X-0.2212 Y1.3060  
G01 X-0.2277 Y1.3108  
G01 X-0.2335 Y1.3165  
G01 X-0.2382 Y1.3231  
G01 X-0.2417 Y1.3299  
G01 X-0.5854 Y1.3299  
G01 X-0.6589 Y1.2564  
G01 X-0.6626 Y1.2526  
G01 X-0.6672 Y1.2500  
G01 X-0.6723 Y1.2486  
G01 X-0.8777 Y1.2486  
G01 X-0.8828 Y1.2500  
G01 X-0.8874 Y1.2526  
G01 X-0.8896 Y1.2549  
G01 X-1.2264 Y1.2549  
G01 X-1.2157 Y1.2441  
G01 X-1.1817 Y1.2441  
G01 X-1.1559 Y1.2183  
G01 X-1.1559 Y1.1817  
G01 X-1.1799 Y1.1577  
G01 X-1.1799 Y1.1423  
G01 X-1.1559 Y1.1183  
G01 X-1.1559 Y1.0817  
G01 X-1.1817 Y1.0559  
G01 X-1.2157 Y1.0559  
G01 X-1.3089 Y0.9626  
G01 X-1.3126 Y0.9589  
G01 X-1.3172 Y0.9562  
G01 X-1.3223 Y0.9549  
G01 X-2.2464 Y0.9549  
G01 X-2.2515 Y0.9562  
G01 X-2.2561 Y0.9589  
G01 X-2.7249 Y1.4276  
G01 X-2.7286 Y1.4314  
G01 X-2.7313 Y1.4360  
G01 X-2.7326 Y1.4411  
G01 X-2.7326 Y2.1777  
G01 X-2.7313 Y2.1828  
G01 X-2.7286 Y2.1874  
G01 X-2.4536 Y2.4624  
G01 X-2.4499 Y2.4661  
G01 X-2.4453 Y2.4688  
G01 X-2.4402 Y2.4701  
G01 X-2.3331 Y2.4701  
G01 X-2.3331 Y2.4793  
G01 X-2.3319 Y2.4857  
G01 X-2.3294 Y2.4917  
G01 X-2.3257 Y2.4971  
G01 X-2.3211 Y2.5017  
G01 X-2.3157 Y2.5054  
G01 X-2.3097 Y2.5079  
G01 X-2.3033 Y2.5091  
G01 X-2.2967 Y2.5091  
G01 X-2.2903 Y2.5079  
G01 X-2.2852 Y2.5058  
G01 X-2.1911 Y2.5999  
G01 X-2.1874 Y2.6036  
G01 X-2.1828 Y2.6063  
G01 X-2.1777 Y2.6076  
G01 X-1.5848 Y2.6076  
G01 X-1.5837 Y2.6073  
G01 X-1.5161 Y2.6749  
G01 X-1.5124 Y2.6786  
G01 X-1.5078 Y2.6813  
G01 X-1.5027 Y2.6826  
G01 X-1.3458 Y2.6826  
G01 X-1.2611 Y2.7674  
G01 X-1.2622 Y2.7694  
G01 X-1.2656 Y2.7777  
G01 X-1.2680 Y2.7865  
G01 X-1.2691 Y2.7955  
G01 X-1.2691 Y2.8045  
G01 X-1.2680 Y2.8135  
G01 X-1.2656 Y2.8223  
G01 X-1.2622 Y2.8306  
G01 X-1.2576 Y2.8385  
G01 X-1.2521 Y2.8457  
G01 X-1.2457 Y2.8521  
G01 X-1.2385 Y2.8576  
G01 X-1.2306 Y2.8622  
G01 X-1.2223 Y2.8656  
G01 X-1.2135 Y2.8680  
G01 X-1.2045 Y2.8691  
G01 X-1.1955 Y2.8691  
G01 X-1.1865 Y2.8680  
G01 X-1.1777 Y2.8656  
G01 X-1.1761 Y2.8649  
G01 X-1.0701 Y2.9708  
G01 X-1.0701 Y2.9733  
G01 X-1.0831 Y2.9863  
G01 X-1.0831 Y2.9922  
G01 X-1.1333 Y3.0424  
G01 X-1.1667 Y3.0424  
G01 X-1.2251 Y2.9839  
G01 X-1.2297 Y2.9812  
G01 X-1.2348 Y2.9799  
G01 X-1.2733 Y2.9799  
G01 X-1.2863 Y2.9669  
G01 X-1.3137 Y2.9669  
G01 X-1.3331 Y2.9863  
G01 X-1.3331 Y2.9922  
G01 X-1.3833 Y3.0424  
G01 X-1.4167 Y3.0424  
G01 X-1.4751 Y2.9839  
G01 X-1.4797 Y2.9812  
G01 X-1.4848 Y2.9799  
G01 X-1.5233 Y2.9799  
G01 X-1.5363 Y2.9669  
G01 X-1.5637 Y2.9669  
G01 X-1.5831 Y2.9863  
G01 X-1.5831 Y2.9922  
G01 X-1.6333 Y3.0424  
G01 X-1.6667 Y3.0424  
G01 X-1.7251 Y2.9839  
G01 X-1.7297 Y2.9812  
G01 X-1.7348 Y2.9799  
G01 X-1.7733 Y2.9799  
G01 X-1.7863 Y2.9669  
G01 X-1.8137 Y2.9669  
G01 X-1.8331 Y2.9863  
G01 X-1.8331 Y2.9922  
G01 X-1.8833 Y3.0424  
G01 X-1.9167 Y3.0424  
G01 X-1.9751 Y2.9839  
G01 X-1.9797 Y2.9812  
G01 X-1.9848 Y2.9799  
G01 X-2.0233 Y2.9799  
G01 X-2.0363 Y2.9669  
G01 X-2.0637 Y2.9669  
G01 X-2.0831 Y2.9863  
G01 X-2.0831 Y2.9922  
G01 X-2.1333 Y3.0424  
G01 X-2.1667 Y3.0424  
G01 X-2.2251 Y2.9839  
G01 X-2.2297 Y2.9812  
G01 X-2.2348 Y2.9799  
G01 X-2.2733 Y2.9799  
G01 X-2.2863 Y2.9669  
G01 X-2.3137 Y2.9669  
G01 X-2.3331 Y2.9863  
G01 X-2.3331 Y2.9922  
G01 X-2.3833 Y3.0424  
G01 X-2.4167 Y3.0424  
G01 X-2.4751 Y2.9839  
G01 X-2.4797 Y2.9812  
G01 X-2.4848 Y2.9799  
G01 X-2.5233 Y2.9799  
G01 X-2.5363 Y2.9669  
G01 X-2.5637 Y2.9669  
G01 X-2.5831 Y2.9863  
G01 X-2.5831 Y2.9922  
G01 X-2.6333 Y3.0424  
G01 X-2.6667 Y3.0424  
G01 X-2.7251 Y2.9839  
G01 X-2.7297 Y2.9812  
G01 X-2.7348 Y2.9799  
G01 X-2.7733 Y2.9799  
G01 X-2.7863 Y2.9669  
G01 X-2.8137 Y2.9669  
G01 X-2.8331 Y2.9863  
G01 X-2.8331 Y2.9922  
G01 X-2.8833 Y3.0424  
G01 X-2.9167 Y3.0424  
G01 X-2.9751 Y2.9839  
G01 X-2.9797 Y2.9812  
G01 X-2.9848 Y2.9799  
G01 X-3.0233 Y2.9799  
G01 X-3.0363 Y2.9669  
G01 X-3.0637 Y2.9669  
G01 X-3.0831 Y2.9863  
G01 X-3.0831 Y3.0137  
G01 X-3.0637 Y3.0331  
G01 X-3.0363 Y3.0331  
G01 X-3.0233 Y3.0201  
G01 X-2.9958 Y3.0201  
G01 X-2.9411 Y3.0749  
G01 X-2.9374 Y3.0786  
G01 X-2.9328 Y3.0813  
G01 X-2.9277 Y3.0826  
G01 X-2.8723 Y3.0826  
G01 X-2.8672 Y3.0813  
G01 X-2.8626 Y3.0786  
G01 X-2.8154 Y3.0314  
G01 X-2.8137 Y3.0331  
G01 X-2.7863 Y3.0331  
G01 X-2.7733 Y3.0201  
G01 X-2.7458 Y3.0201  
G01 X-2.6911 Y3.0749  
G01 X-2.6874 Y3.0786  
G01 X-2.6828 Y3.0813  
G01 X-2.6777 Y3.0826  
G01 X-2.6223 Y3.0826  
G01 X-2.6172 Y3.0813  
G01 X-2.6126 Y3.0786  
G01 X-2.5654 Y3.0314  
G01 X-2.5637 Y3.0331  
G01 X-2.5363 Y3.0331  
G01 X-2.5233 Y3.0201  
G01 X-2.4958 Y3.0201  
G01 X-2.4411 Y3.0749  
G01 X-2.4374 Y3.0786  
G01 X-2.4328 Y3.0813  
G01 X-2.4277 Y3.0826  
G01 X-2.3723 Y3.0826  
G01 X-2.3672 Y3.0813  
G01 X-2.3626 Y3.0786  
G01 X-2.3154 Y3.0314  
G01 X-2.3137 Y3.0331  
G01 X-2.2863 Y3.0331  
G01 X-2.2733 Y3.0201  
G01 X-2.2458 Y3.0201  
G01 X-2.1911 Y3.0749  
G01 X-2.1874 Y3.0786  
G01 X-2.1828 Y3.0813  
G01 X-2.1777 Y3.0826  
G01 X-2.1223 Y3.0826  
G01 X-2.1172 Y3.0813  
G01 X-2.1126 Y3.0786  
G01 X-2.0654 Y3.0314  
G01 X-2.0637 Y3.0331  
G01 X-2.0363 Y3.0331  
G01 X-2.0233 Y3.0201  
G01 X-1.9958 Y3.0201  
G01 X-1.9411 Y3.0749  
G01 X-1.9374 Y3.0786  
G01 X-1.9328 Y3.0813  
G01 X-1.9277 Y3.0826  
G01 X-1.8723 Y3.0826  
G01 X-1.8672 Y3.0813  
G01 X-1.8626 Y3.0786  
G01 X-1.8154 Y3.0314  
G01 X-1.8137 Y3.0331  
G01 X-1.7863 Y3.0331  
G01 X-1.7733 Y3.0201  
G01 X-1.7458 Y3.0201  
G01 X-1.6911 Y3.0749  
G01 X-1.6874 Y3.0786  
G01 X-1.6828 Y3.0813  
G01 X-1.6777 Y3.0826  
G01 X-1.6223 Y3.0826  
G01 X-1.6172 Y3.0813  
G01 X-1.6126 Y3.0786  
G01 X-1.5654 Y3.0314  
G01 X-1.5637 Y3.0331  
G01 X-1.5363 Y3.0331  
G01 X-1.5233 Y3.0201  
G01 X-1.4958 Y3.0201  
G01 X-1.4411 Y3.0749  
G01 X-1.4374 Y3.0786  
G01 X-1.4328 Y3.0813  
G01 X-1.4277 Y3.0826  
G01 X-1.3723 Y3.0826  
G01 X-1.3672 Y3.0813  
G01 X-1.3626 Y3.0786  
G01 X-1.3154 Y3.0314  
G01 X-1.3137 Y3.0331  
G01 X-1.2863 Y3.0331  
G01 X-1.2733 Y3.0201  
G01 X-1.2458 Y3.0201  
G01 X-1.1874 Y3.0786  
G01 X-1.1828 Y3.0813  
G01 X-1.1777 Y3.0826  
G01 X-0.8723 Y3.0826  
G01 X-0.8672 Y3.0813  
G01 X-0.8626 Y3.0786  
G01 X-0.8589 Y3.0749  
G01 X-0.8154 Y3.0314  
G01 X-0.8137 Y3.0331  
G01 X-0.7863 Y3.0331  
G01 X-0.7669 Y3.0137  
G01 X-0.7669 Y2.9863  
G01 X-0.7863 Y2.9669  
G01 X-0.8047 Y2.9669  
G01 X-0.8501 Y2.9214  
G01 X-0.8547 Y2.9187  
G01 X-0.8598 Y2.9174  
G01 X-0.8917 Y2.9174  
G01 X-0.9799 Y2.8292  
G01 X-0.9799 Y2.7973  
G01 X-0.9812 Y2.7922  
G01 X-0.9839 Y2.7876  
G01 X-0.9876 Y2.7839  
G01 X-1.4876 Y2.2839  
G01 X-1.4922 Y2.2812  
G01 X-1.4973 Y2.2799  
G01 X-1.5233 Y2.2799  
G01 X-1.5363 Y2.2669  
G01 X-1.5637 Y2.2669  
G01 X-1.5831 Y2.2863  
G01 X-1.5831 Y2.3137  
G01 X-1.5637 Y2.3331  
G01 X-1.5363 Y2.3331  
G01 X-1.5233 Y2.3201  
G01 X-1.5083 Y2.3201  
G01 X-1.0201 Y2.8083  
G01 X-1.0201 Y2.8402  
G01 X-1.0188 Y2.8453  
G01 X-1.0161 Y2.8499  
G01 X-0.9161 Y2.9499  
G01 X-0.9124 Y2.9536  
G01 X-0.9078 Y2.9563  
G01 X-0.9027 Y2.9576  
G01 X-0.8708 Y2.9576  
G01 X-0.8347 Y2.9937  
G01 X-0.8833 Y3.0424  
G01 X-1.0764 Y3.0424  
G01 X-1.0654 Y3.0314  
G01 X-1.0637 Y3.0331  
G01 X-1.0363 Y3.0331  
G01 X-1.0169 Y3.0137  
G01 X-1.0169 Y2.9863  
G01 X-1.0299 Y2.9733  
G01 X-1.0299 Y2.9598  
G01 X-1.0312 Y2.9547  
G01 X-1.0339 Y2.9501  
G01 X-1.1437 Y2.8403  
G01 X-1.1424 Y2.8385  
G01 X-1.1378 Y2.8306  
G01 X-1.1344 Y2.8223  
G01 X-1.1320 Y2.8135  
G01 X-1.1309 Y2.8045  
G01 X-1.1309 Y2.7955  
G01 X-1.1320 Y2.7865  
G01 X-1.1344 Y2.7777  
G01 X-1.1378 Y2.7694  
G01 X-1.1424 Y2.7615  
G01 X-1.1479 Y2.7543  
G01 X-1.1543 Y2.7479  
G01 X-1.1615 Y2.7424  
G01 X-1.1694 Y2.7378  
G01 X-1.1777 Y2.7344  
G01 X-1.1865 Y2.7320  
G01 X-1.1955 Y2.7309  
G01 X-1.2045 Y2.7309  
G01 X-1.2135 Y2.7320  
G01 X-1.2223 Y2.7344  
G01 X-1.2306 Y2.7378  
G01 X-1.2326 Y2.7389  
G01 X-1.3251 Y2.6464  
G01 X-1.3297 Y2.6437  
G01 X-1.3348 Y2.6424  
G01 X-1.4917 Y2.6424  
G01 X-1.5651 Y2.5689  
G01 X-1.6669 Y2.4672  
G01 X-1.6669 Y2.4207  
G01 X-1.6681 Y2.4143  
G01 X-1.6706 Y2.4083  
G01 X-1.6743 Y2.4029  
G01 X-1.6789 Y2.3983  
G01 X-1.6843 Y2.3946  
G01 X-1.6903 Y2.3921  
G01 X-1.6967 Y2.3909  
G01 X-1.7033 Y2.3909  
G01 X-1.7097 Y2.3921  
G01 X-1.7157 Y2.3946  
G01 X-1.7211 Y2.3983  
G01 X-1.7257 Y2.4029  
G01 X-1.7294 Y2.4083  
G01 X-1.7319 Y2.4143  
G01 X-1.7331 Y2.4207  
G01 X-1.7331 Y2.4793  
G01 X-1.7319 Y2.4857  
G01 X-1.7294 Y2.4917  
G01 X-1.7257 Y2.4971  
G01 X-1.7211 Y2.5017  
G01 X-1.7157 Y2.5054  
G01 X-1.7097 Y2.5079  
G01 X-1.7033 Y2.5091  
G01 X-1.6967 Y2.5091  
G01 X-1.6903 Y2.5079  
G01 X-1.6852 Y2.5058  
G01 X-1.6236 Y2.5674  
G01 X-2.1667 Y2.5674  
G01 X-2.2669 Y2.4672  
G01 X-2.2669 Y2.4207  
G01 X-2.2681 Y2.4143  
G01 X-2.2706 Y2.4083  
G01 X-2.2743 Y2.4029  
G01 X-2.2789 Y2.3983  
G01 X-2.2843 Y2.3946  
G01 X-2.2903 Y2.3921  
G01 X-2.2967 Y2.3909  
G01 X-2.3033 Y2.3909  
G01 X-2.3097 Y2.3921  
G01 X-2.3157 Y2.3946  
G01 X-2.3211 Y2.3983  
G01 X-2.3257 Y2.4029  
G01 X-2.3294 Y2.4083  
G01 X-2.3319 Y2.4143  
G01 X-2.3331 Y2.4207  
G01 X-2.3331 Y2.4299  
G01 X-2.4292 Y2.4299  
G01 X-2.6924 Y2.1667  
G01 X-2.6924 Y1.4521  
G01 X-2.2354 Y0.9951  
G01 X-1.3333 Y0.9951  
G01 X-1.2441 Y1.0843  
G01 X-1.2441 Y1.1183  
G01 X-1.2201 Y1.1423  
G01 X-1.2201 Y1.1577  
G01 X-1.2441 Y1.1817  
G01 X-1.2441 Y1.2157  
G01 X-1.2661 Y1.2376  
G01 X-1.2688 Y1.2422  
G01 X-1.2701 Y1.2473  
G01 X-1.2701 Y1.3236  
G01 X-1.2711 Y1.3243  
G01 X-1.2757 Y1.3289  
G01 X-1.2794 Y1.3343  
G01 X-1.2819 Y1.3403  
G01 X-1.2831 Y1.3467  
G01 X-1.2831 Y1.3533  
G01 X-1.2819 Y1.3597  
G01 X-1.2794 Y1.3657  
G01 X-1.2757 Y1.3711  
G01 X-1.2711 Y1.3757  
G01 X-1.2657 Y1.3794  
G01 X-1.2597 Y1.3819  
G01 X-1.2533 Y1.3831  
G01 X-1.2467 Y1.3831  
G01 X-1.2403 Y1.3819  
G01 X-1.2359 Y1.3801  
G01 X-1.1874 Y1.4286  
G01 X-1.1828 Y1.4313  
G01 X-1.1777 Y1.4326  
G01 X-1.1083 Y1.4326  
G01 X-0.9249 Y1.6161  
G01 X-0.9203 Y1.6188  
G01 X-0.9152 Y1.6201  
G01 X-0.7767 Y1.6201  
G01 X-0.7637 Y1.6331  
G01 X-0.7363 Y1.6331  
G01 X-0.7169 Y1.6137  
G01 X-0.7169 Y1.5863  
G01 X-0.7363 Y1.5669  
G01 X-0.7637 Y1.5669  
G01 X-0.7767 Y1.5799  
G01 X-0.9042 Y1.5799  
G01 X-1.0839 Y1.4001  
G01 X-1.0876 Y1.3964  
G01 X-1.0922 Y1.3937  
G01 X-1.0973 Y1.3924  
G01 X-1.1667 Y1.3924  
G01 X-1.2180 Y1.3410  
G01 X-1.2181 Y1.3403  
G01 X-1.2206 Y1.3343  
G01 X-1.2243 Y1.3289  
G01 X-1.2289 Y1.3243  
G01 X-1.2299 Y1.3236  
G01 X-1.2299 Y1.2951  
G01 X-0.8786 Y1.2951  
G01 X-0.8735 Y1.2938  
G01 X-0.8689 Y1.2911  
G01 X-0.8667 Y1.2889  
G01 X-0.6833 Y1.2889  
G01 X-0.6061 Y1.3661  
G01 X-0.6015 Y1.3688  
G01 X-0.5964 Y1.3701  
G01 X-0.2417 Y1.3701  
G01 X-0.2382 Y1.3769  
G01 X-0.2335 Y1.3835  
G01 X-0.2277 Y1.3892  
G01 X-0.2212 Y1.3940  
G01 X-0.2140 Y1.3976  
G01 X-0.2063 Y1.4001  
G01 X-0.1983 Y1.4014  
G01 X-0.1017 Y1.4014  
G01 X-0.0937 Y1.4001  
G01 X-0.0860 Y1.3976  
G01 X-0.0788 Y1.3940  
G01 X-0.0723 Y1.3892  
G01 X-0.0665 Y1.3835  
G01 X-0.0618 Y1.3769  
G01 X-0.0581 Y1.3697  
G01 X-0.0556 Y1.3620  
G01 X-0.0544 Y1.3540  
G01 X-0.0544 Y1.3460  
G01 X-0.0556 Y1.3380  
G01 X-0.0581 Y1.3303  
G01 X-0.0618 Y1.3231  
G01 X-0.0665 Y1.3165  
G00 Z0.1000  
G00 X-0.0804 Y1.6711  
G01 Z-0.0021 F10    
G01 X-0.1211 Y1.6304  F20    
G01 X-0.1788 Y1.6304  
G01 X-0.2196 Y1.6711  
G01 X-0.2196 Y1.6799  
G01 X-0.4804 Y1.6799  
G01 X-0.4804 Y1.6711  
G01 X-0.5211 Y1.6304  
G01 X-0.5787 Y1.6304  
G01 X-0.7169 Y1.4922  
G01 X-0.7169 Y1.4863  
G01 X-0.7299 Y1.4733  
G01 X-0.7299 Y1.4014  
G01 X-0.7017 Y1.4014  
G01 X-0.6937 Y1.4001  
G01 X-0.6860 Y1.3976  
G01 X-0.6788 Y1.3940  
G01 X-0.6723 Y1.3892  
G01 X-0.6665 Y1.3835  
G01 X-0.6618 Y1.3769  
G01 X-0.6581 Y1.3697  
G01 X-0.6556 Y1.3620  
G01 X-0.6544 Y1.3540  
G01 X-0.6544 Y1.3460  
G01 X-0.6556 Y1.3380  
G01 X-0.6581 Y1.3303  
G01 X-0.6618 Y1.3231  
G01 X-0.6665 Y1.3165  
G01 X-0.6723 Y1.3108  
G01 X-0.6788 Y1.3060  
G01 X-0.6860 Y1.3024  
G01 X-0.6937 Y1.2999  
G01 X-0.7017 Y1.2986  
G01 X-0.7983 Y1.2986  
G01 X-0.8063 Y1.2999  
G01 X-0.8140 Y1.3024  
G01 X-0.8212 Y1.3060  
G01 X-0.8277 Y1.3108  
G01 X-0.8335 Y1.3165  
G01 X-0.8382 Y1.3231  
G01 X-0.8417 Y1.3299  
G01 X-0.9236 Y1.3299  
G01 X-0.9243 Y1.3289  
G01 X-0.9289 Y1.3243  
G01 X-0.9343 Y1.3206  
G01 X-0.9403 Y1.3181  
G01 X-0.9467 Y1.3169  
G01 X-0.9533 Y1.3169  
G01 X-0.9597 Y1.3181  
G01 X-0.9657 Y1.3206  
G01 X-0.9711 Y1.3243  
G01 X-0.9757 Y1.3289  
G01 X-0.9794 Y1.3343  
G01 X-0.9819 Y1.3403  
G01 X-0.9831 Y1.3467  
G01 X-0.9831 Y1.3533  
G01 X-0.9819 Y1.3597  
G01 X-0.9794 Y1.3657  
G01 X-0.9757 Y1.3711  
G01 X-0.9711 Y1.3757  
G01 X-0.9657 Y1.3794  
G01 X-0.9597 Y1.3819  
G01 X-0.9533 Y1.3831  
G01 X-0.9467 Y1.3831  
G01 X-0.9403 Y1.3819  
G01 X-0.9343 Y1.3794  
G01 X-0.9289 Y1.3757  
G01 X-0.9243 Y1.3711  
G01 X-0.9236 Y1.3701  
G01 X-0.8417 Y1.3701  
G01 X-0.8382 Y1.3769  
G01 X-0.8335 Y1.3835  
G01 X-0.8277 Y1.3892  
G01 X-0.8212 Y1.3940  
G01 X-0.8140 Y1.3976  
G01 X-0.8063 Y1.4001  
G01 X-0.7983 Y1.4014  
G01 X-0.7701 Y1.4014  
G01 X-0.7701 Y1.4733  
G01 X-0.7831 Y1.4863  
G01 X-0.7831 Y1.5137  
G01 X-0.7637 Y1.5331  
G01 X-0.7363 Y1.5331  
G01 X-0.7346 Y1.5314  
G01 X-0.6072 Y1.6587  
G01 X-0.6196 Y1.6711  
G01 X-0.6196 Y1.7288  
G01 X-0.5788 Y1.7696  
G01 X-0.5211 Y1.7696  
G01 X-0.4804 Y1.7288  
G01 X-0.4804 Y1.7201  
G01 X-0.4701 Y1.7201  
G01 X-0.4701 Y1.9292  
G01 X-0.4936 Y1.9526  
G01 X-0.4974 Y1.9564  
G01 X-0.5000 Y1.9610  
G01 X-0.5014 Y1.9661  
G01 X-0.5014 Y2.0339  
G01 X-0.5000 Y2.0390  
G01 X-0.4974 Y2.0436  
G01 X-0.4411 Y2.0999  
G01 X-0.4374 Y2.1036  
G01 X-0.4328 Y2.1063  
G01 X-0.4277 Y2.1076  
G01 X-0.1333 Y2.1076  
G01 X-0.1076 Y2.1333  
G01 X-0.1076 Y2.6417  
G01 X-0.2771 Y2.8111  
G01 X-0.4229 Y2.8111  
G01 X-0.4565 Y2.7775  
G01 X-0.4500 Y2.7709  
G01 X-0.4208 Y2.8001  
G01 X-0.3792 Y2.8001  
G01 X-0.3500 Y2.7709  
G01 X-0.3208 Y2.8001  
G01 X-0.2792 Y2.8001  
G01 X-0.2499 Y2.7708  
G01 X-0.2499 Y2.7292  
G01 X-0.2503 Y2.7288  
G01 X-0.1339 Y2.6124  
G01 X-0.1312 Y2.6078  
G01 X-0.1299 Y2.6027  
G01 X-0.1299 Y2.5767  
G01 X-0.1169 Y2.5637  
G01 X-0.1169 Y2.5363  
G01 X-0.1363 Y2.5169  
G01 X-0.1637 Y2.5169  
G01 X-0.1831 Y2.5363  
G01 X-0.1831 Y2.5637  
G01 X-0.1701 Y2.5767  
G01 X-0.1701 Y2.5917  
G01 X-0.2788 Y2.7003  
G01 X-0.2792 Y2.6999  
G01 X-0.3208 Y2.6999  
G01 X-0.3500 Y2.7291  
G01 X-0.3792 Y2.6999  
G01 X-0.3842 Y2.6999  
G01 X-0.3876 Y2.6964  
G01 X-0.4611 Y2.6229  
G01 X-0.4611 Y2.5661  
G01 X-0.4625 Y2.5610  
G01 X-0.4651 Y2.5564  
G01 X-0.4689 Y2.5526  
G01 X-0.6924 Y2.3292  
G01 X-0.6924 Y1.9473  
G01 X-0.6937 Y1.9422  
G01 X-0.6964 Y1.9376  
G01 X-0.7001 Y1.9339  
G01 X-0.8299 Y1.8042  
G01 X-0.8299 Y1.7767  
G01 X-0.8169 Y1.7637  
G01 X-0.8169 Y1.7363  
G01 X-0.8363 Y1.7169  
G01 X-0.8637 Y1.7169  
G01 X-0.8831 Y1.7363  
G01 X-0.8831 Y1.7637  
G01 X-0.8701 Y1.7767  
G01 X-0.8701 Y1.8152  
G01 X-0.8688 Y1.8203  
G01 X-0.8661 Y1.8249  
G01 X-0.7326 Y1.9583  
G01 X-0.7326 Y2.3402  
G01 X-0.7313 Y2.3453  
G01 X-0.7286 Y2.3499  
G01 X-0.5014 Y2.5771  
G01 X-0.5014 Y2.6339  
G01 X-0.5000 Y2.6390  
G01 X-0.4974 Y2.6436  
G01 X-0.4310 Y2.7100  
G01 X-0.4500 Y2.7291  
G01 X-0.4792 Y2.6999  
G01 X-0.4799 Y2.6999  
G01 X-0.4799 Y2.6723  
G01 X-0.4812 Y2.6672  
G01 X-0.4839 Y2.6626  
G01 X-0.5674 Y2.5792  
G01 X-0.5674 Y2.5223  
G01 X-0.5687 Y2.5172  
G01 X-0.5714 Y2.5126  
G01 X-0.8839 Y2.2001  
G01 X-0.8876 Y2.1964  
G01 X-0.8922 Y2.1937  
G01 X-0.8973 Y2.1924  
G01 X-1.5299 Y2.1924  
G01 X-1.5299 Y2.1767  
G01 X-1.5169 Y2.1637  
G01 X-1.5169 Y2.1363  
G01 X-1.5363 Y2.1169  
G01 X-1.5637 Y2.1169  
G01 X-1.5831 Y2.1363  
G01 X-1.5831 Y2.1637  
G01 X-1.5701 Y2.1767  
G01 X-1.5701 Y2.2042  
G01 X-1.6249 Y2.2589  
G01 X-1.6286 Y2.2626  
G01 X-1.6313 Y2.2672  
G01 X-1.6326 Y2.2723  
G01 X-1.6326 Y2.3424  
G01 X-1.7277 Y2.3424  
G01 X-1.7328 Y2.3437  
G01 X-1.7374 Y2.3464  
G01 X-1.7411 Y2.3501  
G01 X-1.7852 Y2.3942  
G01 X-1.7903 Y2.3921  
G01 X-1.7967 Y2.3909  
G01 X-1.8033 Y2.3909  
G01 X-1.8097 Y2.3921  
G01 X-1.8157 Y2.3946  
G01 X-1.8211 Y2.3983  
G01 X-1.8257 Y2.4029  
G01 X-1.8294 Y2.4083  
G01 X-1.8319 Y2.4143  
G01 X-1.8331 Y2.4207  
G01 X-1.8331 Y2.4672  
G01 X-1.8833 Y2.5174  
G01 X-2.1167 Y2.5174  
G01 X-2.1669 Y2.4672  
G01 X-2.1669 Y2.4207  
G01 X-2.1681 Y2.4143  
G01 X-2.1706 Y2.4083  
G01 X-2.1743 Y2.4029  
G01 X-2.1789 Y2.3983  
G01 X-2.1843 Y2.3946  
G01 X-2.1903 Y2.3921  
G01 X-2.1967 Y2.3909  
G01 X-2.2033 Y2.3909  
G01 X-2.2097 Y2.3921  
G01 X-2.2148 Y2.3942  
G01 X-2.3214 Y2.2876  
G01 X-2.3251 Y2.2839  
G01 X-2.3297 Y2.2812  
G01 X-2.3348 Y2.2799  
G01 X-2.4733 Y2.2799  
G01 X-2.4863 Y2.2669  
G01 X-2.4922 Y2.2669  
G01 X-2.6424 Y2.1167  
G01 X-2.6424 Y1.8833  
G01 X-2.5417 Y1.7826  
G01 X-2.5142 Y1.7826  
G01 X-2.5137 Y1.7831  
G01 X-2.5078 Y1.7831  
G01 X-2.3201 Y1.9708  
G01 X-2.3201 Y2.0233  
G01 X-2.3331 Y2.0363  
G01 X-2.3331 Y2.0637  
G01 X-2.3137 Y2.0831  
G01 X-2.2863 Y2.0831  
G01 X-2.2669 Y2.0637  
G01 X-2.2669 Y2.0363  
G01 X-2.2799 Y2.0233  
G01 X-2.2799 Y1.9598  
G01 X-2.2812 Y1.9547  
G01 X-2.2839 Y1.9501  
G01 X-2.4686 Y1.7654  
G01 X-2.4669 Y1.7637  
G01 X-2.4669 Y1.7363  
G01 X-2.4799 Y1.7233  
G01 X-2.4799 Y1.7083  
G01 X-2.3617 Y1.5901  
G01 X-2.3334 Y1.5901  
G01 X-2.3099 Y1.5666  
G01 X-2.3099 Y1.5334  
G01 X-2.3334 Y1.5099  
G01 X-2.3666 Y1.5099  
G01 X-2.3704 Y1.5136  
G01 X-2.3826 Y1.5014  
G01 X-2.2188 Y1.5014  
G01 X-2.2188 Y1.5015  
G01 X-2.2161 Y1.5061  
G01 X-2.2124 Y1.5099  
G01 X-2.0874 Y1.6349  
G01 X-2.0828 Y1.6375  
G01 X-2.0777 Y1.6389  
G01 X-1.8958 Y1.6389  
G01 X-1.8186 Y1.7161  
G01 X-1.8140 Y1.7188  
G01 X-1.8089 Y1.7201  
G01 X-1.6366 Y1.7201  
G01 X-1.6201 Y1.7366  
G01 X-1.6201 Y1.8527  
G01 X-1.6188 Y1.8578  
G01 X-1.6161 Y1.8624  
G01 X-1.5921 Y1.8863  
G01 X-1.5921 Y1.9175  
G01 X-1.5675 Y1.9421  
G01 X-1.5325 Y1.9421  
G01 X-1.5105 Y1.9201  
G01 X-1.2691 Y1.9201  
G01 X-1.2691 Y1.9286  
G01 X-1.2286 Y1.9691  
G01 X-1.1714 Y1.9691  
G01 X-1.1309 Y1.9286  
G01 X-1.1309 Y1.8714  
G01 X-1.1714 Y1.8309  
G01 X-1.2286 Y1.8309  
G01 X-1.2691 Y1.8714  
G01 X-1.2691 Y1.8799  
G01 X-1.5105 Y1.8799  
G01 X-1.5325 Y1.8579  
G01 X-1.5637 Y1.8579  
G01 X-1.5799 Y1.8417  
G01 X-1.5799 Y1.7366  
G01 X-1.5599 Y1.7166  
G01 X-1.5599 Y1.6834  
G01 X-1.5834 Y1.6599  
G01 X-1.6166 Y1.6599  
G01 X-1.6366 Y1.6799  
G01 X-1.7979 Y1.6799  
G01 X-1.8714 Y1.6064  
G01 X-1.8751 Y1.6026  
G01 X-1.8797 Y1.6000  
G01 X-1.8848 Y1.5986  
G01 X-2.0667 Y1.5986  
G01 X-2.1639 Y1.5014  
G01 X-2.0473 Y1.5014  
G01 X-2.0422 Y1.5000  
G01 X-2.0376 Y1.4974  
G01 X-2.0339 Y1.4936  
G01 X-1.9104 Y1.3701  
G01 X-1.8917 Y1.3701  
G01 X-1.8882 Y1.3769  
G01 X-1.8835 Y1.3835  
G01 X-1.8777 Y1.3892  
G01 X-1.8712 Y1.3940  
G01 X-1.8640 Y1.3976  
G01 X-1.8563 Y1.4001  
G01 X-1.8483 Y1.4014  
G01 X-1.7771 Y1.4014  
G01 X-1.6624 Y1.5161  
G01 X-1.6578 Y1.5188  
G01 X-1.6527 Y1.5201  
G01 X-1.4767 Y1.5201  
G01 X-1.4637 Y1.5331  
G01 X-1.4363 Y1.5331  
G01 X-1.4169 Y1.5137  
G01 X-1.4169 Y1.4863  
G01 X-1.4363 Y1.4669  
G01 X-1.4637 Y1.4669  
G01 X-1.4767 Y1.4799  
G01 X-1.6417 Y1.4799  
G01 X-1.7281 Y1.3934  
G01 X-1.7223 Y1.3892  
G01 X-1.7165 Y1.3835  
G01 X-1.7118 Y1.3769  
G01 X-1.7081 Y1.3697  
G01 X-1.7056 Y1.3620  
G01 X-1.7044 Y1.3540  
G01 X-1.7044 Y1.3460  
G01 X-1.7056 Y1.3380  
G01 X-1.7081 Y1.3303  
G01 X-1.7118 Y1.3231  
G01 X-1.7165 Y1.3165  
G01 X-1.7223 Y1.3108  
G01 X-1.7288 Y1.3060  
G01 X-1.7360 Y1.3024  
G01 X-1.7437 Y1.2999  
G01 X-1.7517 Y1.2986  
G01 X-1.8483 Y1.2986  
G01 X-1.8563 Y1.2999  
G01 X-1.8640 Y1.3024  
G01 X-1.8712 Y1.3060  
G01 X-1.8777 Y1.3108  
G01 X-1.8835 Y1.3165  
G01 X-1.8882 Y1.3231  
G01 X-1.8917 Y1.3299  
G01 X-1.9214 Y1.3299  
G01 X-1.9265 Y1.3312  
G01 X-1.9311 Y1.3339  
G01 X-2.0583 Y1.4611  
G01 X-2.4214 Y1.4611  
G01 X-2.4226 Y1.4614  
G01 X-2.5049 Y1.3792  
G01 X-2.5049 Y1.3271  
G01 X-2.2229 Y1.0451  
G01 X-1.5833 Y1.0451  
G01 X-1.5441 Y1.0843  
G01 X-1.5441 Y1.1183  
G01 X-1.5183 Y1.1441  
G01 X-1.4817 Y1.1441  
G01 X-1.4577 Y1.1201  
G01 X-1.4423 Y1.1201  
G01 X-1.4183 Y1.1441  
G01 X-1.3817 Y1.1441  
G01 X-1.3577 Y1.1201  
G01 X-1.3423 Y1.1201  
G01 X-1.3201 Y1.1423  
G01 X-1.3201 Y1.1577  
G01 X-1.3423 Y1.1799  
G01 X-1.3577 Y1.1799  
G01 X-1.3817 Y1.1559  
G01 X-1.4183 Y1.1559  
G01 X-1.4423 Y1.1799  
G01 X-1.4577 Y1.1799  
G01 X-1.4817 Y1.1559  
G01 X-1.5183 Y1.1559  
G01 X-1.5441 Y1.1817  
G01 X-1.5441 Y1.2183  
G01 X-1.5183 Y1.2441  
G01 X-1.4817 Y1.2441  
G01 X-1.4577 Y1.2201  
G01 X-1.4423 Y1.2201  
G01 X-1.4183 Y1.2441  
G01 X-1.3817 Y1.2441  
G01 X-1.3577 Y1.2201  
G01 X-1.3423 Y1.2201  
G01 X-1.3183 Y1.2441  
G01 X-1.2817 Y1.2441  
G01 X-1.2559 Y1.2183  
G01 X-1.2559 Y1.1817  
G01 X-1.2799 Y1.1577  
G01 X-1.2799 Y1.1423  
G01 X-1.2559 Y1.1183  
G01 X-1.2559 Y1.0817  
G01 X-1.2817 Y1.0559  
G01 X-1.3183 Y1.0559  
G01 X-1.3423 Y1.0799  
G01 X-1.3577 Y1.0799  
G01 X-1.3817 Y1.0559  
G01 X-1.4183 Y1.0559  
G01 X-1.4423 Y1.0799  
G01 X-1.4577 Y1.0799  
G01 X-1.4817 Y1.0559  
G01 X-1.5157 Y1.0559  
G01 X-1.5589 Y1.0126  
G01 X-1.5626 Y1.0089  
G01 X-1.5672 Y1.0062  
G01 X-1.5723 Y1.0049  
G01 X-2.2339 Y1.0049  
G01 X-2.2390 Y1.0062  
G01 X-2.2436 Y1.0089  
G01 X-2.5374 Y1.3026  
G01 X-2.5411 Y1.3064  
G01 X-2.5438 Y1.3110  
G01 X-2.5451 Y1.3161  
G01 X-2.5451 Y1.3902  
G01 X-2.5438 Y1.3953  
G01 X-2.5411 Y1.3999  
G01 X-2.4411 Y1.4999  
G01 X-2.4374 Y1.5036  
G01 X-2.3901 Y1.5508  
G01 X-2.3901 Y1.5617  
G01 X-2.5161 Y1.6876  
G01 X-2.5188 Y1.6922  
G01 X-2.5201 Y1.6973  
G01 X-2.5201 Y1.7233  
G01 X-2.5331 Y1.7363  
G01 X-2.5331 Y1.7424  
G01 X-2.5527 Y1.7424  
G01 X-2.5578 Y1.7437  
G01 X-2.5624 Y1.7464  
G01 X-2.6749 Y1.8589  
G01 X-2.6786 Y1.8626  
G01 X-2.6813 Y1.8672  
G01 X-2.6826 Y1.8723  
G01 X-2.6826 Y2.1277  
G01 X-2.6813 Y2.1328  
G01 X-2.6786 Y2.1374  
G01 X-2.5314 Y2.2846  
G01 X-2.5331 Y2.2863  
G01 X-2.5331 Y2.3137  
G01 X-2.5137 Y2.3331  
G01 X-2.4863 Y2.3331  
G01 X-2.4733 Y2.3201  
G01 X-2.3458 Y2.3201  
G01 X-2.2331 Y2.4328  
G01 X-2.2331 Y2.4793  
G01 X-2.2319 Y2.4857  
G01 X-2.2294 Y2.4917  
G01 X-2.2257 Y2.4971  
G01 X-2.2211 Y2.5017  
G01 X-2.2157 Y2.5054  
G01 X-2.2097 Y2.5079  
G01 X-2.2033 Y2.5091  
G01 X-2.1967 Y2.5091  
G01 X-2.1903 Y2.5079  
G01 X-2.1852 Y2.5058  
G01 X-2.1411 Y2.5499  
G01 X-2.1374 Y2.5536  
G01 X-2.1328 Y2.5563  
G01 X-2.1277 Y2.5576  
G01 X-1.8723 Y2.5576  
G01 X-1.8672 Y2.5563  
G01 X-1.8626 Y2.5536  
G01 X-1.8148 Y2.5058  
G01 X-1.8097 Y2.5079  
G01 X-1.8033 Y2.5091  
G01 X-1.7967 Y2.5091  
G01 X-1.7903 Y2.5079  
G01 X-1.7843 Y2.5054  
G01 X-1.7789 Y2.5017  
G01 X-1.7743 Y2.4971  
G01 X-1.7706 Y2.4917  
G01 X-1.7681 Y2.4857  
G01 X-1.7669 Y2.4793  
G01 X-1.7669 Y2.4328  
G01 X-1.7167 Y2.3826  
G01 X-1.6326 Y2.3826  
G01 X-1.6326 Y2.4182  
G01 X-1.6331 Y2.4207  
G01 X-1.6331 Y2.4793  
G01 X-1.6319 Y2.4857  
G01 X-1.6294 Y2.4917  
G01 X-1.6257 Y2.4971  
G01 X-1.6211 Y2.5017  
G01 X-1.6157 Y2.5054  
G01 X-1.6097 Y2.5079  
G01 X-1.6033 Y2.5091  
G01 X-1.5967 Y2.5091  
G01 X-1.5903 Y2.5079  
G01 X-1.5843 Y2.5054  
G01 X-1.5789 Y2.5017  
G01 X-1.5743 Y2.4971  
G01 X-1.5706 Y2.4917  
G01 X-1.5681 Y2.4857  
G01 X-1.5669 Y2.4793  
G01 X-1.5669 Y2.4207  
G01 X-1.5681 Y2.4143  
G01 X-1.5706 Y2.4083  
G01 X-1.5743 Y2.4029  
G01 X-1.5789 Y2.3983  
G01 X-1.5843 Y2.3946  
G01 X-1.5903 Y2.3921  
G01 X-1.5924 Y2.3917  
G01 X-1.5924 Y2.2833  
G01 X-1.5417 Y2.2326  
G01 X-0.9083 Y2.2326  
G01 X-0.6076 Y2.5333  
G01 X-0.6076 Y2.5902  
G01 X-0.6063 Y2.5953  
G01 X-0.6036 Y2.5999  
G01 X-0.5999 Y2.6036  
G01 X-0.5201 Y2.6833  
G01 X-0.5201 Y2.6999  
G01 X-0.5208 Y2.6999  
G01 X-0.5501 Y2.7292  
G01 X-0.5501 Y2.7708  
G01 X-0.5208 Y2.8001  
G01 X-0.4908 Y2.8001  
G01 X-0.4436 Y2.8474  
G01 X-0.4390 Y2.8500  
G01 X-0.4339 Y2.8514  
G01 X-0.2661 Y2.8514  
G01 X-0.2610 Y2.8500  
G01 X-0.2564 Y2.8474  
G01 X-0.0714 Y2.6624  
G01 X-0.0687 Y2.6578  
G01 X-0.0674 Y2.6527  
G01 X-0.0674 Y2.1223  
G01 X-0.0687 Y2.1172  
G01 X-0.0714 Y2.1126  
G01 X-0.0751 Y2.1089  
G01 X-0.1126 Y2.0714  
G01 X-0.1172 Y2.0687  
G01 X-0.1223 Y2.0674  
G01 X-0.4167 Y2.0674  
G01 X-0.4611 Y2.0229  
G01 X-0.4611 Y1.9771  
G01 X-0.4339 Y1.9499  
G01 X-0.4312 Y1.9453  
G01 X-0.4299 Y1.9402  
G01 X-0.4299 Y1.7201  
G01 X-0.2196 Y1.7201  
G01 X-0.2196 Y1.7288  
G01 X-0.1788 Y1.7696  
G01 X-0.1211 Y1.7696  
G01 X-0.0804 Y1.7288  
G01 X-0.0804 Y1.6711  
G00 Z0.1000  
G00 X-0.0804 Y1.8711  
G01 Z-0.0021 F10    
G01 X-0.1211 Y1.8304  F20    
G01 X-0.1788 Y1.8304  
G01 X-0.2196 Y1.8711  
G01 X-0.2196 Y1.9288  
G01 X-0.2135 Y1.9350  
G01 X-0.2583 Y1.9799  
G01 X-0.3545 Y1.9799  
G01 X-0.3575 Y1.9740  
G01 X-0.3621 Y1.9677  
G01 X-0.3677 Y1.9621  
G01 X-0.3740 Y1.9575  
G01 X-0.3809 Y1.9540  
G01 X-0.3884 Y1.9516  
G01 X-0.3961 Y1.9504  
G01 X-0.4039 Y1.9504  
G01 X-0.4116 Y1.9516  
G01 X-0.4191 Y1.9540  
G01 X-0.4260 Y1.9575  
G01 X-0.4323 Y1.9621  
G01 X-0.4379 Y1.9677  
G01 X-0.4425 Y1.9740  
G01 X-0.4460 Y1.9809  
G01 X-0.4484 Y1.9884  
G01 X-0.4496 Y1.9961  
G01 X-0.4496 Y2.0039  
G01 X-0.4484 Y2.0116  
G01 X-0.4460 Y2.0191  
G01 X-0.4425 Y2.0260  
G01 X-0.4379 Y2.0323  
G01 X-0.4323 Y2.0379  
G01 X-0.4260 Y2.0425  
G01 X-0.4191 Y2.0460  
G01 X-0.4116 Y2.0484  
G01 X-0.4039 Y2.0496  
G01 X-0.3961 Y2.0496  
G01 X-0.3884 Y2.0484  
G01 X-0.3809 Y2.0460  
G01 X-0.3740 Y2.0425  
G01 X-0.3677 Y2.0379  
G01 X-0.3621 Y2.0323  
G01 X-0.3575 Y2.0260  
G01 X-0.3545 Y2.0201  
G01 X-0.2473 Y2.0201  
G01 X-0.2422 Y2.0188  
G01 X-0.2376 Y2.0161  
G01 X-0.1850 Y1.9635  
G01 X-0.1788 Y1.9696  
G01 X-0.1211 Y1.9696  
G01 X-0.0804 Y1.9288  
G01 X-0.0804 Y1.8711  
G00 Z0.1000  
G00 X-0.1169 Y2.1363  
G01 Z-0.0021 F10    
G01 X-0.1363 Y2.1169  F20    
G01 X-0.1637 Y2.1169  
G01 X-0.1831 Y2.1363  
G01 X-0.1831 Y2.1637  
G01 X-0.1701 Y2.1767  
G01 X-0.1701 Y2.3417  
G01 X-0.3791 Y2.5506  
G01 X-0.3794 Y2.5504  
G01 X-0.4206 Y2.5504  
G01 X-0.4496 Y2.5794  
G01 X-0.4496 Y2.6206  
G01 X-0.4206 Y2.6496  
G01 X-0.3794 Y2.6496  
G01 X-0.3504 Y2.6206  
G01 X-0.3504 Y2.5794  
G01 X-0.3506 Y2.5791  
G01 X-0.1339 Y2.3624  
G01 X-0.1312 Y2.3578  
G01 X-0.1299 Y2.3527  
G01 X-0.1299 Y2.1767  
G01 X-0.1169 Y2.1637  
G01 X-0.1169 Y2.1363  
G00 Z0.1000  
G00 X-0.6169 Y2.1363  
G01 Z-0.0021 F10    
G01 X-0.6299 Y2.1233  F20    
G01 X-0.6299 Y2.0083  
G01 X-0.5850 Y1.9635  
G01 X-0.5788 Y1.9696  
G01 X-0.5211 Y1.9696  
G01 X-0.4804 Y1.9288  
G01 X-0.4804 Y1.8711  
G01 X-0.5211 Y1.8304  
G01 X-0.5788 Y1.8304  
G01 X-0.6196 Y1.8711  
G01 X-0.6196 Y1.9288  
G01 X-0.6135 Y1.9350  
G01 X-0.6661 Y1.9876  
G01 X-0.6688 Y1.9922  
G01 X-0.6701 Y1.9973  
G01 X-0.6701 Y2.1233  
G01 X-0.6831 Y2.1363  
G01 X-0.6831 Y2.1637  
G01 X-0.6637 Y2.1831  
G01 X-0.6363 Y2.1831  
G01 X-0.6169 Y2.1637  
G01 X-0.6169 Y2.1363  
G00 Z0.1000  
G00 X-0.6169 Y2.5363  
G01 Z-0.0021 F10    
G01 X-0.6363 Y2.5169  F20    
G01 X-0.6637 Y2.5169  
G01 X-0.6831 Y2.5363  
G01 X-0.6831 Y2.5547  
G01 X-0.8654 Y2.7369  
G01 X-0.8714 Y2.7309  
G01 X-0.9286 Y2.7309  
G01 X-0.9691 Y2.7714  
G01 X-0.9691 Y2.8286  
G01 X-0.9286 Y2.8691  
G01 X-0.8714 Y2.8691  
G01 X-0.8309 Y2.8286  
G01 X-0.8309 Y2.7714  
G01 X-0.8369 Y2.7654  
G01 X-0.6547 Y2.5831  
G01 X-0.6363 Y2.5831  
G01 X-0.6169 Y2.5637  
G01 X-0.6169 Y2.5363  
G00 Z0.1000  
G00 X-1.0839 Y2.7501  
G01 Z-0.0021 F10    
G01 X-1.3964 Y2.4376  F20    
G01 X-1.4001 Y2.4339  
G01 X-1.4047 Y2.4312  
G01 X-1.4098 Y2.4299  
G01 X-1.4669 Y2.4299  
G01 X-1.4669 Y2.4207  
G01 X-1.4681 Y2.4143  
G01 X-1.4706 Y2.4083  
G01 X-1.4743 Y2.4029  
G01 X-1.4789 Y2.3983  
G01 X-1.4843 Y2.3946  
G01 X-1.4903 Y2.3921  
G01 X-1.4967 Y2.3909  
G01 X-1.5033 Y2.3909  
G01 X-1.5097 Y2.3921  
G01 X-1.5157 Y2.3946  
G01 X-1.5211 Y2.3983  
G01 X-1.5257 Y2.4029  
G01 X-1.5294 Y2.4083  
G01 X-1.5319 Y2.4143  
G01 X-1.5331 Y2.4207  
G01 X-1.5331 Y2.4793  
G01 X-1.5319 Y2.4857  
G01 X-1.5294 Y2.4917  
G01 X-1.5257 Y2.4971  
G01 X-1.5211 Y2.5017  
G01 X-1.5157 Y2.5054  
G01 X-1.5097 Y2.5079  
G01 X-1.5033 Y2.5091  
G01 X-1.4967 Y2.5091  
G01 X-1.4903 Y2.5079  
G01 X-1.4843 Y2.5054  
G01 X-1.4789 Y2.5017  
G01 X-1.4743 Y2.4971  
G01 X-1.4706 Y2.4917  
G01 X-1.4681 Y2.4857  
G01 X-1.4669 Y2.4793  
G01 X-1.4669 Y2.4701  
G01 X-1.4208 Y2.4701  
G01 X-1.1201 Y2.7708  
G01 X-1.1201 Y2.8027  
G01 X-1.1188 Y2.8078  
G01 X-1.1161 Y2.8124  
G01 X-1.1124 Y2.8161  
G01 X-0.9331 Y2.9953  
G01 X-0.9331 Y3.0137  
G01 X-0.9137 Y3.0331  
G01 X-0.8863 Y3.0331  
G01 X-0.8669 Y3.0137  
G01 X-0.8669 Y2.9863  
G01 X-0.8863 Y2.9669  
G01 X-0.9047 Y2.9669  
G01 X-1.0799 Y2.7917  
G01 X-1.0799 Y2.7598  
G01 X-1.0812 Y2.7547  
G01 X-1.0839 Y2.7501  
G00 Z0.1000  
G00 X-1.1169 Y2.9863  
G01 Z-0.0021 F10    
G01 X-1.1363 Y2.9669  F20    
G01 X-1.1547 Y2.9669  
G01 X-1.3876 Y2.7339  
G01 X-1.3922 Y2.7312  
G01 X-1.3973 Y2.7299  
G01 X-1.4669 Y2.7299  
G01 X-1.4669 Y2.7207  
G01 X-1.4681 Y2.7143  
G01 X-1.4706 Y2.7083  
G01 X-1.4743 Y2.7029  
G01 X-1.4789 Y2.6983  
G01 X-1.4843 Y2.6946  
G01 X-1.4903 Y2.6921  
G01 X-1.4967 Y2.6909  
G01 X-1.5033 Y2.6909  
G01 X-1.5097 Y2.6921  
G01 X-1.5157 Y2.6946  
G01 X-1.5211 Y2.6983  
G01 X-1.5257 Y2.7029  
G01 X-1.5294 Y2.7083  
G01 X-1.5319 Y2.7143  
G01 X-1.5331 Y2.7207  
G01 X-1.5331 Y2.7793  
G01 X-1.5319 Y2.7857  
G01 X-1.5294 Y2.7917  
G01 X-1.5257 Y2.7971  
G01 X-1.5211 Y2.8017  
G01 X-1.5157 Y2.8054  
G01 X-1.5097 Y2.8079  
G01 X-1.5033 Y2.8091  
G01 X-1.4967 Y2.8091  
G01 X-1.4903 Y2.8079  
G01 X-1.4843 Y2.8054  
G01 X-1.4789 Y2.8017  
G01 X-1.4743 Y2.7971  
G01 X-1.4706 Y2.7917  
G01 X-1.4681 Y2.7857  
G01 X-1.4669 Y2.7793  
G01 X-1.4669 Y2.7701  
G01 X-1.4083 Y2.7701  
G01 X-1.1831 Y2.9953  
G01 X-1.1831 Y3.0137  
G01 X-1.1637 Y3.0331  
G01 X-1.1363 Y3.0331  
G01 X-1.1169 Y3.0137  
G01 X-1.1169 Y2.9863  
G00 Z0.1000  
G00 X-1.3669 Y2.9863  
G01 Z-0.0021 F10    
G01 X-1.3799 Y2.9733  F20    
G01 X-1.3799 Y2.9598  
G01 X-1.3812 Y2.9547  
G01 X-1.3839 Y2.9501  
G01 X-1.5669 Y2.7672  
G01 X-1.5669 Y2.7207  
G01 X-1.5681 Y2.7143  
G01 X-1.5706 Y2.7083  
G01 X-1.5743 Y2.7029  
G01 X-1.5789 Y2.6983  
G01 X-1.5843 Y2.6946  
G01 X-1.5903 Y2.6921  
G01 X-1.5967 Y2.6909  
G01 X-1.6033 Y2.6909  
G01 X-1.6097 Y2.6921  
G01 X-1.6157 Y2.6946  
G01 X-1.6211 Y2.6983  
G01 X-1.6257 Y2.7029  
G01 X-1.6294 Y2.7083  
G01 X-1.6319 Y2.7143  
G01 X-1.6331 Y2.7207  
G01 X-1.6331 Y2.7793  
G01 X-1.6319 Y2.7857  
G01 X-1.6294 Y2.7917  
G01 X-1.6257 Y2.7971  
G01 X-1.6211 Y2.8017  
G01 X-1.6157 Y2.8054  
G01 X-1.6097 Y2.8079  
G01 X-1.6033 Y2.8091  
G01 X-1.5967 Y2.8091  
G01 X-1.5903 Y2.8079  
G01 X-1.5852 Y2.8058  
G01 X-1.4201 Y2.9708  
G01 X-1.4201 Y2.9733  
G01 X-1.4331 Y2.9863  
G01 X-1.4331 Y3.0137  
G01 X-1.4137 Y3.0331  
G01 X-1.3863 Y3.0331  
G01 X-1.3669 Y3.0137  
G01 X-1.3669 Y2.9863  
G00 Z0.1000  
G00 X-1.6169 Y2.9863  
G01 Z-0.0021 F10    
G01 X-1.6299 Y2.9733  F20    
G01 X-1.6299 Y2.8098  
G01 X-1.6312 Y2.8047  
G01 X-1.6339 Y2.8001  
G01 X-1.6669 Y2.7672  
G01 X-1.6669 Y2.7207  
G01 X-1.6681 Y2.7143  
G01 X-1.6706 Y2.7083  
G01 X-1.6743 Y2.7029  
G01 X-1.6789 Y2.6983  
G01 X-1.6843 Y2.6946  
G01 X-1.6903 Y2.6921  
G01 X-1.6967 Y2.6909  
G01 X-1.7033 Y2.6909  
G01 X-1.7097 Y2.6921  
G01 X-1.7157 Y2.6946  
G01 X-1.7211 Y2.6983  
G01 X-1.7257 Y2.7029  
G01 X-1.7294 Y2.7083  
G01 X-1.7319 Y2.7143  
G01 X-1.7331 Y2.7207  
G01 X-1.7331 Y2.7793  
G01 X-1.7319 Y2.7857  
G01 X-1.7294 Y2.7917  
G01 X-1.7257 Y2.7971  
G01 X-1.7211 Y2.8017  
G01 X-1.7157 Y2.8054  
G01 X-1.7097 Y2.8079  
G01 X-1.7033 Y2.8091  
G01 X-1.6967 Y2.8091  
G01 X-1.6903 Y2.8079  
G01 X-1.6852 Y2.8058  
G01 X-1.6701 Y2.8208  
G01 X-1.6701 Y2.9733  
G01 X-1.6831 Y2.9863  
G01 X-1.6831 Y3.0137  
G01 X-1.6637 Y3.0331  
G01 X-1.6363 Y3.0331  
G01 X-1.6169 Y3.0137  
G01 X-1.6169 Y2.9863  
G00 Z0.1000  
G00 X-1.7839 Y2.9124  
G01 Z-0.0021 F10    
G01 X-1.7812 Y2.9078  F20    
G01 X-1.7799 Y2.9027  
G01 X-1.7799 Y2.8024  
G01 X-1.7789 Y2.8017  
G01 X-1.7743 Y2.7971  
G01 X-1.7706 Y2.7917  
G01 X-1.7681 Y2.7857  
G01 X-1.7669 Y2.7793  
G01 X-1.7669 Y2.7207  
G01 X-1.7681 Y2.7143  
G01 X-1.7706 Y2.7083  
G01 X-1.7743 Y2.7029  
G01 X-1.7789 Y2.6983  
G01 X-1.7843 Y2.6946  
G01 X-1.7903 Y2.6921  
G01 X-1.7967 Y2.6909  
G01 X-1.8033 Y2.6909  
G01 X-1.8097 Y2.6921  
G01 X-1.8157 Y2.6946  
G01 X-1.8211 Y2.6983  
G01 X-1.8257 Y2.7029  
G01 X-1.8294 Y2.7083  
G01 X-1.8319 Y2.7143  
G01 X-1.8331 Y2.7207  
G01 X-1.8331 Y2.7793  
G01 X-1.8319 Y2.7857  
G01 X-1.8294 Y2.7917  
G01 X-1.8257 Y2.7971  
G01 X-1.8211 Y2.8017  
G01 X-1.8201 Y2.8024  
G01 X-1.8201 Y2.8917  
G01 X-1.8953 Y2.9669  
G01 X-1.9137 Y2.9669  
G01 X-1.9331 Y2.9863  
G01 X-1.9331 Y3.0137  
G01 X-1.9137 Y3.0331  
G01 X-1.8863 Y3.0331  
G01 X-1.8669 Y3.0137  
G01 X-1.8669 Y2.9953  
G01 X-1.7839 Y2.9124  
G00 Z0.1000  
G00 X-1.8789 Y2.8017  
G01 Z-0.0021 F10    
G01 X-1.8743 Y2.7971  F20    
G01 X-1.8706 Y2.7917  
G01 X-1.8681 Y2.7857  
G01 X-1.8669 Y2.7793  
G01 X-1.8669 Y2.7207  
G01 X-1.8681 Y2.7143  
G01 X-1.8706 Y2.7083  
G01 X-1.8743 Y2.7029  
G01 X-1.8789 Y2.6983  
G01 X-1.8843 Y2.6946  
G01 X-1.8903 Y2.6921  
G01 X-1.8967 Y2.6909  
G01 X-1.9033 Y2.6909  
G01 X-1.9097 Y2.6921  
G01 X-1.9157 Y2.6946  
G01 X-1.9211 Y2.6983  
G01 X-1.9257 Y2.7029  
G01 X-1.9294 Y2.7083  
G01 X-1.9319 Y2.7143  
G01 X-1.9331 Y2.7207  
G01 X-1.9331 Y2.7672  
G01 X-2.1346 Y2.9686  
G01 X-2.1363 Y2.9669  
G01 X-2.1637 Y2.9669  
G01 X-2.1831 Y2.9863  
G01 X-2.1831 Y3.0137  
G01 X-2.1637 Y3.0331  
G01 X-2.1363 Y3.0331  
G01 X-2.1169 Y3.0137  
G01 X-2.1169 Y3.0078  
G01 X-1.9148 Y2.8058  
G01 X-1.9097 Y2.8079  
G01 X-1.9033 Y2.8091  
G01 X-1.8967 Y2.8091  
G01 X-1.8903 Y2.8079  
G01 X-1.8843 Y2.8054  
G01 X-1.8789 Y2.8017  
G00 Z0.1000  
G00 X-1.9789 Y2.8017  
G01 Z-0.0021 F10    
G01 X-1.9743 Y2.7971  F20    
G01 X-1.9706 Y2.7917  
G01 X-1.9681 Y2.7857  
G01 X-1.9669 Y2.7793  
G01 X-1.9669 Y2.7207  
G01 X-1.9681 Y2.7143  
G01 X-1.9706 Y2.7083  
G01 X-1.9743 Y2.7029  
G01 X-1.9789 Y2.6983  
G01 X-1.9843 Y2.6946  
G01 X-1.9903 Y2.6921  
G01 X-1.9967 Y2.6909  
G01 X-2.0033 Y2.6909  
G01 X-2.0097 Y2.6921  
G01 X-2.0157 Y2.6946  
G01 X-2.0211 Y2.6983  
G01 X-2.0257 Y2.7029  
G01 X-2.0294 Y2.7083  
G01 X-2.0319 Y2.7143  
G01 X-2.0331 Y2.7207  
G01 X-2.0331 Y2.7672  
G01 X-2.1833 Y2.9174  
G01 X-2.3402 Y2.9174  
G01 X-2.3453 Y2.9187  
G01 X-2.3499 Y2.9214  
G01 X-2.3953 Y2.9669  
G01 X-2.4137 Y2.9669  
G01 X-2.4331 Y2.9863  
G01 X-2.4331 Y3.0137  
G01 X-2.4137 Y3.0331  
G01 X-2.3863 Y3.0331  
G01 X-2.3669 Y3.0137  
G01 X-2.3669 Y2.9953  
G01 X-2.3292 Y2.9576  
G01 X-2.1723 Y2.9576  
G01 X-2.1672 Y2.9563  
G01 X-2.1626 Y2.9536  
G01 X-2.1589 Y2.9499  
G01 X-2.0148 Y2.8058  
G01 X-2.0097 Y2.8079  
G01 X-2.0033 Y2.8091  
G01 X-1.9967 Y2.8091  
G01 X-1.9903 Y2.8079  
G01 X-1.9843 Y2.8054  
G01 X-1.9789 Y2.8017  
G00 Z0.1000  
G00 X-2.0789 Y2.8017  
G01 Z-0.0021 F10    
G01 X-2.0743 Y2.7971  F20    
G01 X-2.0706 Y2.7917  
G01 X-2.0681 Y2.7857  
G01 X-2.0669 Y2.7793  
G01 X-2.0669 Y2.7207  
G01 X-2.0681 Y2.7143  
G01 X-2.0706 Y2.7083  
G01 X-2.0743 Y2.7029  
G01 X-2.0789 Y2.6983  
G01 X-2.0843 Y2.6946  
G01 X-2.0903 Y2.6921  
G01 X-2.0967 Y2.6909  
G01 X-2.1033 Y2.6909  
G01 X-2.1097 Y2.6921  
G01 X-2.1157 Y2.6946  
G01 X-2.1211 Y2.6983  
G01 X-2.1257 Y2.7029  
G01 X-2.1294 Y2.7083  
G01 X-2.1319 Y2.7143  
G01 X-2.1331 Y2.7207  
G01 X-2.1331 Y2.7672  
G01 X-2.2333 Y2.8674  
G01 X-2.5402 Y2.8674  
G01 X-2.5453 Y2.8687  
G01 X-2.5499 Y2.8714  
G01 X-2.6453 Y2.9669  
G01 X-2.6637 Y2.9669  
G01 X-2.6831 Y2.9863  
G01 X-2.6831 Y3.0137  
G01 X-2.6637 Y3.0331  
G01 X-2.6363 Y3.0331  
G01 X-2.6169 Y3.0137  
G01 X-2.6169 Y2.9953  
G01 X-2.5292 Y2.9076  
G01 X-2.2223 Y2.9076  
G01 X-2.2172 Y2.9063  
G01 X-2.2126 Y2.9036  
G01 X-2.2089 Y2.8999  
G01 X-2.1148 Y2.8058  
G01 X-2.1097 Y2.8079  
G01 X-2.1033 Y2.8091  
G01 X-2.0967 Y2.8091  
G01 X-2.0903 Y2.8079  
G01 X-2.0843 Y2.8054  
G01 X-2.0789 Y2.8017  
G00 Z0.1000  
G00 X-2.1789 Y2.8017  
G01 Z-0.0021 F10    
G01 X-2.1743 Y2.7971  F20    
G01 X-2.1706 Y2.7917  
G01 X-2.1681 Y2.7857  
G01 X-2.1669 Y2.7793  
G01 X-2.1669 Y2.7207  
G01 X-2.1681 Y2.7143  
G01 X-2.1706 Y2.7083  
G01 X-2.1743 Y2.7029  
G01 X-2.1789 Y2.6983  
G01 X-2.1843 Y2.6946  
G01 X-2.1903 Y2.6921  
G01 X-2.1967 Y2.6909  
G01 X-2.2033 Y2.6909  
G01 X-2.2097 Y2.6921  
G01 X-2.2157 Y2.6946  
G01 X-2.2211 Y2.6983  
G01 X-2.2257 Y2.7029  
G01 X-2.2294 Y2.7083  
G01 X-2.2319 Y2.7143  
G01 X-2.2331 Y2.7207  
G01 X-2.2331 Y2.7672  
G01 X-2.2833 Y2.8174  
G01 X-2.7402 Y2.8174  
G01 X-2.7453 Y2.8187  
G01 X-2.7499 Y2.8214  
G01 X-2.8953 Y2.9669  
G01 X-2.9137 Y2.9669  
G01 X-2.9331 Y2.9863  
G01 X-2.9331 Y3.0137  
G01 X-2.9137 Y3.0331  
G01 X-2.8863 Y3.0331  
G01 X-2.8669 Y3.0137  
G01 X-2.8669 Y2.9953  
G01 X-2.7292 Y2.8576  
G01 X-2.2723 Y2.8576  
G01 X-2.2672 Y2.8563  
G01 X-2.2626 Y2.8536  
G01 X-2.2589 Y2.8499  
G01 X-2.2148 Y2.8058  
G01 X-2.2097 Y2.8079  
G01 X-2.2033 Y2.8091  
G01 X-2.1967 Y2.8091  
G01 X-2.1903 Y2.8079  
G01 X-2.1843 Y2.8054  
G01 X-2.1789 Y2.8017  
G00 Z0.1000  
G00 X-2.2789 Y2.8017  
G01 Z-0.0021 F10    
G01 X-2.2743 Y2.7971  F20    
G01 X-2.2706 Y2.7917  
G01 X-2.2681 Y2.7857  
G01 X-2.2669 Y2.7793  
G01 X-2.2669 Y2.7207  
G01 X-2.2681 Y2.7143  
G01 X-2.2706 Y2.7083  
G01 X-2.2743 Y2.7029  
G01 X-2.2789 Y2.6983  
G01 X-2.2843 Y2.6946  
G01 X-2.2903 Y2.6921  
G01 X-2.2967 Y2.6909  
G01 X-2.3033 Y2.6909  
G01 X-2.3097 Y2.6921  
G01 X-2.3157 Y2.6946  
G01 X-2.3211 Y2.6983  
G01 X-2.3257 Y2.7029  
G01 X-2.3294 Y2.7083  
G01 X-2.3319 Y2.7143  
G01 X-2.3331 Y2.7207  
G01 X-2.3331 Y2.7299  
G01 X-2.9027 Y2.7299  
G01 X-2.9078 Y2.7312  
G01 X-2.9124 Y2.7339  
G01 X-3.1453 Y2.9669  
G01 X-3.1637 Y2.9669  
G01 X-3.1831 Y2.9863  
G01 X-3.1831 Y3.0137  
G01 X-3.1637 Y3.0331  
G01 X-3.1363 Y3.0331  
G01 X-3.1169 Y3.0137  
G01 X-3.1169 Y2.9953  
G01 X-2.8917 Y2.7701  
G01 X-2.3331 Y2.7701  
G01 X-2.3331 Y2.7793  
G01 X-2.3319 Y2.7857  
G01 X-2.3294 Y2.7917  
G01 X-2.3257 Y2.7971  
G01 X-2.3211 Y2.8017  
G01 X-2.3157 Y2.8054  
G01 X-2.3097 Y2.8079  
G01 X-2.3033 Y2.8091  
G01 X-2.2967 Y2.8091  
G01 X-2.2903 Y2.8079  
G01 X-2.2843 Y2.8054  
G01 X-2.2789 Y2.8017  
G00 Z0.1000  
G00 X-2.1257 Y2.4971  
G01 Z-0.0021 F10    
G01 X-2.1211 Y2.5017  F20    
G01 X-2.1157 Y2.5054  
G01 X-2.1097 Y2.5079  
G01 X-2.1033 Y2.5091  
G01 X-2.0967 Y2.5091  
G01 X-2.0903 Y2.5079  
G01 X-2.0843 Y2.5054  
G01 X-2.0789 Y2.5017  
G01 X-2.0743 Y2.4971  
G01 X-2.0706 Y2.4917  
G01 X-2.0681 Y2.4857  
G01 X-2.0669 Y2.4793  
G01 X-2.0669 Y2.4701  
G01 X-2.0331 Y2.4701  
G01 X-2.0331 Y2.4793  
G01 X-2.0319 Y2.4857  
G01 X-2.0294 Y2.4917  
G01 X-2.0257 Y2.4971  
G01 X-2.0211 Y2.5017  
G01 X-2.0157 Y2.5054  
G01 X-2.0097 Y2.5079  
G01 X-2.0033 Y2.5091  
G01 X-1.9967 Y2.5091  
G01 X-1.9903 Y2.5079  
G01 X-1.9843 Y2.5054  
G01 X-1.9789 Y2.5017  
G01 X-1.9743 Y2.4971  
G01 X-1.9706 Y2.4917  
G01 X-1.9681 Y2.4857  
G01 X-1.9669 Y2.4793  
G01 X-1.9669 Y2.4207  
G01 X-1.9681 Y2.4143  
G01 X-1.9706 Y2.4083  
G01 X-1.9743 Y2.4029  
G01 X-1.9789 Y2.3983  
G01 X-1.9843 Y2.3946  
G01 X-1.9903 Y2.3921  
G01 X-1.9967 Y2.3909  
G01 X-2.0033 Y2.3909  
G01 X-2.0097 Y2.3921  
G01 X-2.0157 Y2.3946  
G01 X-2.0211 Y2.3983  
G01 X-2.0257 Y2.4029  
G01 X-2.0294 Y2.4083  
G01 X-2.0319 Y2.4143  
G01 X-2.0331 Y2.4207  
G01 X-2.0331 Y2.4299  
G01 X-2.0669 Y2.4299  
G01 X-2.0669 Y2.4207  
G01 X-2.0681 Y2.4143  
G01 X-2.0706 Y2.4083  
G01 X-2.0743 Y2.4029  
G01 X-2.0789 Y2.3983  
G01 X-2.0799 Y2.3976  
G01 X-2.0799 Y2.3267  
G01 X-2.0669 Y2.3137  
G01 X-2.0669 Y2.2863  
G01 X-2.0863 Y2.2669  
G01 X-2.1137 Y2.2669  
G01 X-2.1331 Y2.2863  
G01 X-2.1331 Y2.3137  
G01 X-2.1201 Y2.3267  
G01 X-2.1201 Y2.3976  
G01 X-2.1211 Y2.3983  
G01 X-2.1257 Y2.4029  
G01 X-2.1294 Y2.4083  
G01 X-2.1319 Y2.4143  
G01 X-2.1331 Y2.4207  
G01 X-2.1331 Y2.4793  
G01 X-2.1319 Y2.4857  
G01 X-2.1294 Y2.4917  
G01 X-2.1257 Y2.4971  
G00 Z0.1000  
G00 X-1.9257 Y2.4971  
G01 Z-0.0021 F10    
G01 X-1.9211 Y2.5017  F20    
G01 X-1.9157 Y2.5054  
G01 X-1.9097 Y2.5079  
G01 X-1.9033 Y2.5091  
G01 X-1.8967 Y2.5091  
G01 X-1.8903 Y2.5079  
G01 X-1.8843 Y2.5054  
G01 X-1.8789 Y2.5017  
G01 X-1.8743 Y2.4971  
G01 X-1.8706 Y2.4917  
G01 X-1.8681 Y2.4857  
G01 X-1.8669 Y2.4793  
G01 X-1.8669 Y2.4207  
G01 X-1.8681 Y2.4143  
G01 X-1.8706 Y2.4083  
G01 X-1.8743 Y2.4029  
G01 X-1.8789 Y2.3983  
G01 X-1.8799 Y2.3976  
G01 X-1.8799 Y2.3458  
G01 X-1.6376 Y2.1036  
G01 X-1.6339 Y2.0999  
G01 X-1.6312 Y2.0953  
G01 X-1.6299 Y2.0902  
G01 X-1.6299 Y2.0395  
G01 X-1.6079 Y2.0175  
G01 X-1.6079 Y1.9825  
G01 X-1.6325 Y1.9579  
G01 X-1.6675 Y1.9579  
G01 X-1.6921 Y1.9825  
G01 X-1.6921 Y2.0175  
G01 X-1.6701 Y2.0395  
G01 X-1.6701 Y2.0792  
G01 X-1.9161 Y2.3251  
G01 X-1.9188 Y2.3297  
G01 X-1.9201 Y2.3348  
G01 X-1.9201 Y2.3976  
G01 X-1.9211 Y2.3983  
G01 X-1.9257 Y2.4029  
G01 X-1.9294 Y2.4083  
G01 X-1.9319 Y2.4143  
G01 X-1.9331 Y2.4207  
G01 X-1.9331 Y2.4793  
G01 X-1.9319 Y2.4857  
G01 X-1.9294 Y2.4917  
G01 X-1.9257 Y2.4971  
G00 Z0.1000  
G00 X-1.9363 Y2.3331  
G01 Z-0.0021 F10    
G01 X-1.9169 Y2.3137  F20    
G01 X-1.9169 Y2.2863  
G01 X-1.9299 Y2.2733  
G01 X-1.9299 Y2.2473  
G01 X-1.9312 Y2.2422  
G01 X-1.9339 Y2.2376  
G01 X-2.0169 Y2.1547  
G01 X-2.0169 Y2.1207  
G01 X-2.0181 Y2.1143  
G01 X-2.0206 Y2.1083  
G01 X-2.0243 Y2.1029  
G01 X-2.0289 Y2.0983  
G01 X-2.0343 Y2.0946  
G01 X-2.0403 Y2.0921  
G01 X-2.0467 Y2.0909  
G01 X-2.0533 Y2.0909  
G01 X-2.0597 Y2.0921  
G01 X-2.0657 Y2.0946  
G01 X-2.0711 Y2.0983  
G01 X-2.0757 Y2.1029  
G01 X-2.0794 Y2.1083  
G01 X-2.0819 Y2.1143  
G01 X-2.0831 Y2.1207  
G01 X-2.0831 Y2.1299  
G01 X-2.2733 Y2.1299  
G01 X-2.2863 Y2.1169  
G01 X-2.3137 Y2.1169  
G01 X-2.3331 Y2.1363  
G01 X-2.3331 Y2.1637  
G01 X-2.3137 Y2.1831  
G01 X-2.2863 Y2.1831  
G01 X-2.2733 Y2.1701  
G01 X-2.0831 Y2.1701  
G01 X-2.0831 Y2.1793  
G01 X-2.0819 Y2.1857  
G01 X-2.0794 Y2.1917  
G01 X-2.0757 Y2.1971  
G01 X-2.0711 Y2.2017  
G01 X-2.0657 Y2.2054  
G01 X-2.0597 Y2.2079  
G01 X-2.0533 Y2.2091  
G01 X-2.0467 Y2.2091  
G01 X-2.0403 Y2.2079  
G01 X-2.0343 Y2.2054  
G01 X-2.0289 Y2.2017  
G01 X-2.0278 Y2.2007  
G01 X-1.9701 Y2.2583  
G01 X-1.9701 Y2.2733  
G01 X-1.9831 Y2.2863  
G01 X-1.9831 Y2.3137  
G01 X-1.9637 Y2.3331  
G01 X-1.9363 Y2.3331  
G00 Z0.1000  
G00 X-1.9363 Y2.1831  
G01 Z-0.0021 F10    
G01 X-1.9169 Y2.1637  F20    
G01 X-1.9169 Y2.1363  
G01 X-1.9299 Y2.1233  
G01 X-1.9299 Y1.9473  
G01 X-1.9312 Y1.9422  
G01 X-1.9339 Y1.9376  
G01 X-1.9514 Y1.9201  
G01 X-1.7895 Y1.9201  
G01 X-1.7675 Y1.9421  
G01 X-1.7325 Y1.9421  
G01 X-1.7079 Y1.9175  
G01 X-1.7079 Y1.8825  
G01 X-1.7325 Y1.8579  
G01 X-1.7675 Y1.8579  
G01 X-1.7895 Y1.8799  
G01 X-1.9902 Y1.8799  
G01 X-1.9913 Y1.8802  
G01 X-2.0169 Y1.8547  
G01 X-2.0169 Y1.8207  
G01 X-2.0181 Y1.8143  
G01 X-2.0206 Y1.8083  
G01 X-2.0243 Y1.8029  
G01 X-2.0289 Y1.7983  
G01 X-2.0343 Y1.7946  
G01 X-2.0403 Y1.7921  
G01 X-2.0467 Y1.7909  
G01 X-2.0533 Y1.7909  
G01 X-2.0597 Y1.7921  
G01 X-2.0657 Y1.7946  
G01 X-2.0711 Y1.7983  
G01 X-2.0757 Y1.8029  
G01 X-2.0794 Y1.8083  
G01 X-2.0819 Y1.8143  
G01 X-2.0831 Y1.8207  
G01 X-2.0831 Y1.8793  
G01 X-2.0819 Y1.8857  
G01 X-2.0794 Y1.8917  
G01 X-2.0757 Y1.8971  
G01 X-2.0711 Y1.9017  
G01 X-2.0657 Y1.9054  
G01 X-2.0597 Y1.9079  
G01 X-2.0533 Y1.9091  
G01 X-2.0467 Y1.9091  
G01 X-2.0403 Y1.9079  
G01 X-2.0343 Y1.9054  
G01 X-2.0289 Y1.9017  
G01 X-2.0278 Y1.9007  
G01 X-2.0099 Y1.9186  
G01 X-1.9861 Y1.9424  
G01 X-2.2167 Y1.9424  
G01 X-2.2424 Y1.9167  
G01 X-2.2424 Y1.8333  
G01 X-2.1167 Y1.7076  
G01 X-2.0833 Y1.7076  
G01 X-2.0749 Y1.7161  
G01 X-2.0703 Y1.7188  
G01 X-2.0652 Y1.7201  
G01 X-1.9366 Y1.7201  
