(/Applications/pcbgcode.repo/pcb-gcode.ulp)
(Copyright 2005 - 2012 by John Johnson)
(See readme.txt for licensing terms.)
(This file generated from the board:)
(.../eagle/output_attenuator/zerod.brd)
(Current profile is .../pcbgcode.repo/profiles/mach.pp  )
(This file generated 10/19/14 9:28 AM)
(Settings from pcb-machine.h)
(spindle on time = 0.0000)
(  Tool Size)
(0.0062  )
(spindle speed = 30000.0000)
(tool change at 0.0000  0.0000  3.0000  )
(feed rate xy = F20    )
(feed rate z  = F10    )
(Z Axis Settings)
(  High     Up        Down     Drill)
(0.5000  	0.1000  	-0.0020 	-0.0630 )
(Settings from pcb-defaults.h)
(isolate min = 0.0010)
(isolate max = 0.0200)
(isolate step = 0.0050)
(Generated bottom outlines, bottom drill, )
(Unit of measure: inch)
(Inch Mode)
G20
(Absolute Coordinates)
G90
S30000
G00 Z0.5000  
G00 X0.0000  Y0.0000  
M03
G04 P0.000000
G00 Z0.1000  
G00 X-0.1589 Y0.1330  
G01 Z-0.0020 F10    
G01 X-0.1830 Y0.1089  F20    
G01 X-0.2170 Y0.1089  
G01 X-0.2411 Y0.1330  
G01 X-0.2411 Y0.1670  
G01 X-0.2170 Y0.1911  
G01 X-0.1830 Y0.1911  
G01 X-0.1589 Y0.1670  
G01 X-0.1589 Y0.1330  
G00 Z0.1000  
G00 X-0.2589 Y0.1330  
G01 Z-0.0020 F10    
G01 X-0.2830 Y0.1089  F20    
G01 X-0.3170 Y0.1089  
G01 X-0.3411 Y0.1330  
G01 X-0.3411 Y0.1670  
G01 X-0.3170 Y0.1911  
G01 X-0.2830 Y0.1911  
G01 X-0.2589 Y0.1670  
G01 X-0.2589 Y0.1330  
G00 Z0.1000  
G00 X-0.3589 Y0.1330  
G01 Z-0.0020 F10    
G01 X-0.3830 Y0.1089  F20    
G01 X-0.4170 Y0.1089  
G01 X-0.4411 Y0.1330  
G01 X-0.4411 Y0.1670  
G01 X-0.4170 Y0.1911  
G01 X-0.3830 Y0.1911  
G01 X-0.3589 Y0.1670  
G01 X-0.3589 Y0.1330  
G00 Z0.1000  
G00 X-0.4589 Y0.1330  
G01 Z-0.0020 F10    
G01 X-0.4830 Y0.1089  F20    
G01 X-0.5170 Y0.1089  
G01 X-0.5411 Y0.1330  
G01 X-0.5411 Y0.1670  
G01 X-0.5251 Y0.1830  
G01 X-0.5251 Y0.2170  
G01 X-0.5411 Y0.2330  
G01 X-0.5411 Y0.2670  
G01 X-0.5170 Y0.2911  
G01 X-0.4830 Y0.2911  
G01 X-0.4806 Y0.2887  
G01 X-0.2887 Y0.4807  
G01 X-0.2891 Y0.4814  
G01 X-0.2914 Y0.4887  
G01 X-0.2926 Y0.4962  
G01 X-0.2926 Y0.5038  
G01 X-0.2914 Y0.5113  
G01 X-0.2891 Y0.5186  
G01 X-0.2856 Y0.5253  
G01 X-0.2811 Y0.5315  
G01 X-0.2757 Y0.5369  
G01 X-0.2696 Y0.5414  
G01 X-0.2628 Y0.5448  
G01 X-0.2556 Y0.5472  
G01 X-0.2481 Y0.5483  
G01 X-0.2021 Y0.5483  
G01 X-0.2021 Y0.6140  
G01 X-0.2011 Y0.6178  
G01 X-0.1991 Y0.6213  
G01 X-0.0661 Y0.7543  
G01 X-0.0661 Y2.2547  
G01 X-0.2103 Y2.3989  
G01 X-0.3839 Y2.3989  
G01 X-0.3839 Y2.3957  
G01 X-0.3850 Y2.3871  
G01 X-0.3873 Y2.3787  
G01 X-0.3906 Y2.3707  
G01 X-0.3949 Y2.3632  
G01 X-0.4002 Y2.3563  
G01 X-0.4063 Y2.3502  
G01 X-0.4132 Y2.3449  
G01 X-0.4207 Y2.3406  
G01 X-0.4287 Y2.3373  
G01 X-0.4371 Y2.3350  
G01 X-0.4457 Y2.3339  
G01 X-0.4543 Y2.3339  
G01 X-0.4629 Y2.3350  
G01 X-0.4713 Y2.3373  
G01 X-0.4793 Y2.3406  
G01 X-0.4868 Y2.3449  
G01 X-0.4937 Y2.3502  
G01 X-0.4998 Y2.3563  
G01 X-0.5051 Y2.3632  
G01 X-0.5094 Y2.3707  
G01 X-0.5127 Y2.3787  
G01 X-0.5150 Y2.3871  
G01 X-0.5161 Y2.3957  
G01 X-0.5161 Y2.4043  
G01 X-0.5150 Y2.4129  
G01 X-0.5127 Y2.4213  
G01 X-0.5094 Y2.4293  
G01 X-0.5051 Y2.4368  
G01 X-0.4998 Y2.4437  
G01 X-0.4937 Y2.4498  
G01 X-0.4868 Y2.4551  
G01 X-0.4793 Y2.4594  
G01 X-0.4713 Y2.4627  
G01 X-0.4629 Y2.4650  
G01 X-0.4543 Y2.4661  
G01 X-0.4457 Y2.4661  
G01 X-0.4371 Y2.4650  
G01 X-0.4287 Y2.4627  
G01 X-0.4207 Y2.4594  
G01 X-0.4132 Y2.4551  
G01 X-0.4063 Y2.4498  
G01 X-0.4002 Y2.4437  
G01 X-0.3949 Y2.4368  
G01 X-0.3906 Y2.4293  
G01 X-0.3905 Y2.4291  
G01 X-0.2103 Y2.4291  
G01 X-0.0661 Y2.5733  
G01 X-0.0661 Y2.6287  
G01 X-0.4143 Y2.9769  
G01 X-0.7805 Y2.9769  
G01 X-0.7875 Y2.9699  
G01 X-0.8125 Y2.9699  
G01 X-0.8301 Y2.9875  
G01 X-0.8301 Y3.0017  
G01 X-0.8733 Y3.0449  
G01 X-0.9797 Y3.0449  
G01 X-1.0199 Y3.0047  
G01 X-1.0199 Y2.9875  
G01 X-1.0375 Y2.9699  
G01 X-1.0389 Y2.9699  
G01 X-1.0389 Y2.9390  
G01 X-1.0399 Y2.9352  
G01 X-1.0419 Y2.9317  
G01 X-1.6227 Y2.3509  
G01 X-1.6262 Y2.3489  
G01 X-1.6300 Y2.3479  
G01 X-1.6427 Y2.3479  
G01 X-1.7869 Y2.2037  
G01 X-1.7869 Y2.1910  
G01 X-1.7879 Y2.1872  
G01 X-1.7899 Y2.1837  
G01 X-1.7927 Y2.1809  
G01 X-1.8199 Y2.1537  
G01 X-1.8199 Y2.1210  
G01 X-1.8209 Y2.1160  
G01 X-1.8209 Y1.9953  
G01 X-1.6257 Y1.8001  
G01 X-1.3580 Y1.8001  
G01 X-1.3542 Y1.7991  
G01 X-1.3507 Y1.7971  
G01 X-1.3479 Y1.7943  
G01 X-1.0249 Y1.4713  
G01 X-1.0229 Y1.4678  
G01 X-1.0219 Y1.4640  
G01 X-1.0219 Y1.4260  
G01 X-1.0229 Y1.4222  
G01 X-1.0249 Y1.4187  
G01 X-1.0277 Y1.4159  
G01 X-1.0957 Y1.3479  
G01 X-1.0992 Y1.3459  
G01 X-1.1030 Y1.3449  
G01 X-1.1699 Y1.3449  
G01 X-1.1699 Y1.3375  
G01 X-1.1875 Y1.3199  
G01 X-1.1919 Y1.3199  
G01 X-1.1919 Y1.1791  
G01 X-1.1912 Y1.1789  
G01 X-1.1857 Y1.1767  
G01 X-1.1808 Y1.1734  
G01 X-1.1766 Y1.1692  
G01 X-1.1733 Y1.1643  
G01 X-1.1711 Y1.1588  
G01 X-1.1699 Y1.1530  
G01 X-1.1699 Y1.1470  
G01 X-1.1710 Y1.1414  
G01 X-1.0987 Y1.0691  
G01 X-1.0735 Y1.0691  
G01 X-1.0625 Y1.0801  
G01 X-1.0375 Y1.0801  
G01 X-1.0199 Y1.0625  
G01 X-1.0199 Y1.0375  
G01 X-1.0375 Y1.0199  
G01 X-1.0625 Y1.0199  
G01 X-1.0801 Y1.0375  
G01 X-1.0801 Y1.0389  
G01 X-1.1070 Y1.0389  
G01 X-1.1108 Y1.0399  
G01 X-1.1143 Y1.0419  
G01 X-1.1930 Y1.1207  
G01 X-1.1970 Y1.1199  
G01 X-1.2030 Y1.1199  
G01 X-1.2088 Y1.1211  
G01 X-1.2143 Y1.1233  
G01 X-1.2192 Y1.1266  
G01 X-1.2234 Y1.1308  
G01 X-1.2267 Y1.1357  
G01 X-1.2289 Y1.1412  
G01 X-1.2301 Y1.1470  
G01 X-1.2301 Y1.1530  
G01 X-1.2289 Y1.1588  
G01 X-1.2267 Y1.1643  
G01 X-1.2234 Y1.1692  
G01 X-1.2221 Y1.1705  
G01 X-1.2221 Y1.3295  
G01 X-1.2301 Y1.3375  
G01 X-1.2301 Y1.3625  
G01 X-1.2125 Y1.3801  
G01 X-1.1875 Y1.3801  
G01 X-1.1825 Y1.3751  
G01 X-1.1113 Y1.3751  
G01 X-1.0521 Y1.4343  
G01 X-1.0521 Y1.4557  
G01 X-1.3663 Y1.7699  
G01 X-1.6340 Y1.7699  
G01 X-1.6378 Y1.7709  
G01 X-1.6413 Y1.7729  
G01 X-1.8453 Y1.9769  
G01 X-1.8481 Y1.9797  
G01 X-1.8501 Y1.9832  
G01 X-1.8511 Y1.9870  
G01 X-1.8511 Y2.0939  
G01 X-1.8530 Y2.0939  
G01 X-1.8588 Y2.0951  
G01 X-1.8643 Y2.0973  
G01 X-1.8692 Y2.1006  
G01 X-1.8734 Y2.1048  
G01 X-1.8767 Y2.1097  
G01 X-1.8789 Y2.1152  
G01 X-1.8801 Y2.1210  
G01 X-1.8801 Y2.1647  
G01 X-1.9613 Y2.2459  
G01 X-2.3397 Y2.2459  
G01 X-2.4199 Y2.1657  
G01 X-2.4199 Y2.1210  
G01 X-2.4211 Y2.1152  
G01 X-2.4233 Y2.1097  
G01 X-2.4266 Y2.1048  
G01 X-2.4308 Y2.1006  
G01 X-2.4357 Y2.0973  
G01 X-2.4412 Y2.0951  
G01 X-2.4470 Y2.0939  
G01 X-2.4530 Y2.0939  
G01 X-2.4588 Y2.0951  
G01 X-2.4643 Y2.0973  
G01 X-2.4692 Y2.1006  
G01 X-2.4734 Y2.1048  
G01 X-2.4767 Y2.1097  
G01 X-2.4789 Y2.1152  
G01 X-2.4801 Y2.1210  
G01 X-2.4801 Y2.1790  
G01 X-2.4789 Y2.1848  
G01 X-2.4767 Y2.1903  
G01 X-2.4734 Y2.1952  
G01 X-2.4692 Y2.1994  
G01 X-2.4643 Y2.2027  
G01 X-2.4588 Y2.2049  
G01 X-2.4530 Y2.2061  
G01 X-2.4470 Y2.2061  
G01 X-2.4412 Y2.2049  
G01 X-2.4357 Y2.2027  
G01 X-2.4308 Y2.1994  
G01 X-2.4299 Y2.1985  
G01 X-2.3553 Y2.2731  
G01 X-2.3518 Y2.2751  
G01 X-2.3480 Y2.2761  
G01 X-1.9530 Y2.2761  
G01 X-1.9492 Y2.2751  
G01 X-1.9457 Y2.2731  
G01 X-1.9429 Y2.2703  
G01 X-1.8706 Y2.1980  
G01 X-1.8692 Y2.1994  
G01 X-1.8643 Y2.2027  
G01 X-1.8588 Y2.2049  
G01 X-1.8530 Y2.2061  
G01 X-1.8470 Y2.2061  
G01 X-1.8412 Y2.2049  
G01 X-1.8357 Y2.2027  
G01 X-1.8308 Y2.1994  
G01 X-1.8266 Y2.1952  
G01 X-1.8244 Y2.1919  
G01 X-1.8171 Y2.1993  
G01 X-1.8171 Y2.2120  
G01 X-1.8161 Y2.2158  
G01 X-1.8141 Y2.2193  
G01 X-1.6611 Y2.3723  
G01 X-1.6583 Y2.3751  
G01 X-1.6548 Y2.3771  
G01 X-1.6510 Y2.3781  
G01 X-1.6383 Y2.3781  
G01 X-1.0691 Y2.9473  
G01 X-1.0691 Y2.9765  
G01 X-1.0801 Y2.9875  
G01 X-1.0801 Y2.9939  
G01 X-1.0900 Y2.9939  
G01 X-1.0938 Y2.9949  
G01 X-1.0973 Y2.9969  
G01 X-1.1453 Y3.0449  
G01 X-1.2347 Y3.0449  
G01 X-1.2699 Y3.0097  
G01 X-1.2699 Y2.9875  
G01 X-1.2875 Y2.9699  
G01 X-1.3125 Y2.9699  
G01 X-1.3301 Y2.9875  
G01 X-1.3301 Y3.0087  
G01 X-1.3663 Y3.0449  
G01 X-1.4897 Y3.0449  
G01 X-1.5210 Y3.0136  
G01 X-1.5199 Y3.0125  
G01 X-1.5199 Y2.9875  
G01 X-1.5375 Y2.9699  
G01 X-1.5625 Y2.9699  
G01 X-1.5801 Y2.9875  
G01 X-1.5801 Y3.0037  
G01 X-1.6213 Y3.0449  
G01 X-1.6597 Y3.0449  
G01 X-1.7077 Y2.9969  
G01 X-1.7112 Y2.9949  
G01 X-1.7150 Y2.9939  
G01 X-1.7699 Y2.9939  
G01 X-1.7699 Y2.9875  
G01 X-1.7875 Y2.9699  
G01 X-1.8125 Y2.9699  
G01 X-1.8301 Y2.9875  
G01 X-1.8301 Y3.0125  
G01 X-1.8285 Y3.0141  
G01 X-1.8593 Y3.0449  
G01 X-1.9147 Y3.0449  
G01 X-1.9627 Y2.9969  
G01 X-1.9662 Y2.9949  
G01 X-1.9700 Y2.9939  
G01 X-2.0199 Y2.9939  
G01 X-2.0199 Y2.9875  
G01 X-2.0375 Y2.9699  
G01 X-2.0625 Y2.9699  
G01 X-2.0801 Y2.9875  
G01 X-2.0801 Y3.0107  
G01 X-2.1143 Y3.0449  
G01 X-2.2377 Y3.0449  
G01 X-2.2700 Y3.0126  
G01 X-2.2699 Y3.0125  
G01 X-2.2699 Y2.9875  
G01 X-2.2875 Y2.9699  
G01 X-2.3125 Y2.9699  
G01 X-2.3301 Y2.9875  
G01 X-2.3301 Y3.0057  
G01 X-2.3693 Y3.0449  
G01 X-2.4077 Y3.0449  
G01 X-2.4557 Y2.9969  
G01 X-2.4592 Y2.9949  
G01 X-2.4630 Y2.9939  
G01 X-2.5199 Y2.9939  
G01 X-2.5199 Y2.9875  
G01 X-2.5375 Y2.9699  
G01 X-2.5625 Y2.9699  
G01 X-2.5801 Y2.9875  
G01 X-2.5801 Y3.0125  
G01 X-2.5775 Y3.0151  
G01 X-2.6073 Y3.0449  
G01 X-2.6627 Y3.0449  
G01 X-2.7107 Y2.9969  
G01 X-2.7142 Y2.9949  
G01 X-2.7180 Y2.9939  
G01 X-2.7699 Y2.9939  
G01 X-2.7699 Y2.9875  
G01 X-2.7875 Y2.9699  
G01 X-2.8125 Y2.9699  
G01 X-2.8301 Y2.9875  
G01 X-2.8301 Y3.0125  
G01 X-2.8300 Y3.0126  
G01 X-2.8623 Y3.0449  
G01 X-2.9177 Y3.0449  
G01 X-2.9657 Y2.9969  
G01 X-2.9692 Y2.9949  
G01 X-2.9730 Y2.9939  
G01 X-3.0199 Y2.9939  
G01 X-3.0199 Y2.9875  
G01 X-3.0375 Y2.9699  
G01 X-3.0625 Y2.9699  
G01 X-3.0801 Y2.9875  
G01 X-3.0801 Y3.0125  
G01 X-3.0625 Y3.0301  
G01 X-3.0375 Y3.0301  
G01 X-3.0315 Y3.0241  
G01 X-2.9813 Y3.0241  
G01 X-2.9361 Y3.0693  
G01 X-2.9333 Y3.0721  
G01 X-2.9298 Y3.0741  
G01 X-2.9260 Y3.0751  
G01 X-2.8540 Y3.0751  
G01 X-2.8502 Y3.0741  
G01 X-2.8467 Y3.0721  
G01 X-2.8047 Y3.0301  
G01 X-2.7875 Y3.0301  
G01 X-2.7815 Y3.0241  
G01 X-2.7263 Y3.0241  
G01 X-2.6811 Y3.0693  
G01 X-2.6783 Y3.0721  
G01 X-2.6748 Y3.0741  
G01 X-2.6710 Y3.0751  
G01 X-2.5990 Y3.0751  
G01 X-2.5952 Y3.0741  
G01 X-2.5917 Y3.0721  
G01 X-2.5497 Y3.0301  
G01 X-2.5375 Y3.0301  
G01 X-2.5315 Y3.0241  
G01 X-2.4713 Y3.0241  
G01 X-2.4261 Y3.0693  
G01 X-2.4233 Y3.0721  
G01 X-2.4198 Y3.0741  
G01 X-2.4160 Y3.0751  
G01 X-2.3610 Y3.0751  
G01 X-2.3572 Y3.0741  
G01 X-2.3537 Y3.0721  
G01 X-2.3117 Y3.0301  
G01 X-2.2953 Y3.0301  
G01 X-2.2533 Y3.0721  
G01 X-2.2498 Y3.0741  
G01 X-2.2460 Y3.0751  
G01 X-2.1060 Y3.0751  
G01 X-2.1022 Y3.0741  
G01 X-2.0987 Y3.0721  
G01 X-2.0567 Y3.0301  
G01 X-2.0375 Y3.0301  
G01 X-2.0315 Y3.0241  
G01 X-1.9783 Y3.0241  
G01 X-1.9331 Y3.0693  
G01 X-1.9303 Y3.0721  
G01 X-1.9268 Y3.0741  
G01 X-1.9230 Y3.0751  
G01 X-1.8510 Y3.0751  
G01 X-1.8472 Y3.0741  
G01 X-1.8437 Y3.0721  
G01 X-1.8017 Y3.0301  
G01 X-1.7875 Y3.0301  
G01 X-1.7815 Y3.0241  
G01 X-1.7233 Y3.0241  
G01 X-1.6781 Y3.0693  
G01 X-1.6753 Y3.0721  
G01 X-1.6718 Y3.0741  
G01 X-1.6680 Y3.0751  
G01 X-1.6130 Y3.0751  
G01 X-1.6092 Y3.0741  
G01 X-1.6057 Y3.0721  
G01 X-1.5631 Y3.0295  
G01 X-1.5625 Y3.0301  
G01 X-1.5473 Y3.0301  
G01 X-1.5053 Y3.0721  
G01 X-1.5018 Y3.0741  
G01 X-1.4980 Y3.0751  
G01 X-1.3580 Y3.0751  
G01 X-1.3542 Y3.0741  
G01 X-1.3507 Y3.0721  
G01 X-1.3479 Y3.0693  
G01 X-1.3087 Y3.0301  
G01 X-1.2923 Y3.0301  
G01 X-1.2503 Y3.0721  
G01 X-1.2468 Y3.0741  
G01 X-1.2430 Y3.0751  
G01 X-1.1370 Y3.0751  
G01 X-1.1332 Y3.0741  
G01 X-1.1297 Y3.0721  
G01 X-1.1269 Y3.0693  
G01 X-1.0817 Y3.0241  
G01 X-1.0685 Y3.0241  
G01 X-1.0625 Y3.0301  
G01 X-1.0375 Y3.0301  
G01 X-1.0374 Y3.0300  
G01 X-0.9953 Y3.0721  
G01 X-0.9918 Y3.0741  
G01 X-0.9880 Y3.0751  
G01 X-0.8650 Y3.0751  
G01 X-0.8612 Y3.0741  
G01 X-0.8577 Y3.0721  
G01 X-0.8549 Y3.0693  
G01 X-0.8141 Y3.0285  
G01 X-0.8125 Y3.0301  
G01 X-0.7875 Y3.0301  
G01 X-0.7699 Y3.0125  
G01 X-0.7699 Y3.0071  
G01 X-0.4060 Y3.0071  
G01 X-0.4022 Y3.0061  
G01 X-0.3987 Y3.0041  
G01 X-0.3959 Y3.0013  
G01 X-0.0389 Y2.6443  
G01 X-0.0369 Y2.6408  
G01 X-0.0359 Y2.6370  
G01 X-0.0359 Y2.5650  
G01 X-0.0369 Y2.5612  
G01 X-0.0389 Y2.5577  
G01 X-0.0417 Y2.5549  
G01 X-0.1826 Y2.4140  
G01 X-0.0389 Y2.2703  
G01 X-0.0369 Y2.2668  
G01 X-0.0359 Y2.2630  
G01 X-0.0359 Y0.7460  
G01 X-0.0369 Y0.7422  
G01 X-0.0389 Y0.7387  
G01 X-0.0417 Y0.7359  
G01 X-0.1719 Y0.6057  
G01 X-0.1719 Y0.5483  
G01 X-0.1519 Y0.5483  
G01 X-0.1444 Y0.5472  
G01 X-0.1372 Y0.5448  
G01 X-0.1304 Y0.5414  
G01 X-0.1243 Y0.5369  
G01 X-0.1189 Y0.5315  
G01 X-0.1144 Y0.5253  
G01 X-0.1109 Y0.5186  
G01 X-0.1086 Y0.5113  
G01 X-0.1074 Y0.5038  
G01 X-0.1074 Y0.4962  
G01 X-0.1086 Y0.4887  
G01 X-0.1109 Y0.4814  
G01 X-0.1144 Y0.4747  
G01 X-0.1189 Y0.4685  
G01 X-0.1243 Y0.4631  
G01 X-0.1304 Y0.4586  
G01 X-0.1372 Y0.4552  
G01 X-0.1444 Y0.4528  
G01 X-0.1519 Y0.4516  
G01 X-0.2481 Y0.4516  
G01 X-0.2556 Y0.4528  
G01 X-0.2628 Y0.4552  
G01 X-0.2685 Y0.4581  
G01 X-0.4593 Y0.2674  
G01 X-0.4589 Y0.2670  
G01 X-0.4589 Y0.2330  
G01 X-0.4830 Y0.2089  
G01 X-0.4949 Y0.2089  
G01 X-0.4949 Y0.1911  
G01 X-0.4830 Y0.1911  
G01 X-0.4589 Y0.1670  
G01 X-0.4589 Y0.1330  
G00 Z0.1000  
G00 X-0.5589 Y0.1330  
G01 Z-0.0020 F10    
G01 X-0.5830 Y0.1089  F20    
G01 X-0.6170 Y0.1089  
G01 X-0.6411 Y0.1330  
G01 X-0.6411 Y0.1379  
G01 X-0.6589 Y0.1379  
G01 X-0.6589 Y0.1330  
G01 X-0.6830 Y0.1089  
G01 X-0.7170 Y0.1089  
G01 X-0.7411 Y0.1330  
G01 X-0.7411 Y0.1379  
G01 X-0.7589 Y0.1379  
G01 X-0.7589 Y0.1330  
G01 X-0.7830 Y0.1089  
G01 X-0.8170 Y0.1089  
G01 X-0.8194 Y0.1113  
G01 X-0.8549 Y0.0757  
G01 X-0.8577 Y0.0729  
G01 X-0.8612 Y0.0709  
G01 X-0.8650 Y0.0699  
G01 X-1.7870 Y0.0699  
G01 X-1.7908 Y0.0709  
G01 X-1.7943 Y0.0729  
G01 X-1.9344 Y0.2131  
G01 X-1.9346 Y0.2129  
G01 X-1.9654 Y0.2129  
G01 X-1.9871 Y0.2346  
G01 X-1.9871 Y0.2654  
G01 X-1.9869 Y0.2656  
G01 X-2.0521 Y0.3307  
G01 X-2.0541 Y0.3342  
G01 X-2.0551 Y0.3380  
G01 X-2.0551 Y0.5799  
G01 X-2.0760 Y0.5799  
G01 X-2.0798 Y0.5809  
G01 X-2.0833 Y0.5829  
G01 X-2.4743 Y0.9739  
G01 X-2.4771 Y0.9767  
G01 X-2.4791 Y0.9802  
G01 X-2.4801 Y0.9840  
G01 X-2.4801 Y1.0900  
G01 X-2.4791 Y1.0938  
G01 X-2.4771 Y1.0973  
G01 X-2.4301 Y1.1443  
G01 X-2.4301 Y1.1625  
G01 X-2.4125 Y1.1801  
G01 X-2.4121 Y1.1801  
G01 X-2.4121 Y1.2090  
G01 X-2.4111 Y1.2128  
G01 X-2.4091 Y1.2163  
G01 X-2.2801 Y1.3453  
G01 X-2.2801 Y1.3625  
G01 X-2.2761 Y1.3665  
G01 X-2.2761 Y1.5577  
G01 X-2.2883 Y1.5699  
G01 X-2.3125 Y1.5699  
G01 X-2.3301 Y1.5875  
G01 X-2.3301 Y1.6117  
G01 X-2.3751 Y1.6567  
G01 X-2.3771 Y1.6602  
G01 X-2.3781 Y1.6640  
G01 X-2.3781 Y2.1132  
G01 X-2.3789 Y2.1152  
G01 X-2.3801 Y2.1210  
G01 X-2.3801 Y2.1790  
G01 X-2.3789 Y2.1848  
G01 X-2.3767 Y2.1903  
G01 X-2.3734 Y2.1952  
G01 X-2.3692 Y2.1994  
G01 X-2.3643 Y2.2027  
G01 X-2.3588 Y2.2049  
G01 X-2.3530 Y2.2061  
G01 X-2.3470 Y2.2061  
G01 X-2.3412 Y2.2049  
G01 X-2.3357 Y2.2027  
G01 X-2.3308 Y2.1994  
G01 X-2.3289 Y2.1975  
G01 X-2.2873 Y2.2391  
G01 X-2.2838 Y2.2411  
G01 X-2.2800 Y2.2421  
G01 X-2.0210 Y2.2421  
G01 X-2.0172 Y2.2411  
G01 X-2.0137 Y2.2391  
G01 X-2.0109 Y2.2363  
G01 X-1.9716 Y2.1970  
G01 X-1.9692 Y2.1994  
G01 X-1.9643 Y2.2027  
G01 X-1.9588 Y2.2049  
G01 X-1.9530 Y2.2061  
G01 X-1.9470 Y2.2061  
G01 X-1.9412 Y2.2049  
G01 X-1.9357 Y2.2027  
G01 X-1.9308 Y2.1994  
G01 X-1.9266 Y2.1952  
G01 X-1.9233 Y2.1903  
G01 X-1.9211 Y2.1848  
G01 X-1.9199 Y2.1790  
G01 X-1.9199 Y2.1210  
G01 X-1.9211 Y2.1152  
G01 X-1.9233 Y2.1097  
G01 X-1.9266 Y2.1048  
G01 X-1.9308 Y2.1006  
G01 X-1.9357 Y2.0973  
G01 X-1.9412 Y2.0951  
G01 X-1.9470 Y2.0939  
G01 X-1.9530 Y2.0939  
G01 X-1.9588 Y2.0951  
G01 X-1.9643 Y2.0973  
G01 X-1.9692 Y2.1006  
G01 X-1.9734 Y2.1048  
G01 X-1.9767 Y2.1097  
G01 X-1.9789 Y2.1152  
G01 X-1.9801 Y2.1210  
G01 X-1.9801 Y2.1627  
G01 X-2.0293 Y2.2119  
G01 X-2.2717 Y2.2119  
G01 X-2.3199 Y2.1637  
G01 X-2.3199 Y2.1210  
G01 X-2.3211 Y2.1152  
G01 X-2.3233 Y2.1097  
G01 X-2.3266 Y2.1048  
G01 X-2.3308 Y2.1006  
G01 X-2.3357 Y2.0973  
G01 X-2.3412 Y2.0951  
G01 X-2.3470 Y2.0939  
G01 X-2.3479 Y2.0939  
G01 X-2.3479 Y1.6723  
G01 X-2.3057 Y1.6301  
G01 X-2.2875 Y1.6301  
G01 X-2.2699 Y1.6125  
G01 X-2.2699 Y1.5943  
G01 X-2.2610 Y1.5854  
G01 X-2.1173 Y1.7291  
G01 X-2.1138 Y1.7311  
G01 X-2.1100 Y1.7321  
G01 X-1.8340 Y1.7321  
G01 X-1.8302 Y1.7311  
G01 X-1.8267 Y1.7291  
G01 X-1.8239 Y1.7263  
G01 X-1.5009 Y1.4033  
G01 X-1.4989 Y1.3998  
G01 X-1.4979 Y1.3960  
G01 X-1.4979 Y1.1801  
G01 X-1.4970 Y1.1801  
G01 X-1.4912 Y1.1789  
G01 X-1.4857 Y1.1767  
G01 X-1.4808 Y1.1734  
G01 X-1.4766 Y1.1692  
G01 X-1.4733 Y1.1643  
G01 X-1.4711 Y1.1588  
G01 X-1.4699 Y1.1530  
G01 X-1.4699 Y1.1470  
G01 X-1.4711 Y1.1412  
G01 X-1.4728 Y1.1371  
G01 X-1.3027 Y0.9671  
G01 X-1.0755 Y0.9671  
G01 X-1.0625 Y0.9801  
G01 X-1.0521 Y0.9801  
G01 X-1.0521 Y0.9880  
G01 X-1.0511 Y0.9918  
G01 X-1.0491 Y0.9953  
G01 X-1.0011 Y1.0433  
G01 X-1.0011 Y1.7277  
G01 X-1.0933 Y1.8199  
G01 X-1.1125 Y1.8199  
G01 X-1.1301 Y1.8375  
G01 X-1.1301 Y1.8379  
G01 X-1.2629 Y1.8379  
G01 X-1.2629 Y1.8346  
G01 X-1.2846 Y1.8129  
G01 X-1.3154 Y1.8129  
G01 X-1.3371 Y1.8346  
G01 X-1.3371 Y1.8379  
G01 X-1.5609 Y1.8379  
G01 X-1.5609 Y1.8338  
G01 X-1.5838 Y1.8109  
G01 X-1.6162 Y1.8109  
G01 X-1.6391 Y1.8338  
G01 X-1.6391 Y1.8557  
G01 X-1.7461 Y1.9627  
G01 X-1.7481 Y1.9662  
G01 X-1.7491 Y1.9700  
G01 X-1.7491 Y2.0939  
G01 X-1.7530 Y2.0939  
G01 X-1.7588 Y2.0951  
G01 X-1.7643 Y2.0973  
G01 X-1.7692 Y2.1006  
G01 X-1.7734 Y2.1048  
G01 X-1.7767 Y2.1097  
G01 X-1.7789 Y2.1152  
G01 X-1.7801 Y2.1210  
G01 X-1.7801 Y2.1790  
G01 X-1.7789 Y2.1848  
G01 X-1.7767 Y2.1903  
G01 X-1.7734 Y2.1952  
G01 X-1.7692 Y2.1994  
G01 X-1.7643 Y2.2027  
G01 X-1.7588 Y2.2049  
G01 X-1.7530 Y2.2061  
G01 X-1.7470 Y2.2061  
G01 X-1.7412 Y2.2049  
G01 X-1.7357 Y2.2027  
G01 X-1.7315 Y2.1998  
G01 X-1.5223 Y2.4091  
G01 X-1.5188 Y2.4111  
G01 X-1.5150 Y2.4121  
G01 X-1.4161 Y2.4121  
G01 X-1.4161 Y2.4274  
G01 X-1.3774 Y2.4661  
G01 X-1.3226 Y2.4661  
G01 X-1.2839 Y2.4274  
G01 X-1.2839 Y2.3726  
G01 X-1.3226 Y2.3339  
G01 X-1.3774 Y2.3339  
G01 X-1.4161 Y2.3726  
G01 X-1.4161 Y2.3819  
G01 X-1.5067 Y2.3819  
G01 X-1.7199 Y2.1687  
G01 X-1.7199 Y2.1477  
G01 X-1.7195 Y2.1463  
G01 X-1.7190 Y2.1449  
G01 X-1.7190 Y2.1444  
G01 X-1.7189 Y2.1440  
G01 X-1.7189 Y2.1425  
G01 X-1.7188 Y2.1409  
G01 X-1.7189 Y2.1405  
G01 X-1.7189 Y2.0891  
G01 X-1.6213 Y2.0891  
G01 X-1.4543 Y2.2561  
G01 X-1.4508 Y2.2581  
G01 X-1.4470 Y2.2591  
G01 X-1.3323 Y2.2591  
G01 X-0.8423 Y2.7491  
G01 X-0.8388 Y2.7511  
G01 X-0.8350 Y2.7521  
G01 X-0.5471 Y2.7521  
G01 X-0.5471 Y2.7695  
G01 X-0.5195 Y2.7971  
G01 X-0.4805 Y2.7971  
G01 X-0.4529 Y2.7695  
G01 X-0.4529 Y2.7305  
G01 X-0.4805 Y2.7029  
G01 X-0.5195 Y2.7029  
G01 X-0.5385 Y2.7219  
G01 X-0.8267 Y2.7219  
G01 X-1.3139 Y2.2347  
G01 X-1.3167 Y2.2319  
G01 X-1.3202 Y2.2299  
G01 X-1.3240 Y2.2289  
G01 X-1.4387 Y2.2289  
G01 X-1.6029 Y2.0647  
G01 X-1.6057 Y2.0619  
G01 X-1.6092 Y2.0599  
G01 X-1.6130 Y2.0589  
G01 X-1.7189 Y2.0589  
G01 X-1.7189 Y1.9783  
G01 X-1.6230 Y1.8823  
G01 X-1.6162 Y1.8891  
G01 X-1.5838 Y1.8891  
G01 X-1.5628 Y1.8681  
G01 X-1.3344 Y1.8681  
G01 X-1.3154 Y1.8871  
G01 X-1.2846 Y1.8871  
G01 X-1.2656 Y1.8681  
G01 X-1.1245 Y1.8681  
G01 X-1.1125 Y1.8801  
G01 X-1.0875 Y1.8801  
G01 X-1.0699 Y1.8625  
G01 X-1.0699 Y1.8393  
G01 X-0.9739 Y1.7433  
G01 X-0.9719 Y1.7398  
G01 X-0.9709 Y1.7360  
G01 X-0.9709 Y1.0350  
G01 X-0.9719 Y1.0312  
G01 X-0.9739 Y1.0277  
G01 X-0.9767 Y1.0249  
G01 X-1.0219 Y0.9797  
G01 X-1.0219 Y0.9645  
G01 X-1.0199 Y0.9625  
G01 X-1.0199 Y0.9375  
G01 X-1.0375 Y0.9199  
G01 X-1.0625 Y0.9199  
G01 X-1.0795 Y0.9369  
G01 X-1.3110 Y0.9369  
G01 X-1.3148 Y0.9379  
G01 X-1.3183 Y0.9399  
G01 X-1.4983 Y1.1199  
G01 X-1.5030 Y1.1199  
G01 X-1.5088 Y1.1211  
G01 X-1.5143 Y1.1233  
G01 X-1.5192 Y1.1266  
G01 X-1.5234 Y1.1308  
G01 X-1.5267 Y1.1357  
G01 X-1.5289 Y1.1412  
G01 X-1.5301 Y1.1470  
G01 X-1.5301 Y1.1530  
G01 X-1.5289 Y1.1588  
G01 X-1.5281 Y1.1608  
G01 X-1.5281 Y1.3877  
G01 X-1.8423 Y1.7019  
G01 X-2.1017 Y1.7019  
G01 X-2.2459 Y1.5577  
G01 X-2.2459 Y1.3801  
G01 X-2.2375 Y1.3801  
G01 X-2.2199 Y1.3625  
G01 X-2.2199 Y1.3375  
G01 X-2.2375 Y1.3199  
G01 X-2.2625 Y1.3199  
G01 X-2.2626 Y1.3200  
G01 X-2.3819 Y1.2007  
G01 X-2.3819 Y1.1745  
G01 X-2.3699 Y1.1625  
G01 X-2.3699 Y1.1375  
G01 X-2.3875 Y1.1199  
G01 X-2.4117 Y1.1199  
G01 X-2.4499 Y1.0817  
G01 X-2.4499 Y0.9923  
G01 X-2.0677 Y0.6101  
G01 X-2.0463 Y0.6101  
G01 X-1.8001 Y0.8563  
G01 X-1.8001 Y0.9200  
G01 X-1.7991 Y0.9238  
G01 X-1.7971 Y0.9273  
G01 X-1.7943 Y0.9301  
G01 X-1.6801 Y1.0443  
G01 X-1.6801 Y1.0625  
G01 X-1.6625 Y1.0801  
G01 X-1.6375 Y1.0801  
G01 X-1.6199 Y1.0625  
G01 X-1.6199 Y1.0375  
G01 X-1.6375 Y1.0199  
G01 X-1.6617 Y1.0199  
G01 X-1.7699 Y0.9117  
G01 X-1.7699 Y0.8480  
G01 X-1.7709 Y0.8442  
G01 X-1.7729 Y0.8407  
G01 X-2.0249 Y0.5887  
G01 X-2.0249 Y0.3463  
G01 X-1.9656 Y0.2869  
G01 X-1.9654 Y0.2871  
G01 X-1.9346 Y0.2871  
G01 X-1.9129 Y0.2654  
G01 X-1.9129 Y0.2346  
G01 X-1.9131 Y0.2344  
G01 X-1.7787 Y0.1001  
G01 X-0.8733 Y0.1001  
G01 X-0.8407 Y0.1326  
G01 X-0.8411 Y0.1330  
G01 X-0.8411 Y0.1670  
G01 X-0.8170 Y0.1911  
G01 X-0.7830 Y0.1911  
G01 X-0.7600 Y0.1681  
G01 X-0.7400 Y0.1681  
G01 X-0.7291 Y0.1790  
G01 X-0.7291 Y0.2210  
G01 X-0.7411 Y0.2330  
G01 X-0.7411 Y0.2399  
G01 X-0.7589 Y0.2399  
G01 X-0.7589 Y0.2330  
G01 X-0.7830 Y0.2089  
G01 X-0.8170 Y0.2089  
G01 X-0.8411 Y0.2330  
G01 X-0.8411 Y0.2670  
G01 X-0.8170 Y0.2911  
G01 X-0.8141 Y0.2911  
G01 X-0.8141 Y0.4516  
G01 X-0.8481 Y0.4516  
G01 X-0.8556 Y0.4528  
G01 X-0.8628 Y0.4552  
G01 X-0.8696 Y0.4586  
G01 X-0.8757 Y0.4631  
G01 X-0.8811 Y0.4685  
G01 X-0.8856 Y0.4747  
G01 X-0.8891 Y0.4814  
G01 X-0.8914 Y0.4887  
G01 X-0.8926 Y0.4962  
G01 X-0.8926 Y0.5038  
G01 X-0.8914 Y0.5113  
G01 X-0.8891 Y0.5186  
G01 X-0.8856 Y0.5253  
G01 X-0.8811 Y0.5315  
G01 X-0.8757 Y0.5369  
G01 X-0.8696 Y0.5414  
G01 X-0.8628 Y0.5448  
G01 X-0.8556 Y0.5472  
G01 X-0.8481 Y0.5483  
G01 X-0.7519 Y0.5483  
G01 X-0.7444 Y0.5472  
G01 X-0.7372 Y0.5448  
G01 X-0.7304 Y0.5414  
G01 X-0.7243 Y0.5369  
G01 X-0.7189 Y0.5315  
G01 X-0.7144 Y0.5253  
G01 X-0.7109 Y0.5186  
G01 X-0.7086 Y0.5113  
G01 X-0.7074 Y0.5038  
G01 X-0.7074 Y0.4962  
G01 X-0.7086 Y0.4887  
G01 X-0.7109 Y0.4814  
G01 X-0.7144 Y0.4747  
G01 X-0.7189 Y0.4685  
G01 X-0.7243 Y0.4631  
G01 X-0.7304 Y0.4586  
G01 X-0.7372 Y0.4552  
G01 X-0.7444 Y0.4528  
G01 X-0.7519 Y0.4516  
G01 X-0.7839 Y0.4516  
G01 X-0.7839 Y0.2911  
G01 X-0.7830 Y0.2911  
G01 X-0.7620 Y0.2701  
G01 X-0.7380 Y0.2701  
G01 X-0.7170 Y0.2911  
G01 X-0.6830 Y0.2911  
G01 X-0.6589 Y0.2670  
G01 X-0.6589 Y0.2330  
G01 X-0.6830 Y0.2089  
G01 X-0.6989 Y0.2089  
G01 X-0.6989 Y0.1911  
G01 X-0.6830 Y0.1911  
G01 X-0.6600 Y0.1681  
G01 X-0.6400 Y0.1681  
G01 X-0.6271 Y0.1810  
G01 X-0.6271 Y0.2190  
G01 X-0.6411 Y0.2330  
G01 X-0.6411 Y0.2670  
G01 X-0.6170 Y0.2911  
G01 X-0.6101 Y0.2911  
G01 X-0.6101 Y0.3590  
G01 X-0.6091 Y0.3628  
G01 X-0.6071 Y0.3663  
G01 X-0.2664 Y0.7070  
G01 X-0.2696 Y0.7086  
G01 X-0.2757 Y0.7131  
G01 X-0.2811 Y0.7185  
G01 X-0.2856 Y0.7247  
G01 X-0.2891 Y0.7314  
G01 X-0.2914 Y0.7387  
G01 X-0.2926 Y0.7462  
G01 X-0.2926 Y0.7538  
G01 X-0.2914 Y0.7613  
G01 X-0.2891 Y0.7686  
G01 X-0.2856 Y0.7753  
G01 X-0.2811 Y0.7815  
G01 X-0.2757 Y0.7869  
G01 X-0.2696 Y0.7914  
G01 X-0.2628 Y0.7948  
G01 X-0.2556 Y0.7972  
G01 X-0.2481 Y0.7983  
G01 X-0.2191 Y0.7983  
G01 X-0.2191 Y0.8947  
G01 X-0.4151 Y1.0907  
G01 X-0.4224 Y1.0834  
G01 X-0.4776 Y1.0834  
G01 X-0.5166 Y1.1224  
G01 X-0.5166 Y1.1776  
G01 X-0.4776 Y1.2166  
G01 X-0.4741 Y1.2166  
G01 X-0.4741 Y1.3834  
G01 X-0.4776 Y1.3834  
G01 X-0.5166 Y1.4224  
G01 X-0.5166 Y1.4776  
G01 X-0.4776 Y1.5166  
G01 X-0.4224 Y1.5166  
G01 X-0.3834 Y1.4776  
G01 X-0.3834 Y1.4224  
G01 X-0.4224 Y1.3834  
G01 X-0.4439 Y1.3834  
G01 X-0.4439 Y1.2166  
G01 X-0.4224 Y1.2166  
G01 X-0.3834 Y1.1776  
G01 X-0.3834 Y1.1224  
G01 X-0.3937 Y1.1121  
G01 X-0.1919 Y0.9103  
G01 X-0.1899 Y0.9068  
G01 X-0.1889 Y0.9030  
G01 X-0.1889 Y0.7983  
G01 X-0.1519 Y0.7983  
G01 X-0.1444 Y0.7972  
G01 X-0.1372 Y0.7948  
G01 X-0.1304 Y0.7914  
G01 X-0.1243 Y0.7869  
G01 X-0.1189 Y0.7815  
G01 X-0.1144 Y0.7753  
G01 X-0.1109 Y0.7686  
G01 X-0.1086 Y0.7613  
G01 X-0.1074 Y0.7538  
G01 X-0.1074 Y0.7462  
G01 X-0.1086 Y0.7387  
G01 X-0.1109 Y0.7314  
G01 X-0.1144 Y0.7247  
G01 X-0.1189 Y0.7185  
G01 X-0.1243 Y0.7131  
G01 X-0.1304 Y0.7086  
G01 X-0.1372 Y0.7052  
G01 X-0.1444 Y0.7028  
G01 X-0.1519 Y0.7016  
G01 X-0.2290 Y0.7016  
G01 X-0.5799 Y0.3507  
G01 X-0.5799 Y0.2880  
G01 X-0.5589 Y0.2670  
G01 X-0.5589 Y0.2330  
G01 X-0.5830 Y0.2089  
G01 X-0.5969 Y0.2089  
G01 X-0.5969 Y0.1911  
G01 X-0.5830 Y0.1911  
G01 X-0.5589 Y0.1670  
G01 X-0.5589 Y0.1330  
G00 Z0.1000  
G00 X-0.4411 Y0.2330  
G01 Z-0.0020 F10    
G01 X-0.4411 Y0.2670  F20    
G01 X-0.4170 Y0.2911  
G01 X-0.3830 Y0.2911  
G01 X-0.3589 Y0.2670  
G01 X-0.3589 Y0.2330  
G01 X-0.3830 Y0.2089  
G01 X-0.4170 Y0.2089  
G01 X-0.4411 Y0.2330  
G00 Z0.1000  
G00 X-0.3411 Y0.2330  
G01 Z-0.0020 F10    
G01 X-0.3411 Y0.2670  F20    
G01 X-0.3170 Y0.2911  
G01 X-0.2830 Y0.2911  
G01 X-0.2589 Y0.2670  
G01 X-0.2589 Y0.2330  
G01 X-0.2830 Y0.2089  
G01 X-0.3170 Y0.2089  
G01 X-0.3411 Y0.2330  
G00 Z0.1000  
G00 X-0.2411 Y0.2330  
G01 Z-0.0020 F10    
G01 X-0.2411 Y0.2670  F20    
G01 X-0.2170 Y0.2911  
G01 X-0.1830 Y0.2911  
G01 X-0.1589 Y0.2670  
G01 X-0.1589 Y0.2330  
G01 X-0.1830 Y0.2089  
G01 X-0.2170 Y0.2089  
G01 X-0.2411 Y0.2330  
G00 Z0.1000  
G00 X-0.8589 Y0.2330  
G01 Z-0.0020 F10    
G01 X-0.8830 Y0.2089  F20    
G01 X-0.8859 Y0.2089  
G01 X-0.8859 Y0.1911  
G01 X-0.8830 Y0.1911  
G01 X-0.8589 Y0.1670  
G01 X-0.8589 Y0.1330  
G01 X-0.8830 Y0.1089  
G01 X-0.9170 Y0.1089  
G01 X-0.9411 Y0.1330  
G01 X-0.9411 Y0.1670  
G01 X-0.9170 Y0.1911  
G01 X-0.9161 Y0.1911  
G01 X-0.9161 Y0.2089  
G01 X-0.9170 Y0.2089  
G01 X-0.9411 Y0.2330  
G01 X-0.9411 Y0.2670  
G01 X-0.9331 Y0.2750  
G01 X-0.9331 Y0.4779  
G01 X-1.9910 Y0.4779  
G01 X-1.9948 Y0.4789  
G01 X-1.9983 Y0.4809  
G01 X-2.0011 Y0.4837  
G01 X-2.0181 Y0.5007  
G01 X-2.0201 Y0.5042  
G01 X-2.0211 Y0.5080  
G01 X-2.0211 Y0.5800  
G01 X-2.0201 Y0.5838  
G01 X-2.0181 Y0.5873  
G01 X-2.0153 Y0.5901  
G01 X-1.7661 Y0.8393  
G01 X-1.7661 Y0.8520  
G01 X-1.7651 Y0.8558  
G01 X-1.7631 Y0.8593  
G01 X-1.7603 Y0.8621  
G01 X-1.6801 Y0.9423  
G01 X-1.6801 Y0.9625  
G01 X-1.6625 Y0.9801  
G01 X-1.6375 Y0.9801  
G01 X-1.6199 Y0.9625  
G01 X-1.6199 Y0.9375  
G01 X-1.6250 Y0.9324  
G01 X-1.5577 Y0.8651  
G01 X-1.5261 Y0.8651  
G01 X-1.5234 Y0.8692  
G01 X-1.5192 Y0.8734  
G01 X-1.5143 Y0.8767  
G01 X-1.5088 Y0.8789  
G01 X-1.5030 Y0.8801  
G01 X-1.4970 Y0.8801  
G01 X-1.4912 Y0.8789  
G01 X-1.4857 Y0.8767  
G01 X-1.4808 Y0.8734  
G01 X-1.4766 Y0.8692  
G01 X-1.4733 Y0.8643  
G01 X-1.4711 Y0.8588  
G01 X-1.4699 Y0.8530  
G01 X-1.4699 Y0.8470  
G01 X-1.4711 Y0.8412  
G01 X-1.4733 Y0.8357  
G01 X-1.4766 Y0.8308  
G01 X-1.4808 Y0.8266  
G01 X-1.4857 Y0.8233  
G01 X-1.4912 Y0.8211  
G01 X-1.4970 Y0.8199  
G01 X-1.5030 Y0.8199  
G01 X-1.5088 Y0.8211  
G01 X-1.5143 Y0.8233  
G01 X-1.5192 Y0.8266  
G01 X-1.5234 Y0.8308  
G01 X-1.5261 Y0.8349  
G01 X-1.5660 Y0.8349  
G01 X-1.5698 Y0.8359  
G01 X-1.5733 Y0.8379  
G01 X-1.6553 Y0.9199  
G01 X-1.6597 Y0.9199  
G01 X-1.7359 Y0.8437  
G01 X-1.7359 Y0.8310  
G01 X-1.7369 Y0.8272  
G01 X-1.7389 Y0.8237  
G01 X-1.7417 Y0.8209  
G01 X-1.9909 Y0.5717  
G01 X-1.9909 Y0.5163  
G01 X-1.9827 Y0.5081  
G01 X-0.9331 Y0.5081  
G01 X-0.9331 Y0.5290  
G01 X-0.9321 Y0.5328  
G01 X-0.9301 Y0.5363  
G01 X-0.9273 Y0.5391  
G01 X-0.8311 Y0.6353  
G01 X-0.8311 Y0.7016  
G01 X-0.8481 Y0.7016  
G01 X-0.8556 Y0.7028  
G01 X-0.8628 Y0.7052  
G01 X-0.8696 Y0.7086  
G01 X-0.8757 Y0.7131  
G01 X-0.8811 Y0.7185  
G01 X-0.8856 Y0.7247  
G01 X-0.8891 Y0.7314  
G01 X-0.8914 Y0.7387  
G01 X-0.8926 Y0.7462  
G01 X-0.8926 Y0.7538  
G01 X-0.8914 Y0.7613  
G01 X-0.8891 Y0.7686  
G01 X-0.8856 Y0.7753  
G01 X-0.8811 Y0.7815  
G01 X-0.8757 Y0.7869  
G01 X-0.8696 Y0.7914  
G01 X-0.8628 Y0.7948  
G01 X-0.8556 Y0.7972  
G01 X-0.8481 Y0.7983  
G01 X-0.7519 Y0.7983  
G01 X-0.7444 Y0.7972  
G01 X-0.7372 Y0.7948  
G01 X-0.7304 Y0.7914  
G01 X-0.7243 Y0.7869  
G01 X-0.7189 Y0.7815  
G01 X-0.7144 Y0.7753  
G01 X-0.7109 Y0.7686  
G01 X-0.7086 Y0.7613  
G01 X-0.7074 Y0.7538  
G01 X-0.7074 Y0.7462  
G01 X-0.7086 Y0.7387  
G01 X-0.7109 Y0.7314  
G01 X-0.7144 Y0.7247  
G01 X-0.7189 Y0.7185  
G01 X-0.7243 Y0.7131  
G01 X-0.7304 Y0.7086  
G01 X-0.7372 Y0.7052  
G01 X-0.7444 Y0.7028  
G01 X-0.7519 Y0.7016  
G01 X-0.8009 Y0.7016  
G01 X-0.8009 Y0.6270  
G01 X-0.8019 Y0.6232  
G01 X-0.8039 Y0.6197  
G01 X-0.9029 Y0.5207  
G01 X-0.9029 Y0.2911  
G01 X-0.8830 Y0.2911  
G01 X-0.8589 Y0.2670  
G01 X-0.8589 Y0.2330  
G00 Z0.1000  
G00 X-0.9059 Y0.7897  
G01 Z-0.0020 F10    
G01 X-1.1099 Y0.5857  F20    
G01 X-1.1127 Y0.5829  
G01 X-1.1162 Y0.5809  
G01 X-1.1200 Y0.5799  
G01 X-1.1750 Y0.5799  
G01 X-1.1788 Y0.5809  
G01 X-1.1823 Y0.5829  
G01 X-1.2163 Y0.6169  
G01 X-1.2191 Y0.6197  
G01 X-1.2211 Y0.6232  
G01 X-1.2221 Y0.6270  
G01 X-1.2221 Y0.8295  
G01 X-1.2234 Y0.8308  
G01 X-1.2261 Y0.8349  
G01 X-1.2739 Y0.8349  
G01 X-1.2766 Y0.8308  
G01 X-1.2808 Y0.8266  
G01 X-1.2857 Y0.8233  
G01 X-1.2912 Y0.8211  
G01 X-1.2970 Y0.8199  
G01 X-1.3030 Y0.8199  
G01 X-1.3088 Y0.8211  
G01 X-1.3143 Y0.8233  
G01 X-1.3192 Y0.8266  
G01 X-1.3234 Y0.8308  
G01 X-1.3267 Y0.8357  
G01 X-1.3289 Y0.8412  
G01 X-1.3301 Y0.8470  
G01 X-1.3301 Y0.8497  
G01 X-1.5703 Y1.0899  
G01 X-1.6597 Y1.0899  
G01 X-1.8209 Y0.9287  
G01 X-1.8209 Y0.9135  
G01 X-1.8199 Y0.9125  
G01 X-1.8199 Y0.8875  
G01 X-1.8375 Y0.8699  
G01 X-1.8625 Y0.8699  
G01 X-1.8801 Y0.8875  
G01 X-1.8801 Y0.9125  
G01 X-1.8625 Y0.9301  
G01 X-1.8511 Y0.9301  
G01 X-1.8511 Y0.9370  
G01 X-1.8501 Y0.9408  
G01 X-1.8481 Y0.9443  
G01 X-1.6781 Y1.1143  
G01 X-1.6753 Y1.1171  
G01 X-1.6718 Y1.1191  
G01 X-1.6680 Y1.1201  
G01 X-1.5791 Y1.1201  
G01 X-1.5791 Y1.1580  
G01 X-1.5781 Y1.1618  
G01 X-1.5761 Y1.1653  
G01 X-1.5733 Y1.1681  
G01 X-1.5621 Y1.1793  
G01 X-1.5621 Y1.3707  
G01 X-1.8593 Y1.6679  
G01 X-2.0167 Y1.6679  
G01 X-2.0419 Y1.6427  
G01 X-2.0419 Y1.5533  
G01 X-2.0167 Y1.5281  
G01 X-2.0040 Y1.5281  
G01 X-2.0002 Y1.5271  
G01 X-1.9967 Y1.5251  
G01 X-1.9939 Y1.5223  
G01 X-1.8517 Y1.3801  
G01 X-1.8375 Y1.3801  
G01 X-1.8199 Y1.3625  
G01 X-1.8199 Y1.3375  
G01 X-1.8375 Y1.3199  
G01 X-1.8625 Y1.3199  
G01 X-1.8801 Y1.3375  
G01 X-1.8801 Y1.3625  
G01 X-1.8785 Y1.3641  
G01 X-2.0123 Y1.4979  
G01 X-2.0250 Y1.4979  
G01 X-2.0288 Y1.4989  
G01 X-2.0323 Y1.5009  
G01 X-2.0351 Y1.5037  
G01 X-2.0663 Y1.5349  
G01 X-2.0691 Y1.5377  
G01 X-2.0711 Y1.5412  
G01 X-2.0721 Y1.5450  
G01 X-2.0721 Y1.6510  
G01 X-2.0711 Y1.6548  
G01 X-2.0691 Y1.6583  
G01 X-2.0351 Y1.6923  
G01 X-2.0323 Y1.6951  
G01 X-2.0288 Y1.6971  
G01 X-2.0250 Y1.6981  
G01 X-1.8510 Y1.6981  
G01 X-1.8472 Y1.6971  
G01 X-1.8437 Y1.6951  
G01 X-1.5377 Y1.3891  
G01 X-1.5349 Y1.3863  
G01 X-1.5329 Y1.3828  
G01 X-1.5319 Y1.3790  
G01 X-1.5319 Y1.1710  
G01 X-1.5329 Y1.1672  
G01 X-1.5349 Y1.1637  
G01 X-1.5489 Y1.1497  
G01 X-1.5489 Y1.1113  
G01 X-1.3143 Y0.8766  
G01 X-1.3088 Y0.8789  
G01 X-1.3030 Y0.8801  
G01 X-1.2970 Y0.8801  
G01 X-1.2912 Y0.8789  
G01 X-1.2857 Y0.8767  
G01 X-1.2808 Y0.8734  
G01 X-1.2766 Y0.8692  
G01 X-1.2739 Y0.8651  
G01 X-1.2261 Y0.8651  
G01 X-1.2234 Y0.8692  
G01 X-1.2192 Y0.8734  
G01 X-1.2143 Y0.8767  
G01 X-1.2088 Y0.8789  
G01 X-1.2030 Y0.8801  
G01 X-1.1970 Y0.8801  
G01 X-1.1912 Y0.8789  
G01 X-1.1857 Y0.8767  
G01 X-1.1808 Y0.8734  
G01 X-1.1766 Y0.8692  
G01 X-1.1733 Y0.8643  
G01 X-1.1711 Y0.8588  
G01 X-1.1699 Y0.8530  
G01 X-1.1699 Y0.8470  
G01 X-1.1711 Y0.8412  
G01 X-1.1733 Y0.8357  
G01 X-1.1766 Y0.8308  
G01 X-1.1808 Y0.8266  
G01 X-1.1857 Y0.8233  
G01 X-1.1912 Y0.8211  
G01 X-1.1919 Y0.8209  
G01 X-1.1919 Y0.6353  
G01 X-1.1667 Y0.6101  
G01 X-1.1283 Y0.6101  
G01 X-0.9331 Y0.8053  
G01 X-0.9331 Y1.4130  
G01 X-0.9321 Y1.4168  
G01 X-0.9301 Y1.4203  
G01 X-0.9273 Y1.4231  
G01 X-0.4741 Y1.8763  
G01 X-0.4741 Y2.0884  
G01 X-0.4793 Y2.0906  
G01 X-0.4868 Y2.0949  
G01 X-0.4937 Y2.1002  
G01 X-0.4998 Y2.1063  
G01 X-0.5051 Y2.1132  
G01 X-0.5094 Y2.1207  
G01 X-0.5127 Y2.1287  
G01 X-0.5150 Y2.1371  
G01 X-0.5161 Y2.1457  
G01 X-0.5161 Y2.1543  
G01 X-0.5150 Y2.1629  
G01 X-0.5127 Y2.1713  
G01 X-0.5094 Y2.1793  
G01 X-0.5051 Y2.1868  
G01 X-0.4998 Y2.1937  
G01 X-0.4937 Y2.1998  
G01 X-0.4868 Y2.2051  
G01 X-0.4793 Y2.2094  
G01 X-0.4713 Y2.2127  
G01 X-0.4629 Y2.2150  
G01 X-0.4543 Y2.2161  
G01 X-0.4457 Y2.2161  
G01 X-0.4371 Y2.2150  
G01 X-0.4287 Y2.2127  
G01 X-0.4207 Y2.2094  
G01 X-0.4132 Y2.2051  
G01 X-0.4063 Y2.1998  
G01 X-0.4002 Y2.1937  
G01 X-0.3949 Y2.1868  
G01 X-0.3906 Y2.1793  
G01 X-0.3873 Y2.1713  
G01 X-0.3850 Y2.1629  
G01 X-0.3839 Y2.1543  
G01 X-0.3839 Y2.1457  
G01 X-0.3850 Y2.1371  
G01 X-0.3873 Y2.1287  
G01 X-0.3906 Y2.1207  
G01 X-0.3949 Y2.1132  
G01 X-0.4002 Y2.1063  
G01 X-0.4063 Y2.1002  
G01 X-0.4132 Y2.0949  
G01 X-0.4207 Y2.0906  
G01 X-0.4287 Y2.0873  
G01 X-0.4371 Y2.0850  
G01 X-0.4439 Y2.0841  
G01 X-0.4439 Y1.8680  
G01 X-0.4449 Y1.8642  
G01 X-0.4469 Y1.8607  
G01 X-0.9029 Y1.4047  
G01 X-0.9029 Y0.7970  
G01 X-0.9039 Y0.7932  
G01 X-0.9059 Y0.7897  
G00 Z0.1000  
G00 X-0.9399 Y0.9597  
G01 Z-0.0020 F10    
G01 X-0.9427 Y0.9569  F20    
G01 X-1.1239 Y0.7757  
G01 X-1.1239 Y0.6665  
G01 X-1.1199 Y0.6625  
G01 X-1.1199 Y0.6375  
G01 X-1.1375 Y0.6199  
G01 X-1.1625 Y0.6199  
G01 X-1.1801 Y0.6375  
G01 X-1.1801 Y0.6625  
G01 X-1.1625 Y0.6801  
G01 X-1.1541 Y0.6801  
G01 X-1.1541 Y0.7840  
G01 X-1.1531 Y0.7878  
G01 X-1.1511 Y0.7913  
G01 X-0.9671 Y0.9753  
G01 X-0.9671 Y1.6170  
G01 X-0.9661 Y1.6208  
G01 X-0.9641 Y1.6243  
G01 X-0.5591 Y2.0293  
G01 X-0.5591 Y2.6030  
G01 X-0.5581 Y2.6068  
G01 X-0.5561 Y2.6103  
G01 X-0.4415 Y2.7249  
G01 X-0.4471 Y2.7305  
G01 X-0.4471 Y2.7695  
G01 X-0.4195 Y2.7971  
G01 X-0.3805 Y2.7971  
G01 X-0.3529 Y2.7695  
G01 X-0.3529 Y2.7305  
G01 X-0.3805 Y2.7029  
G01 X-0.4195 Y2.7029  
G01 X-0.4201 Y2.7035  
G01 X-0.5289 Y2.5947  
G01 X-0.5289 Y2.0210  
G01 X-0.5299 Y2.0172  
G01 X-0.5319 Y2.0137  
G01 X-0.5347 Y2.0109  
G01 X-0.9369 Y1.6087  
G01 X-0.9369 Y0.9670  
G01 X-0.9379 Y0.9632  
G01 X-0.9399 Y0.9597  
G00 Z0.1000  
G00 X-1.2766 Y1.1308  
G01 Z-0.0020 F10    
G01 X-1.2808 Y1.1266  F20    
G01 X-1.2857 Y1.1233  
G01 X-1.2912 Y1.1211  
G01 X-1.2970 Y1.1199  
G01 X-1.3030 Y1.1199  
G01 X-1.3088 Y1.1211  
G01 X-1.3143 Y1.1233  
G01 X-1.3192 Y1.1266  
G01 X-1.3234 Y1.1308  
G01 X-1.3267 Y1.1357  
G01 X-1.3288 Y1.1409  
G01 X-1.3712 Y1.1409  
G01 X-1.3733 Y1.1357  
G01 X-1.3766 Y1.1308  
G01 X-1.3808 Y1.1266  
G01 X-1.3857 Y1.1233  
G01 X-1.3912 Y1.1211  
G01 X-1.3970 Y1.1199  
G01 X-1.4030 Y1.1199  
G01 X-1.4088 Y1.1211  
G01 X-1.4143 Y1.1233  
G01 X-1.4192 Y1.1266  
G01 X-1.4234 Y1.1308  
G01 X-1.4267 Y1.1357  
G01 X-1.4289 Y1.1412  
G01 X-1.4301 Y1.1470  
G01 X-1.4301 Y1.1530  
G01 X-1.4289 Y1.1588  
G01 X-1.4267 Y1.1643  
G01 X-1.4234 Y1.1692  
G01 X-1.4192 Y1.1734  
G01 X-1.4143 Y1.1767  
G01 X-1.4088 Y1.1789  
G01 X-1.4030 Y1.1801  
G01 X-1.3970 Y1.1801  
G01 X-1.3912 Y1.1789  
G01 X-1.3857 Y1.1767  
G01 X-1.3808 Y1.1734  
G01 X-1.3785 Y1.1711  
G01 X-1.3215 Y1.1711  
G01 X-1.3192 Y1.1734  
G01 X-1.3143 Y1.1767  
G01 X-1.3088 Y1.1789  
G01 X-1.3030 Y1.1801  
G01 X-1.2970 Y1.1801  
G01 X-1.2912 Y1.1789  
G01 X-1.2857 Y1.1767  
G01 X-1.2808 Y1.1734  
G01 X-1.2766 Y1.1692  
G01 X-1.2733 Y1.1643  
G01 X-1.2711 Y1.1588  
G01 X-1.2699 Y1.1530  
G01 X-1.2699 Y1.1470  
G01 X-1.2711 Y1.1412  
G01 X-1.2733 Y1.1357  
G01 X-1.2766 Y1.1308  
G00 Z0.1000  
G00 X-1.3808 Y0.8734  
G01 Z-0.0020 F10    
G01 X-1.3766 Y0.8692  F20    
G01 X-1.3733 Y0.8643  
G01 X-1.3711 Y0.8588  
G01 X-1.3699 Y0.8530  
G01 X-1.3699 Y0.8470  
G01 X-1.3711 Y0.8412  
G01 X-1.3733 Y0.8357  
G01 X-1.3766 Y0.8308  
G01 X-1.3808 Y0.8266  
G01 X-1.3857 Y0.8233  
G01 X-1.3912 Y0.8211  
G01 X-1.3959 Y0.8201  
G01 X-1.3959 Y0.7970  
G01 X-1.3969 Y0.7932  
G01 X-1.3989 Y0.7897  
G01 X-1.5230 Y0.6656  
G01 X-1.5199 Y0.6625  
G01 X-1.5199 Y0.6375  
G01 X-1.5375 Y0.6199  
G01 X-1.5625 Y0.6199  
G01 X-1.5656 Y0.6230  
G01 X-1.6397 Y0.5489  
G01 X-1.6432 Y0.5469  
G01 X-1.6470 Y0.5459  
G01 X-1.9129 Y0.5459  
G01 X-1.9129 Y0.5346  
G01 X-1.9346 Y0.5129  
G01 X-1.9654 Y0.5129  
G01 X-1.9871 Y0.5346  
G01 X-1.9871 Y0.5654  
G01 X-1.9654 Y0.5871  
G01 X-1.9346 Y0.5871  
G01 X-1.9236 Y0.5761  
G01 X-1.6553 Y0.5761  
G01 X-1.5801 Y0.6513  
G01 X-1.5801 Y0.6625  
G01 X-1.5625 Y0.6801  
G01 X-1.5513 Y0.6801  
G01 X-1.4261 Y0.8053  
G01 X-1.4261 Y0.8349  
G01 X-1.4267 Y0.8357  
G01 X-1.4289 Y0.8412  
G01 X-1.4301 Y0.8470  
G01 X-1.4301 Y0.8530  
G01 X-1.4289 Y0.8588  
G01 X-1.4267 Y0.8643  
G01 X-1.4234 Y0.8692  
G01 X-1.4192 Y0.8734  
G01 X-1.4143 Y0.8767  
G01 X-1.4088 Y0.8789  
G01 X-1.4030 Y0.8801  
G01 X-1.3970 Y0.8801  
G01 X-1.3912 Y0.8789  
G01 X-1.3857 Y0.8767  
G01 X-1.3808 Y0.8734  
G00 Z0.1000  
G00 X-1.5699 Y1.3375  
G01 Z-0.0020 F10    
G01 X-1.5875 Y1.3199  F20    
G01 X-1.6125 Y1.3199  
G01 X-1.6146 Y1.3220  
G01 X-1.6539 Y1.2827  
G01 X-1.6567 Y1.2799  
G01 X-2.0987 Y0.8379  
G01 X-2.1022 Y0.8359  
G01 X-2.1060 Y0.8349  
G01 X-2.2800 Y0.8349  
G01 X-2.2838 Y0.8359  
G01 X-2.2873 Y0.8379  
G01 X-2.2901 Y0.8407  
G01 X-2.4091 Y0.9597  
G01 X-2.4111 Y0.9632  
G01 X-2.4121 Y0.9670  
G01 X-2.4121 Y1.0199  
G01 X-2.4125 Y1.0199  
G01 X-2.4301 Y1.0375  
G01 X-2.4301 Y1.0625  
G01 X-2.4125 Y1.0801  
G01 X-2.3875 Y1.0801  
G01 X-2.3699 Y1.0625  
G01 X-2.3699 Y1.0375  
G01 X-2.3819 Y1.0255  
G01 X-2.3819 Y0.9753  
G01 X-2.2717 Y0.8651  
G01 X-2.1143 Y0.8651  
G01 X-1.6959 Y1.2835  
G01 X-1.9730 Y1.5606  
G01 X-1.9733 Y1.5597  
G01 X-1.9766 Y1.5548  
G01 X-1.9808 Y1.5506  
G01 X-1.9857 Y1.5473  
G01 X-1.9912 Y1.5451  
G01 X-1.9970 Y1.5439  
G01 X-2.0030 Y1.5439  
G01 X-2.0088 Y1.5451  
G01 X-2.0143 Y1.5473  
G01 X-2.0192 Y1.5506  
G01 X-2.0234 Y1.5548  
G01 X-2.0267 Y1.5597  
G01 X-2.0289 Y1.5652  
G01 X-2.0301 Y1.5710  
G01 X-2.0301 Y1.6290  
G01 X-2.0289 Y1.6348  
G01 X-2.0267 Y1.6403  
G01 X-2.0234 Y1.6452  
G01 X-2.0192 Y1.6494  
G01 X-2.0143 Y1.6527  
G01 X-2.0088 Y1.6549  
G01 X-2.0030 Y1.6561  
G01 X-1.9970 Y1.6561  
G01 X-1.9912 Y1.6549  
G01 X-1.9857 Y1.6527  
G01 X-1.9808 Y1.6494  
G01 X-1.9766 Y1.6452  
G01 X-1.9733 Y1.6403  
G01 X-1.9711 Y1.6348  
G01 X-1.9699 Y1.6290  
G01 X-1.9699 Y1.6003  
G01 X-1.6767 Y1.3071  
G01 X-1.6723 Y1.3071  
G01 X-1.6301 Y1.3493  
G01 X-1.6301 Y1.3625  
G01 X-1.6125 Y1.3801  
G01 X-1.5875 Y1.3801  
G01 X-1.5699 Y1.3625  
G01 X-1.5699 Y1.3375  
G00 Z0.1000  
G00 X-1.5223 Y1.5519  
G01 Z-0.0020 F10    
G01 X-1.5825 Y1.6122  F20    
G01 X-1.5838 Y1.6109  
G01 X-1.6162 Y1.6109  
G01 X-1.6391 Y1.6338  
G01 X-1.6391 Y1.6509  
G01 X-1.7020 Y1.6509  
G01 X-1.7058 Y1.6519  
G01 X-1.7093 Y1.6539  
G01 X-1.7121 Y1.6567  
G01 X-1.9273 Y1.8719  
G01 X-1.9699 Y1.8719  
G01 X-1.9699 Y1.8710  
G01 X-1.9711 Y1.8652  
G01 X-1.9733 Y1.8597  
G01 X-1.9766 Y1.8548  
G01 X-1.9808 Y1.8506  
G01 X-1.9857 Y1.8473  
G01 X-1.9912 Y1.8451  
G01 X-1.9970 Y1.8439  
G01 X-2.0030 Y1.8439  
G01 X-2.0088 Y1.8451  
G01 X-2.0143 Y1.8473  
G01 X-2.0192 Y1.8506  
G01 X-2.0234 Y1.8548  
G01 X-2.0267 Y1.8597  
G01 X-2.0289 Y1.8652  
G01 X-2.0301 Y1.8710  
G01 X-2.0301 Y1.9290  
G01 X-2.0289 Y1.9348  
G01 X-2.0267 Y1.9403  
G01 X-2.0234 Y1.9452  
G01 X-2.0192 Y1.9494  
G01 X-2.0143 Y1.9527  
G01 X-2.0088 Y1.9549  
G01 X-2.0030 Y1.9561  
G01 X-1.9970 Y1.9561  
G01 X-1.9912 Y1.9549  
G01 X-1.9857 Y1.9527  
G01 X-1.9808 Y1.9494  
G01 X-1.9766 Y1.9452  
G01 X-1.9733 Y1.9403  
G01 X-1.9711 Y1.9348  
G01 X-1.9699 Y1.9290  
G01 X-1.9699 Y1.9021  
G01 X-1.9190 Y1.9021  
G01 X-1.9152 Y1.9011  
G01 X-1.9117 Y1.8991  
G01 X-1.6937 Y1.6811  
G01 X-1.6242 Y1.6811  
G01 X-1.6162 Y1.6891  
G01 X-1.5838 Y1.6891  
G01 X-1.5609 Y1.6662  
G01 X-1.5609 Y1.6338  
G01 X-1.5612 Y1.6335  
G01 X-1.5067 Y1.5791  
G01 X-1.3234 Y1.5791  
G01 X-1.3154 Y1.5871  
G01 X-1.2846 Y1.5871  
G01 X-1.2629 Y1.5654  
G01 X-1.2629 Y1.5393  
G01 X-1.2007 Y1.4771  
G01 X-1.1155 Y1.4771  
G01 X-1.1125 Y1.4801  
G01 X-1.0875 Y1.4801  
G01 X-1.0699 Y1.4625  
G01 X-1.0699 Y1.4375  
G01 X-1.0875 Y1.4199  
G01 X-1.1125 Y1.4199  
G01 X-1.1301 Y1.4375  
G01 X-1.1301 Y1.4469  
G01 X-1.2090 Y1.4469  
G01 X-1.2128 Y1.4479  
G01 X-1.2163 Y1.4499  
G01 X-1.2819 Y1.5156  
G01 X-1.2846 Y1.5129  
G01 X-1.3154 Y1.5129  
G01 X-1.3371 Y1.5346  
G01 X-1.3371 Y1.5489  
G01 X-1.5150 Y1.5489  
G01 X-1.5188 Y1.5499  
G01 X-1.5223 Y1.5519  
G00 Z0.1000  
G00 X-1.6609 Y1.7338  
G01 Z-0.0020 F10    
G01 X-1.6838 Y1.7109  F20    
G01 X-1.7162 Y1.7109  
G01 X-1.7391 Y1.7338  
G01 X-1.7391 Y1.7662  
G01 X-1.7378 Y1.7675  
G01 X-2.0521 Y2.0817  
G01 X-2.0541 Y2.0852  
G01 X-2.0551 Y2.0890  
G01 X-2.0551 Y2.0943  
G01 X-2.0588 Y2.0951  
G01 X-2.0643 Y2.0973  
G01 X-2.0692 Y2.1006  
G01 X-2.0734 Y2.1048  
G01 X-2.0767 Y2.1097  
G01 X-2.0789 Y2.1152  
G01 X-2.0801 Y2.1210  
G01 X-2.0801 Y2.1790  
G01 X-2.0789 Y2.1848  
G01 X-2.0767 Y2.1903  
G01 X-2.0734 Y2.1952  
G01 X-2.0692 Y2.1994  
G01 X-2.0643 Y2.2027  
G01 X-2.0588 Y2.2049  
G01 X-2.0530 Y2.2061  
G01 X-2.0470 Y2.2061  
G01 X-2.0412 Y2.2049  
G01 X-2.0357 Y2.2027  
G01 X-2.0308 Y2.1994  
G01 X-2.0266 Y2.1952  
G01 X-2.0233 Y2.1903  
G01 X-2.0211 Y2.1848  
G01 X-2.0199 Y2.1790  
G01 X-2.0199 Y2.1210  
G01 X-2.0211 Y2.1152  
G01 X-2.0233 Y2.1097  
G01 X-2.0249 Y2.1074  
G01 X-2.0249 Y2.0973  
G01 X-1.7165 Y1.7888  
G01 X-1.7162 Y1.7891  
G01 X-1.6838 Y1.7891  
G01 X-1.6609 Y1.7662  
G01 X-1.6609 Y1.7338  
G00 Z0.1000  
G00 X-1.6588 Y2.0951  
G01 Z-0.0020 F10    
G01 X-1.6643 Y2.0973  F20    
G01 X-1.6692 Y2.1006  
G01 X-1.6734 Y2.1048  
G01 X-1.6767 Y2.1097  
G01 X-1.6789 Y2.1152  
G01 X-1.6801 Y2.1210  
G01 X-1.6801 Y2.1790  
G01 X-1.6789 Y2.1848  
G01 X-1.6767 Y2.1903  
G01 X-1.6734 Y2.1952  
G01 X-1.6692 Y2.1994  
G01 X-1.6643 Y2.2027  
G01 X-1.6588 Y2.2049  
G01 X-1.6530 Y2.2061  
G01 X-1.6470 Y2.2061  
G01 X-1.6412 Y2.2049  
G01 X-1.6357 Y2.2027  
G01 X-1.6308 Y2.1994  
G01 X-1.6304 Y2.1990  
G01 X-1.5393 Y2.2901  
G01 X-1.5358 Y2.2921  
G01 X-1.5320 Y2.2931  
G01 X-1.3493 Y2.2931  
G01 X-0.9161 Y2.7263  
G01 X-0.9161 Y2.9735  
G01 X-0.9301 Y2.9875  
G01 X-0.9301 Y3.0125  
G01 X-0.9125 Y3.0301  
G01 X-0.8875 Y3.0301  
G01 X-0.8699 Y3.0125  
G01 X-0.8699 Y2.9875  
G01 X-0.8859 Y2.9715  
G01 X-0.8859 Y2.7180  
G01 X-0.8869 Y2.7142  
G01 X-0.8889 Y2.7107  
G01 X-1.3309 Y2.2687  
G01 X-1.3337 Y2.2659  
G01 X-1.3372 Y2.2639  
G01 X-1.3410 Y2.2629  
G01 X-1.5237 Y2.2629  
G01 X-1.6199 Y2.1667  
G01 X-1.6199 Y2.1210  
G01 X-1.6211 Y2.1152  
G01 X-1.6233 Y2.1097  
G01 X-1.6266 Y2.1048  
G01 X-1.6308 Y2.1006  
G01 X-1.6357 Y2.0973  
G01 X-1.6412 Y2.0951  
G01 X-1.6470 Y2.0939  
G01 X-1.6530 Y2.0939  
G01 X-1.6588 Y2.0951  
G00 Z0.1000  
G00 X-1.4161 Y2.1226  
G01 Z-0.0020 F10    
G01 X-1.4161 Y2.1774  F20    
G01 X-1.3774 Y2.2161  
G01 X-1.3226 Y2.2161  
G01 X-1.2839 Y2.1774  
G01 X-1.2839 Y2.1383  
G01 X-0.9627 Y1.8171  
G01 X-0.8755 Y1.8171  
G01 X-0.8625 Y1.8301  
G01 X-0.8375 Y1.8301  
G01 X-0.8199 Y1.8125  
G01 X-0.8199 Y1.7875  
G01 X-0.8375 Y1.7699  
G01 X-0.8625 Y1.7699  
G01 X-0.8795 Y1.7869  
G01 X-0.9710 Y1.7869  
G01 X-0.9748 Y1.7879  
G01 X-0.9783 Y1.7899  
G01 X-1.2974 Y2.1091  
G01 X-1.3226 Y2.0839  
G01 X-1.3774 Y2.0839  
G01 X-1.4161 Y2.1226  
G00 Z0.1000  
G00 X-1.6266 Y2.4048  
G01 Z-0.0020 F10    
G01 X-1.6308 Y2.4006  F20    
G01 X-1.6357 Y2.3973  
G01 X-1.6412 Y2.3951  
G01 X-1.6470 Y2.3939  
G01 X-1.6530 Y2.3939  
G01 X-1.6588 Y2.3951  
G01 X-1.6643 Y2.3973  
G01 X-1.6692 Y2.4006  
G01 X-1.6734 Y2.4048  
G01 X-1.6767 Y2.4097  
G01 X-1.6789 Y2.4152  
G01 X-1.6801 Y2.4210  
G01 X-1.6801 Y2.4790  
G01 X-1.6789 Y2.4848  
G01 X-1.6767 Y2.4903  
G01 X-1.6734 Y2.4952  
G01 X-1.6692 Y2.4994  
G01 X-1.6643 Y2.5027  
G01 X-1.6588 Y2.5049  
G01 X-1.6530 Y2.5061  
G01 X-1.6470 Y2.5061  
G01 X-1.6412 Y2.5049  
G01 X-1.6357 Y2.5027  
G01 X-1.6339 Y2.5014  
G01 X-1.1711 Y2.9643  
G01 X-1.1711 Y2.9785  
G01 X-1.1801 Y2.9875  
G01 X-1.1801 Y3.0125  
G01 X-1.1625 Y3.0301  
G01 X-1.1375 Y3.0301  
G01 X-1.1199 Y3.0125  
G01 X-1.1199 Y2.9875  
G01 X-1.1375 Y2.9699  
G01 X-1.1409 Y2.9699  
G01 X-1.1409 Y2.9560  
G01 X-1.1419 Y2.9522  
G01 X-1.1439 Y2.9487  
G01 X-1.6199 Y2.4727  
G01 X-1.6199 Y2.4210  
G01 X-1.6211 Y2.4152  
G01 X-1.6233 Y2.4097  
G01 X-1.6266 Y2.4048  
G00 Z0.1000  
G00 X-1.7266 Y2.4048  
G01 Z-0.0020 F10    
G01 X-1.7308 Y2.4006  F20    
G01 X-1.7357 Y2.3973  
G01 X-1.7412 Y2.3951  
G01 X-1.7470 Y2.3939  
G01 X-1.7530 Y2.3939  
G01 X-1.7588 Y2.3951  
G01 X-1.7643 Y2.3973  
G01 X-1.7692 Y2.4006  
G01 X-1.7734 Y2.4048  
G01 X-1.7767 Y2.4097  
G01 X-1.7789 Y2.4152  
G01 X-1.7801 Y2.4210  
G01 X-1.7801 Y2.4790  
G01 X-1.7789 Y2.4848  
G01 X-1.7767 Y2.4903  
G01 X-1.7734 Y2.4952  
G01 X-1.7692 Y2.4994  
G01 X-1.7643 Y2.5027  
G01 X-1.7588 Y2.5049  
G01 X-1.7530 Y2.5061  
G01 X-1.7470 Y2.5061  
G01 X-1.7412 Y2.5049  
G01 X-1.7357 Y2.5027  
G01 X-1.7308 Y2.4994  
G01 X-1.7266 Y2.4952  
G01 X-1.7260 Y2.4943  
G01 X-1.4261 Y2.7943  
G01 X-1.4261 Y2.9835  
G01 X-1.4301 Y2.9875  
G01 X-1.4301 Y3.0125  
G01 X-1.4125 Y3.0301  
G01 X-1.3875 Y3.0301  
G01 X-1.3699 Y3.0125  
G01 X-1.3699 Y2.9875  
G01 X-1.3875 Y2.9699  
G01 X-1.3959 Y2.9699  
G01 X-1.3959 Y2.7860  
G01 X-1.3969 Y2.7822  
G01 X-1.3989 Y2.7787  
G01 X-1.7199 Y2.4577  
G01 X-1.7199 Y2.4210  
G01 X-1.7211 Y2.4152  
G01 X-1.7233 Y2.4097  
G01 X-1.7266 Y2.4048  
G00 Z0.1000  
G00 X-1.8266 Y2.4048  
G01 Z-0.0020 F10    
G01 X-1.8308 Y2.4006  F20    
G01 X-1.8357 Y2.3973  
G01 X-1.8412 Y2.3951  
G01 X-1.8470 Y2.3939  
G01 X-1.8530 Y2.3939  
G01 X-1.8588 Y2.3951  
G01 X-1.8643 Y2.3973  
G01 X-1.8692 Y2.4006  
G01 X-1.8734 Y2.4048  
G01 X-1.8767 Y2.4097  
G01 X-1.8789 Y2.4152  
G01 X-1.8801 Y2.4210  
G01 X-1.8801 Y2.4790  
G01 X-1.8789 Y2.4848  
G01 X-1.8767 Y2.4903  
G01 X-1.8734 Y2.4952  
G01 X-1.8692 Y2.4994  
G01 X-1.8643 Y2.5027  
G01 X-1.8588 Y2.5049  
G01 X-1.8530 Y2.5061  
G01 X-1.8470 Y2.5061  
G01 X-1.8412 Y2.5049  
G01 X-1.8357 Y2.5027  
G01 X-1.8308 Y2.4994  
G01 X-1.8269 Y2.4955  
G01 X-1.6811 Y2.6413  
G01 X-1.6811 Y2.9905  
G01 X-1.6812 Y2.9909  
G01 X-1.6811 Y2.9925  
G01 X-1.6811 Y2.9940  
G01 X-1.6810 Y2.9944  
G01 X-1.6810 Y2.9949  
G01 X-1.6805 Y2.9963  
G01 X-1.6801 Y2.9977  
G01 X-1.6801 Y3.0125  
G01 X-1.6625 Y3.0301  
G01 X-1.6375 Y3.0301  
G01 X-1.6199 Y3.0125  
G01 X-1.6199 Y2.9875  
G01 X-1.6375 Y2.9699  
G01 X-1.6509 Y2.9699  
G01 X-1.6509 Y2.6330  
G01 X-1.6519 Y2.6292  
G01 X-1.6539 Y2.6257  
G01 X-1.8199 Y2.4597  
G01 X-1.8199 Y2.4210  
G01 X-1.8211 Y2.4152  
G01 X-1.8233 Y2.4097  
G01 X-1.8266 Y2.4048  
G00 Z0.1000  
G00 X-1.9266 Y2.4048  
G01 Z-0.0020 F10    
G01 X-1.9308 Y2.4006  F20    
G01 X-1.9357 Y2.3973  
G01 X-1.9412 Y2.3951  
G01 X-1.9470 Y2.3939  
G01 X-1.9530 Y2.3939  
G01 X-1.9588 Y2.3951  
G01 X-1.9643 Y2.3973  
G01 X-1.9692 Y2.4006  
G01 X-1.9734 Y2.4048  
G01 X-1.9767 Y2.4097  
G01 X-1.9789 Y2.4152  
G01 X-1.9801 Y2.4210  
G01 X-1.9801 Y2.4790  
G01 X-1.9789 Y2.4848  
G01 X-1.9767 Y2.4903  
G01 X-1.9734 Y2.4952  
G01 X-1.9692 Y2.4994  
G01 X-1.9643 Y2.5027  
G01 X-1.9588 Y2.5049  
G01 X-1.9530 Y2.5061  
G01 X-1.9470 Y2.5061  
G01 X-1.9412 Y2.5049  
G01 X-1.9357 Y2.5027  
G01 X-1.9308 Y2.4994  
G01 X-1.9279 Y2.4965  
G01 X-1.9191 Y2.5053  
G01 X-1.9191 Y2.9765  
G01 X-1.9301 Y2.9875  
G01 X-1.9301 Y3.0125  
G01 X-1.9125 Y3.0301  
G01 X-1.8875 Y3.0301  
G01 X-1.8699 Y3.0125  
G01 X-1.8699 Y2.9875  
G01 X-1.8875 Y2.9699  
G01 X-1.8889 Y2.9699  
G01 X-1.8889 Y2.4970  
G01 X-1.8899 Y2.4932  
G01 X-1.8919 Y2.4897  
G01 X-1.9199 Y2.4617  
G01 X-1.9199 Y2.4210  
G01 X-1.9211 Y2.4152  
G01 X-1.9233 Y2.4097  
G01 X-1.9266 Y2.4048  
G00 Z0.1000  
G00 X-2.0266 Y2.4048  
G01 Z-0.0020 F10    
G01 X-2.0308 Y2.4006  F20    
G01 X-2.0357 Y2.3973  
G01 X-2.0412 Y2.3951  
G01 X-2.0470 Y2.3939  
G01 X-2.0530 Y2.3939  
G01 X-2.0588 Y2.3951  
G01 X-2.0643 Y2.3973  
G01 X-2.0692 Y2.4006  
G01 X-2.0734 Y2.4048  
G01 X-2.0767 Y2.4097  
G01 X-2.0789 Y2.4152  
G01 X-2.0801 Y2.4210  
G01 X-2.0801 Y2.4790  
G01 X-2.0789 Y2.4848  
G01 X-2.0767 Y2.4903  
G01 X-2.0734 Y2.4952  
G01 X-2.0721 Y2.4965  
G01 X-2.0721 Y2.9007  
G01 X-2.1413 Y2.9699  
G01 X-2.1625 Y2.9699  
G01 X-2.1801 Y2.9875  
G01 X-2.1801 Y3.0125  
G01 X-2.1625 Y3.0301  
G01 X-2.1375 Y3.0301  
G01 X-2.1199 Y3.0125  
G01 X-2.1199 Y2.9913  
G01 X-2.0449 Y2.9163  
G01 X-2.0429 Y2.9128  
G01 X-2.0419 Y2.9090  
G01 X-2.0419 Y2.5051  
G01 X-2.0412 Y2.5049  
G01 X-2.0357 Y2.5027  
G01 X-2.0308 Y2.4994  
G01 X-2.0266 Y2.4952  
G01 X-2.0233 Y2.4903  
G01 X-2.0211 Y2.4848  
G01 X-2.0199 Y2.4790  
G01 X-2.0199 Y2.4210  
G01 X-2.0211 Y2.4152  
G01 X-2.0233 Y2.4097  
G01 X-2.0266 Y2.4048  
G00 Z0.1000  
G00 X-2.1266 Y2.4048  
G01 Z-0.0020 F10    
G01 X-2.1308 Y2.4006  F20    
G01 X-2.1357 Y2.3973  
G01 X-2.1412 Y2.3951  
G01 X-2.1470 Y2.3939  
G01 X-2.1530 Y2.3939  
G01 X-2.1588 Y2.3951  
G01 X-2.1643 Y2.3973  
G01 X-2.1692 Y2.4006  
G01 X-2.1734 Y2.4048  
G01 X-2.1767 Y2.4097  
G01 X-2.1789 Y2.4152  
G01 X-2.1801 Y2.4210  
G01 X-2.1801 Y2.4790  
G01 X-2.1789 Y2.4848  
G01 X-2.1767 Y2.4903  
G01 X-2.1741 Y2.4941  
G01 X-2.1741 Y2.7477  
G01 X-2.3963 Y2.9699  
G01 X-2.4125 Y2.9699  
G01 X-2.4301 Y2.9875  
G01 X-2.4301 Y3.0125  
G01 X-2.4125 Y3.0301  
G01 X-2.3875 Y3.0301  
G01 X-2.3699 Y3.0125  
G01 X-2.3699 Y2.9875  
G01 X-2.3705 Y2.9869  
G01 X-2.1469 Y2.7633  
G01 X-2.1449 Y2.7598  
G01 X-2.1439 Y2.7560  
G01 X-2.1439 Y2.5055  
G01 X-2.1412 Y2.5049  
G01 X-2.1357 Y2.5027  
G01 X-2.1308 Y2.4994  
G01 X-2.1266 Y2.4952  
G01 X-2.1233 Y2.4903  
G01 X-2.1211 Y2.4848  
G01 X-2.1199 Y2.4790  
G01 X-2.1199 Y2.4210  
G01 X-2.1211 Y2.4152  
G01 X-2.1233 Y2.4097  
G01 X-2.1266 Y2.4048  
G00 Z0.1000  
G00 X-2.2266 Y2.4048  
G01 Z-0.0020 F10    
G01 X-2.2308 Y2.4006  F20    
G01 X-2.2357 Y2.3973  
G01 X-2.2412 Y2.3951  
G01 X-2.2470 Y2.3939  
G01 X-2.2530 Y2.3939  
G01 X-2.2588 Y2.3951  
G01 X-2.2643 Y2.3973  
G01 X-2.2692 Y2.4006  
G01 X-2.2734 Y2.4048  
G01 X-2.2767 Y2.4097  
G01 X-2.2789 Y2.4152  
G01 X-2.2801 Y2.4210  
G01 X-2.2801 Y2.4790  
G01 X-2.2789 Y2.4848  
G01 X-2.2767 Y2.4903  
G01 X-2.2761 Y2.4911  
G01 X-2.2761 Y2.6117  
G01 X-2.6359 Y2.9715  
G01 X-2.6375 Y2.9699  
G01 X-2.6625 Y2.9699  
G01 X-2.6801 Y2.9875  
G01 X-2.6801 Y3.0125  
G01 X-2.6625 Y3.0301  
G01 X-2.6375 Y3.0301  
G01 X-2.6199 Y3.0125  
G01 X-2.6199 Y2.9983  
G01 X-2.2489 Y2.6273  
G01 X-2.2469 Y2.6238  
G01 X-2.2459 Y2.6200  
G01 X-2.2459 Y2.5059  
G01 X-2.2412 Y2.5049  
G01 X-2.2357 Y2.5027  
G01 X-2.2308 Y2.4994  
G01 X-2.2266 Y2.4952  
G01 X-2.2233 Y2.4903  
G01 X-2.2211 Y2.4848  
G01 X-2.2199 Y2.4790  
G01 X-2.2199 Y2.4210  
G01 X-2.2211 Y2.4152  
G01 X-2.2233 Y2.4097  
G01 X-2.2266 Y2.4048  
G00 Z0.1000  
G00 X-2.3266 Y2.4048  
G01 Z-0.0020 F10    
G01 X-2.3308 Y2.4006  F20    
G01 X-2.3357 Y2.3973  
G01 X-2.3412 Y2.3951  
G01 X-2.3470 Y2.3939  
G01 X-2.3530 Y2.3939  
G01 X-2.3588 Y2.3951  
G01 X-2.3643 Y2.3973  
G01 X-2.3692 Y2.4006  
G01 X-2.3734 Y2.4048  
G01 X-2.3767 Y2.4097  
G01 X-2.3789 Y2.4152  
G01 X-2.3801 Y2.4210  
G01 X-2.3801 Y2.4607  
G01 X-2.8893 Y2.9699  
G01 X-2.9125 Y2.9699  
G01 X-2.9301 Y2.9875  
G01 X-2.9301 Y3.0125  
G01 X-2.9125 Y3.0301  
G01 X-2.8875 Y3.0301  
G01 X-2.8699 Y3.0125  
G01 X-2.8699 Y2.9933  
G01 X-2.3726 Y2.4960  
G01 X-2.3692 Y2.4994  
G01 X-2.3643 Y2.5027  
G01 X-2.3588 Y2.5049  
G01 X-2.3530 Y2.5061  
G01 X-2.3470 Y2.5061  
G01 X-2.3412 Y2.5049  
G01 X-2.3357 Y2.5027  
G01 X-2.3308 Y2.4994  
G01 X-2.3266 Y2.4952  
G01 X-2.3233 Y2.4903  
G01 X-2.3211 Y2.4848  
G01 X-2.3199 Y2.4790  
G01 X-2.3199 Y2.4210  
G01 X-2.3211 Y2.4152  
G01 X-2.3233 Y2.4097  
G01 X-2.3266 Y2.4048  
G00 Z0.1000  
G00 X-2.4266 Y2.4048  
G01 Z-0.0020 F10    
G01 X-2.4308 Y2.4006  F20    
G01 X-2.4357 Y2.3973  
G01 X-2.4412 Y2.3951  
G01 X-2.4470 Y2.3939  
G01 X-2.4530 Y2.3939  
G01 X-2.4588 Y2.3951  
G01 X-2.4643 Y2.3973  
G01 X-2.4692 Y2.4006  
G01 X-2.4734 Y2.4048  
G01 X-2.4767 Y2.4097  
G01 X-2.4789 Y2.4152  
G01 X-2.4801 Y2.4210  
G01 X-2.4801 Y2.4499  
G01 X-2.6200 Y2.4499  
G01 X-2.6238 Y2.4509  
G01 X-2.6273 Y2.4529  
G01 X-3.1443 Y2.9699  
G01 X-3.1625 Y2.9699  
G01 X-3.1801 Y2.9875  
G01 X-3.1801 Y3.0125  
G01 X-3.1625 Y3.0301  
G01 X-3.1375 Y3.0301  
G01 X-3.1199 Y3.0125  
G01 X-3.1199 Y2.9883  
G01 X-2.6117 Y2.4801  
G01 X-2.4799 Y2.4801  
G01 X-2.4789 Y2.4848  
G01 X-2.4767 Y2.4903  
G01 X-2.4734 Y2.4952  
G01 X-2.4692 Y2.4994  
G01 X-2.4643 Y2.5027  
G01 X-2.4588 Y2.5049  
G01 X-2.4530 Y2.5061  
G01 X-2.4470 Y2.5061  
G01 X-2.4412 Y2.5049  
G01 X-2.4357 Y2.5027  
G01 X-2.4308 Y2.4994  
G01 X-2.4266 Y2.4952  
G01 X-2.4233 Y2.4903  
G01 X-2.4211 Y2.4848  
G01 X-2.4199 Y2.4790  
G01 X-2.4199 Y2.4210  
G01 X-2.4211 Y2.4152  
G01 X-2.4233 Y2.4097  
G01 X-2.4266 Y2.4048  
G00 Z0.1000  
G00 X-2.2734 Y2.1952  
G01 Z-0.0020 F10    
G01 X-2.2692 Y2.1994  F20    
G01 X-2.2643 Y2.2027  
G01 X-2.2588 Y2.2049  
G01 X-2.2530 Y2.2061  
G01 X-2.2470 Y2.2061  
G01 X-2.2412 Y2.2049  
G01 X-2.2357 Y2.2027  
G01 X-2.2308 Y2.1994  
G01 X-2.2266 Y2.1952  
G01 X-2.2233 Y2.1903  
G01 X-2.2211 Y2.1848  
G01 X-2.2199 Y2.1790  
G01 X-2.2199 Y2.1741  
G01 X-2.1801 Y2.1741  
G01 X-2.1801 Y2.1790  
G01 X-2.1789 Y2.1848  
G01 X-2.1767 Y2.1903  
G01 X-2.1734 Y2.1952  
G01 X-2.1692 Y2.1994  
G01 X-2.1643 Y2.2027  
G01 X-2.1588 Y2.2049  
G01 X-2.1530 Y2.2061  
G01 X-2.1470 Y2.2061  
G01 X-2.1412 Y2.2049  
G01 X-2.1357 Y2.2027  
G01 X-2.1308 Y2.1994  
G01 X-2.1266 Y2.1952  
G01 X-2.1233 Y2.1903  
G01 X-2.1211 Y2.1848  
G01 X-2.1199 Y2.1790  
G01 X-2.1199 Y2.1210  
G01 X-2.1211 Y2.1152  
G01 X-2.1233 Y2.1097  
G01 X-2.1266 Y2.1048  
G01 X-2.1308 Y2.1006  
G01 X-2.1357 Y2.0973  
G01 X-2.1412 Y2.0951  
G01 X-2.1470 Y2.0939  
G01 X-2.1530 Y2.0939  
G01 X-2.1588 Y2.0951  
G01 X-2.1643 Y2.0973  
G01 X-2.1692 Y2.1006  
G01 X-2.1734 Y2.1048  
G01 X-2.1767 Y2.1097  
G01 X-2.1789 Y2.1152  
G01 X-2.1801 Y2.1210  
G01 X-2.1801 Y2.1439  
G01 X-2.2199 Y2.1439  
G01 X-2.2199 Y2.1210  
G01 X-2.2211 Y2.1152  
G01 X-2.2233 Y2.1097  
G01 X-2.2266 Y2.1048  
G01 X-2.2308 Y2.1006  
G01 X-2.2357 Y2.0973  
G01 X-2.2412 Y2.0951  
G01 X-2.2470 Y2.0939  
G01 X-2.2530 Y2.0939  
G01 X-2.2588 Y2.0951  
G01 X-2.2643 Y2.0973  
G01 X-2.2692 Y2.1006  
G01 X-2.2734 Y2.1048  
G01 X-2.2748 Y2.1069  
G01 X-2.2799 Y2.1017  
G01 X-2.2799 Y2.0225  
G01 X-2.2699 Y2.0125  
G01 X-2.2699 Y1.9875  
G01 X-2.2875 Y1.9699  
G01 X-2.3125 Y1.9699  
G01 X-2.3301 Y1.9875  
G01 X-2.3301 Y2.0125  
G01 X-2.3125 Y2.0301  
G01 X-2.3101 Y2.0301  
G01 X-2.3101 Y2.1100  
G01 X-2.3091 Y2.1138  
G01 X-2.3071 Y2.1173  
G01 X-2.2801 Y2.1443  
G01 X-2.2801 Y2.1790  
G01 X-2.2789 Y2.1848  
G01 X-2.2767 Y2.1903  
G01 X-2.2734 Y2.1952  
G00 Z0.1000  
G00 X-2.3125 Y1.1301  
G01 Z-0.0020 F10    
G01 X-2.2949 Y1.1125  F20    
G01 X-2.2949 Y1.0923  
G01 X-2.2489 Y1.0463  
G01 X-2.2469 Y1.0428  
G01 X-2.2459 Y1.0390  
G01 X-2.2459 Y0.9301  
G01 X-2.2375 Y0.9301  
G01 X-2.2199 Y0.9125  
G01 X-2.2199 Y0.8875  
G01 X-2.2375 Y0.8699  
G01 X-2.2625 Y0.8699  
G01 X-2.2801 Y0.8875  
G01 X-2.2801 Y0.9125  
G01 X-2.2761 Y0.9165  
G01 X-2.2761 Y1.0307  
G01 X-2.3153 Y1.0699  
G01 X-2.3375 Y1.0699  
G01 X-2.3551 Y1.0875  
G01 X-2.3551 Y1.1125  
G01 X-2.3375 Y1.1301  
G01 X-2.3125 Y1.1301  
G00 Z0.1000  
G00 X-0.2666 Y1.1224  
G01 Z-0.0020 F10    
G01 X-0.2666 Y1.1776  F20    
G01 X-0.2276 Y1.2166  
G01 X-0.2191 Y1.2166  
G01 X-0.2191 Y1.3197  
G01 X-0.4541 Y1.5547  
G01 X-0.4561 Y1.5582  
G01 X-0.4571 Y1.5620  
G01 X-0.4571 Y1.7699  
G01 X-0.4625 Y1.7699  
G01 X-0.4801 Y1.7875  
G01 X-0.4801 Y1.8125  
G01 X-0.4625 Y1.8301  
G01 X-0.4375 Y1.8301  
G01 X-0.4199 Y1.8125  
G01 X-0.4199 Y1.7875  
G01 X-0.4269 Y1.7805  
G01 X-0.4269 Y1.5703  
G01 X-0.1947 Y1.3381  
G01 X-0.1919 Y1.3353  
G01 X-0.1899 Y1.3318  
G01 X-0.1889 Y1.3280  
G01 X-0.1889 Y1.2166  
G01 X-0.1724 Y1.2166  
G01 X-0.1334 Y1.1776  
G01 X-0.1334 Y1.1224  
G01 X-0.1724 Y1.0834  
G01 X-0.2276 Y1.0834  
G01 X-0.2666 Y1.1224  
G00 Z0.1000  
G00 X-0.2666 Y1.4224  
G01 Z-0.0020 F10    
G01 X-0.2666 Y1.4776  F20    
G01 X-0.2276 Y1.5166  
G01 X-0.2191 Y1.5166  
G01 X-0.2191 Y1.5574  
G01 X-0.2244 Y1.5601  
G01 X-0.2304 Y1.5645  
G01 X-0.2355 Y1.5696  
G01 X-0.2399 Y1.5756  
G01 X-0.2432 Y1.5821  
G01 X-0.2455 Y1.5891  
G01 X-0.2466 Y1.5963  
G01 X-0.2466 Y1.6037  
G01 X-0.2455 Y1.6109  
G01 X-0.2432 Y1.6179  
G01 X-0.2399 Y1.6244  
G01 X-0.2355 Y1.6304  
G01 X-0.2304 Y1.6355  
G01 X-0.2244 Y1.6399  
G01 X-0.2179 Y1.6432  
G01 X-0.2109 Y1.6455  
G01 X-0.2037 Y1.6466  
G01 X-0.1963 Y1.6466  
G01 X-0.1891 Y1.6455  
G01 X-0.1821 Y1.6432  
G01 X-0.1756 Y1.6399  
G01 X-0.1696 Y1.6355  
G01 X-0.1645 Y1.6304  
G01 X-0.1601 Y1.6244  
G01 X-0.1568 Y1.6179  
G01 X-0.1545 Y1.6109  
G01 X-0.1534 Y1.6037  
G01 X-0.1534 Y1.5963  
G01 X-0.1545 Y1.5891  
G01 X-0.1568 Y1.5821  
G01 X-0.1601 Y1.5756  
G01 X-0.1645 Y1.5696  
G01 X-0.1696 Y1.5645  
G01 X-0.1756 Y1.5601  
G01 X-0.1821 Y1.5568  
G01 X-0.1889 Y1.5546  
G01 X-0.1889 Y1.5166  
G01 X-0.1724 Y1.5166  
G01 X-0.1334 Y1.4776  
G01 X-0.1334 Y1.4224  
G01 X-0.1724 Y1.3834  
G01 X-0.2276 Y1.3834  
G01 X-0.2666 Y1.4224  
G00 Z0.1000  
G00 X-0.2193 Y2.1534  
G01 Z-0.0020 F10    
G01 X-0.2466 Y2.1807  F20    
G01 X-0.2466 Y2.2193  
G01 X-0.2193 Y2.2466  
G01 X-0.1807 Y2.2466  
G01 X-0.1592 Y2.2251  
G01 X-0.1175 Y2.2251  
G01 X-0.1125 Y2.2301  
G01 X-0.0875 Y2.2301  
G01 X-0.0699 Y2.2125  
G01 X-0.0699 Y2.1875  
G01 X-0.0875 Y2.1699  
G01 X-0.1125 Y2.1699  
G01 X-0.1301 Y2.1875  
G01 X-0.1301 Y2.1949  
G01 X-0.1534 Y2.1949  
G01 X-0.1534 Y2.1807  
G01 X-0.1807 Y2.1534  
G01 X-0.2193 Y2.1534  
G00 Z0.1000  
G00 X-0.1623 Y2.5889  
G01 Z-0.0020 F10    
G01 X-0.2784 Y2.7050  F20    
G01 X-0.2805 Y2.7029  
G01 X-0.3195 Y2.7029  
G01 X-0.3471 Y2.7305  
G01 X-0.3471 Y2.7695  
G01 X-0.3195 Y2.7971  
G01 X-0.2805 Y2.7971  
G01 X-0.2529 Y2.7695  
G01 X-0.2529 Y2.7305  
G01 X-0.2570 Y2.7264  
G01 X-0.1467 Y2.6161  
G01 X-0.1265 Y2.6161  
G01 X-0.1125 Y2.6301  
G01 X-0.0875 Y2.6301  
G01 X-0.0699 Y2.6125  
G01 X-0.0699 Y2.5875  
G01 X-0.0875 Y2.5699  
G01 X-0.1125 Y2.5699  
G01 X-0.1285 Y2.5859  
G01 X-0.1550 Y2.5859  
G01 X-0.1588 Y2.5869  
G01 X-0.1623 Y2.5889  
G00 Z0.1000  
G00 X-0.1539 Y0.1309  
G01 Z-0.0020 F10    
G01 X-0.1809 Y0.1039  F20    
G01 X-0.2191 Y0.1039  
G01 X-0.2461 Y0.1309  
G01 X-0.2461 Y0.1691  
G01 X-0.2191 Y0.1961  
G01 X-0.1809 Y0.1961  
G01 X-0.1539 Y0.1691  
G01 X-0.1539 Y0.1309  
G00 Z0.1000  
G00 X-0.2539 Y0.1309  
G01 Z-0.0020 F10    
G01 X-0.2809 Y0.1039  F20    
G01 X-0.3191 Y0.1039  
G01 X-0.3461 Y0.1309  
G01 X-0.3461 Y0.1691  
G01 X-0.3191 Y0.1961  
G01 X-0.2809 Y0.1961  
G01 X-0.2539 Y0.1691  
G01 X-0.2539 Y0.1309  
G00 Z0.1000  
G00 X-0.3539 Y0.1309  
G01 Z-0.0020 F10    
G01 X-0.3809 Y0.1039  F20    
G01 X-0.4191 Y0.1039  
G01 X-0.4461 Y0.1309  
G01 X-0.4461 Y0.1691  
G01 X-0.4191 Y0.1961  
G01 X-0.3809 Y0.1961  
G01 X-0.3539 Y0.1691  
G01 X-0.3539 Y0.1309  
G00 Z0.1000  
G00 X-0.4539 Y0.1309  
G01 Z-0.0020 F10    
G01 X-0.4809 Y0.1039  F20    
G01 X-0.5191 Y0.1039  
G01 X-0.5461 Y0.1309  
G01 X-0.5461 Y0.1691  
G01 X-0.5301 Y0.1851  
G01 X-0.5301 Y0.2149  
G01 X-0.5461 Y0.2309  
G01 X-0.5461 Y0.2691  
G01 X-0.5191 Y0.2961  
G01 X-0.4809 Y0.2961  
G01 X-0.4806 Y0.2958  
G01 X-0.2945 Y0.4819  
G01 X-0.2963 Y0.4875  
G01 X-0.2976 Y0.4958  
G01 X-0.2976 Y0.5042  
G01 X-0.2963 Y0.5125  
G01 X-0.2937 Y0.5205  
G01 X-0.2899 Y0.5280  
G01 X-0.2849 Y0.5348  
G01 X-0.2790 Y0.5407  
G01 X-0.2722 Y0.5456  
G01 X-0.2647 Y0.5494  
G01 X-0.2567 Y0.5520  
G01 X-0.2484 Y0.5533  
G01 X-0.2071 Y0.5533  
G01 X-0.2071 Y0.6146  
G01 X-0.2057 Y0.6198  
G01 X-0.2031 Y0.6243  
G01 X-0.0711 Y0.7563  
G01 X-0.0711 Y2.1793  
G01 X-0.0855 Y2.1649  
G01 X-0.1145 Y2.1649  
G01 X-0.1351 Y2.1855  
G01 X-0.1351 Y2.1899  
G01 X-0.1484 Y2.1899  
G01 X-0.1484 Y2.1786  
G01 X-0.1786 Y2.1484  
G01 X-0.2214 Y2.1484  
G01 X-0.2516 Y2.1786  
G01 X-0.2516 Y2.2214  
G01 X-0.2214 Y2.2516  
G01 X-0.1786 Y2.2516  
G01 X-0.1571 Y2.2301  
G01 X-0.1195 Y2.2301  
G01 X-0.1145 Y2.2351  
G01 X-0.0855 Y2.2351  
G01 X-0.0711 Y2.2207  
G01 X-0.0711 Y2.2527  
G01 X-0.2123 Y2.3939  
G01 X-0.3791 Y2.3939  
G01 X-0.3801 Y2.3861  
G01 X-0.3825 Y2.3771  
G01 X-0.3861 Y2.3685  
G01 X-0.3908 Y2.3604  
G01 X-0.3964 Y2.3530  
G01 X-0.4030 Y2.3464  
G01 X-0.4104 Y2.3408  
G01 X-0.4185 Y2.3361  
G01 X-0.4271 Y2.3325  
G01 X-0.4361 Y2.3301  
G01 X-0.4453 Y2.3289  
G01 X-0.4547 Y2.3289  
G01 X-0.4639 Y2.3301  
G01 X-0.4729 Y2.3325  
G01 X-0.4815 Y2.3361  
G01 X-0.4896 Y2.3408  
G01 X-0.4970 Y2.3464  
G01 X-0.5036 Y2.3530  
G01 X-0.5092 Y2.3604  
G01 X-0.5139 Y2.3685  
G01 X-0.5175 Y2.3771  
G01 X-0.5199 Y2.3861  
G01 X-0.5211 Y2.3953  
G01 X-0.5211 Y2.4047  
G01 X-0.5199 Y2.4139  
G01 X-0.5175 Y2.4229  
G01 X-0.5139 Y2.4315  
G01 X-0.5092 Y2.4396  
G01 X-0.5036 Y2.4470  
G01 X-0.4970 Y2.4536  
G01 X-0.4896 Y2.4592  
G01 X-0.4815 Y2.4639  
G01 X-0.4729 Y2.4675  
G01 X-0.4639 Y2.4699  
G01 X-0.4547 Y2.4711  
G01 X-0.4453 Y2.4711  
G01 X-0.4361 Y2.4699  
G01 X-0.4271 Y2.4675  
G01 X-0.4185 Y2.4639  
G01 X-0.4104 Y2.4592  
G01 X-0.4030 Y2.4536  
G01 X-0.3964 Y2.4470  
G01 X-0.3908 Y2.4396  
G01 X-0.3876 Y2.4341  
G01 X-0.2123 Y2.4341  
G01 X-0.0711 Y2.5753  
G01 X-0.0711 Y2.5793  
G01 X-0.0855 Y2.5649  
G01 X-0.1145 Y2.5649  
G01 X-0.1305 Y2.5809  
G01 X-0.1556 Y2.5809  
G01 X-0.1608 Y2.5823  
G01 X-0.1653 Y2.5849  
G01 X-0.2784 Y2.6979  
G01 X-0.3216 Y2.6979  
G01 X-0.3500 Y2.7263  
G01 X-0.3784 Y2.6979  
G01 X-0.4187 Y2.6979  
G01 X-0.5239 Y2.5927  
G01 X-0.5239 Y2.0204  
G01 X-0.5253 Y2.0152  
G01 X-0.5279 Y2.0107  
G01 X-0.5317 Y2.0069  
G01 X-0.9319 Y1.6067  
G01 X-0.9319 Y1.4255  
G01 X-0.9303 Y1.4271  
G01 X-0.4791 Y1.8783  
G01 X-0.4791 Y2.0851  
G01 X-0.4815 Y2.0861  
G01 X-0.4896 Y2.0908  
G01 X-0.4970 Y2.0964  
G01 X-0.5036 Y2.1030  
G01 X-0.5092 Y2.1104  
G01 X-0.5139 Y2.1185  
G01 X-0.5175 Y2.1271  
G01 X-0.5199 Y2.1361  
G01 X-0.5211 Y2.1453  
G01 X-0.5211 Y2.1547  
G01 X-0.5199 Y2.1639  
G01 X-0.5175 Y2.1729  
G01 X-0.5139 Y2.1815  
G01 X-0.5092 Y2.1896  
G01 X-0.5036 Y2.1970  
G01 X-0.4970 Y2.2036  
G01 X-0.4896 Y2.2092  
G01 X-0.4815 Y2.2139  
G01 X-0.4729 Y2.2175  
G01 X-0.4639 Y2.2199  
G01 X-0.4547 Y2.2211  
G01 X-0.4453 Y2.2211  
G01 X-0.4361 Y2.2199  
G01 X-0.4271 Y2.2175  
G01 X-0.4185 Y2.2139  
G01 X-0.4104 Y2.2092  
G01 X-0.4030 Y2.2036  
G01 X-0.3964 Y2.1970  
G01 X-0.3908 Y2.1896  
G01 X-0.3861 Y2.1815  
G01 X-0.3825 Y2.1729  
G01 X-0.3801 Y2.1639  
G01 X-0.3789 Y2.1547  
G01 X-0.3789 Y2.1453  
G01 X-0.3801 Y2.1361  
G01 X-0.3825 Y2.1271  
G01 X-0.3861 Y2.1185  
G01 X-0.3908 Y2.1104  
G01 X-0.3964 Y2.1030  
G01 X-0.4030 Y2.0964  
G01 X-0.4104 Y2.0908  
G01 X-0.4185 Y2.0861  
G01 X-0.4271 Y2.0825  
G01 X-0.4361 Y2.0801  
G01 X-0.4389 Y2.0797  
G01 X-0.4389 Y1.8674  
G01 X-0.4403 Y1.8622  
G01 X-0.4429 Y1.8577  
G01 X-0.8979 Y1.4027  
G01 X-0.8979 Y0.7964  
G01 X-0.8993 Y0.7912  
G01 X-0.9019 Y0.7867  
G01 X-1.1059 Y0.5827  
G01 X-1.1097 Y0.5789  
G01 X-1.1142 Y0.5763  
G01 X-1.1194 Y0.5749  
G01 X-1.1756 Y0.5749  
G01 X-1.1808 Y0.5763  
G01 X-1.1853 Y0.5789  
G01 X-1.2193 Y0.6129  
G01 X-1.2231 Y0.6167  
G01 X-1.2257 Y0.6212  
G01 X-1.2271 Y0.6264  
G01 X-1.2271 Y0.8275  
G01 X-1.2273 Y0.8276  
G01 X-1.2288 Y0.8299  
G01 X-1.2712 Y0.8299  
G01 X-1.2727 Y0.8276  
G01 X-1.2776 Y0.8227  
G01 X-1.2834 Y0.8189  
G01 X-1.2898 Y0.8162  
G01 X-1.2965 Y0.8149  
G01 X-1.3035 Y0.8149  
G01 X-1.3102 Y0.8162  
G01 X-1.3166 Y0.8189  
G01 X-1.3224 Y0.8227  
G01 X-1.3273 Y0.8276  
G01 X-1.3311 Y0.8334  
G01 X-1.3338 Y0.8398  
G01 X-1.3351 Y0.8465  
G01 X-1.3351 Y0.8477  
G01 X-1.5723 Y1.0849  
G01 X-1.6353 Y1.0849  
G01 X-1.6149 Y1.0645  
G01 X-1.6149 Y1.0355  
G01 X-1.6355 Y1.0149  
G01 X-1.6597 Y1.0149  
G01 X-1.7649 Y0.9097  
G01 X-1.7649 Y0.8645  
G01 X-1.7633 Y0.8661  
G01 X-1.6851 Y0.9443  
G01 X-1.6851 Y0.9645  
G01 X-1.6645 Y0.9851  
G01 X-1.6355 Y0.9851  
G01 X-1.6149 Y0.9645  
G01 X-1.6149 Y0.9355  
G01 X-1.6180 Y0.9324  
G01 X-1.5557 Y0.8701  
G01 X-1.5288 Y0.8701  
G01 X-1.5273 Y0.8724  
G01 X-1.5224 Y0.8773  
G01 X-1.5166 Y0.8811  
G01 X-1.5102 Y0.8838  
G01 X-1.5035 Y0.8851  
G01 X-1.4965 Y0.8851  
G01 X-1.4898 Y0.8838  
G01 X-1.4834 Y0.8811  
G01 X-1.4776 Y0.8773  
G01 X-1.4727 Y0.8724  
G01 X-1.4689 Y0.8666  
G01 X-1.4662 Y0.8602  
G01 X-1.4649 Y0.8535  
G01 X-1.4649 Y0.8465  
G01 X-1.4662 Y0.8398  
G01 X-1.4689 Y0.8334  
G01 X-1.4727 Y0.8276  
G01 X-1.4776 Y0.8227  
G01 X-1.4834 Y0.8189  
G01 X-1.4898 Y0.8162  
G01 X-1.4965 Y0.8149  
G01 X-1.5035 Y0.8149  
G01 X-1.5102 Y0.8162  
G01 X-1.5166 Y0.8189  
G01 X-1.5224 Y0.8227  
G01 X-1.5273 Y0.8276  
G01 X-1.5288 Y0.8299  
G01 X-1.5666 Y0.8299  
G01 X-1.5718 Y0.8313  
G01 X-1.5763 Y0.8339  
G01 X-1.6573 Y0.9149  
G01 X-1.6577 Y0.9149  
G01 X-1.7309 Y0.8417  
G01 X-1.7309 Y0.8304  
G01 X-1.7323 Y0.8252  
G01 X-1.7349 Y0.8207  
G01 X-1.7387 Y0.8169  
G01 X-1.9635 Y0.5921  
G01 X-1.9326 Y0.5921  
G01 X-1.9216 Y0.5811  
G01 X-1.6573 Y0.5811  
G01 X-1.5851 Y0.6533  
G01 X-1.5851 Y0.6645  
G01 X-1.5645 Y0.6851  
G01 X-1.5533 Y0.6851  
G01 X-1.4311 Y0.8073  
G01 X-1.4311 Y0.8334  
G01 X-1.4338 Y0.8398  
G01 X-1.4351 Y0.8465  
G01 X-1.4351 Y0.8535  
G01 X-1.4338 Y0.8602  
G01 X-1.4311 Y0.8666  
G01 X-1.4273 Y0.8724  
G01 X-1.4224 Y0.8773  
G01 X-1.4166 Y0.8811  
G01 X-1.4102 Y0.8838  
G01 X-1.4035 Y0.8851  
G01 X-1.3965 Y0.8851  
G01 X-1.3898 Y0.8838  
G01 X-1.3834 Y0.8811  
G01 X-1.3776 Y0.8773  
G01 X-1.3727 Y0.8724  
G01 X-1.3689 Y0.8666  
G01 X-1.3662 Y0.8602  
G01 X-1.3649 Y0.8535  
G01 X-1.3649 Y0.8465  
G01 X-1.3662 Y0.8398  
G01 X-1.3689 Y0.8334  
G01 X-1.3727 Y0.8276  
G01 X-1.3776 Y0.8227  
G01 X-1.3834 Y0.8189  
G01 X-1.3898 Y0.8162  
G01 X-1.3909 Y0.8160  
G01 X-1.3909 Y0.7964  
G01 X-1.3923 Y0.7912  
G01 X-1.3949 Y0.7867  
G01 X-1.5160 Y0.6656  
G01 X-1.5149 Y0.6645  
G01 X-1.5149 Y0.6355  
G01 X-1.5355 Y0.6149  
G01 X-1.5645 Y0.6149  
G01 X-1.5656 Y0.6160  
G01 X-1.6367 Y0.5449  
G01 X-1.6412 Y0.5423  
G01 X-1.6464 Y0.5409  
G01 X-1.9079 Y0.5409  
G01 X-1.9079 Y0.5326  
G01 X-1.9274 Y0.5131  
G01 X-0.9381 Y0.5131  
G01 X-0.9381 Y0.5296  
G01 X-0.9367 Y0.5348  
G01 X-0.9341 Y0.5393  
G01 X-0.9303 Y0.5431  
G01 X-0.8361 Y0.6373  
G01 X-0.8361 Y0.6966  
G01 X-0.8484 Y0.6966  
G01 X-0.8567 Y0.6980  
G01 X-0.8647 Y0.7006  
G01 X-0.8722 Y0.7044  
G01 X-0.8790 Y0.7093  
G01 X-0.8849 Y0.7152  
G01 X-0.8899 Y0.7220  
G01 X-0.8937 Y0.7295  
G01 X-0.8963 Y0.7375  
G01 X-0.8976 Y0.7458  
G01 X-0.8976 Y0.7542  
G01 X-0.8963 Y0.7625  
G01 X-0.8937 Y0.7705  
G01 X-0.8899 Y0.7780  
G01 X-0.8849 Y0.7848  
G01 X-0.8790 Y0.7907  
G01 X-0.8722 Y0.7956  
G01 X-0.8647 Y0.7994  
G01 X-0.8567 Y0.8020  
G01 X-0.8484 Y0.8033  
G01 X-0.7516 Y0.8033  
G01 X-0.7433 Y0.8020  
G01 X-0.7353 Y0.7994  
G01 X-0.7278 Y0.7956  
G01 X-0.7210 Y0.7907  
G01 X-0.7151 Y0.7848  
G01 X-0.7101 Y0.7780  
G01 X-0.7063 Y0.7705  
G01 X-0.7037 Y0.7625  
G01 X-0.7024 Y0.7542  
G01 X-0.7024 Y0.7458  
G01 X-0.7037 Y0.7375  
G01 X-0.7063 Y0.7295  
G01 X-0.7101 Y0.7220  
G01 X-0.7151 Y0.7152  
G01 X-0.7210 Y0.7093  
G01 X-0.7278 Y0.7044  
G01 X-0.7353 Y0.7006  
G01 X-0.7433 Y0.6980  
G01 X-0.7516 Y0.6966  
G01 X-0.7959 Y0.6966  
G01 X-0.7959 Y0.6264  
G01 X-0.7973 Y0.6212  
G01 X-0.7999 Y0.6167  
G01 X-0.8696 Y0.5469  
G01 X-0.8647 Y0.5494  
G01 X-0.8567 Y0.5520  
G01 X-0.8484 Y0.5533  
G01 X-0.7516 Y0.5533  
G01 X-0.7433 Y0.5520  
G01 X-0.7353 Y0.5494  
G01 X-0.7278 Y0.5456  
G01 X-0.7210 Y0.5407  
G01 X-0.7151 Y0.5348  
G01 X-0.7101 Y0.5280  
G01 X-0.7063 Y0.5205  
G01 X-0.7037 Y0.5125  
G01 X-0.7024 Y0.5042  
G01 X-0.7024 Y0.4958  
G01 X-0.7037 Y0.4875  
G01 X-0.7063 Y0.4795  
G01 X-0.7101 Y0.4720  
G01 X-0.7151 Y0.4652  
G01 X-0.7210 Y0.4593  
G01 X-0.7278 Y0.4544  
G01 X-0.7353 Y0.4506  
G01 X-0.7433 Y0.4480  
G01 X-0.7516 Y0.4466  
G01 X-0.7789 Y0.4466  
G01 X-0.7789 Y0.2941  
G01 X-0.7599 Y0.2751  
G01 X-0.7401 Y0.2751  
G01 X-0.7191 Y0.2961  
G01 X-0.6809 Y0.2961  
G01 X-0.6539 Y0.2691  
G01 X-0.6539 Y0.2309  
G01 X-0.6809 Y0.2039  
G01 X-0.6939 Y0.2039  
G01 X-0.6939 Y0.1961  
G01 X-0.6809 Y0.1961  
G01 X-0.6579 Y0.1731  
G01 X-0.6421 Y0.1731  
G01 X-0.6321 Y0.1831  
G01 X-0.6321 Y0.2169  
G01 X-0.6461 Y0.2309  
G01 X-0.6461 Y0.2691  
G01 X-0.6191 Y0.2961  
G01 X-0.6151 Y0.2961  
G01 X-0.6151 Y0.3596  
G01 X-0.6137 Y0.3648  
G01 X-0.6111 Y0.3693  
G01 X-0.2744 Y0.7060  
G01 X-0.2790 Y0.7093  
G01 X-0.2849 Y0.7152  
G01 X-0.2899 Y0.7220  
G01 X-0.2937 Y0.7295  
G01 X-0.2963 Y0.7375  
G01 X-0.2976 Y0.7458  
G01 X-0.2976 Y0.7542  
G01 X-0.2963 Y0.7625  
G01 X-0.2937 Y0.7705  
G01 X-0.2899 Y0.7780  
G01 X-0.2849 Y0.7848  
G01 X-0.2790 Y0.7907  
G01 X-0.2722 Y0.7956  
G01 X-0.2647 Y0.7994  
G01 X-0.2567 Y0.8020  
G01 X-0.2484 Y0.8033  
G01 X-0.2241 Y0.8033  
G01 X-0.2241 Y0.8927  
G01 X-0.4151 Y1.0837  
G01 X-0.4203 Y1.0784  
G01 X-0.4797 Y1.0784  
G01 X-0.5216 Y1.1203  
G01 X-0.5216 Y1.1797  
G01 X-0.4797 Y1.2216  
G01 X-0.4791 Y1.2216  
G01 X-0.4791 Y1.3784  
G01 X-0.4797 Y1.3784  
G01 X-0.5216 Y1.4203  
G01 X-0.5216 Y1.4797  
G01 X-0.4797 Y1.5216  
G01 X-0.4280 Y1.5216  
G01 X-0.4581 Y1.5517  
G01 X-0.4607 Y1.5562  
G01 X-0.4621 Y1.5614  
G01 X-0.4621 Y1.7649  
G01 X-0.4645 Y1.7649  
G01 X-0.4851 Y1.7855  
G01 X-0.4851 Y1.8145  
G01 X-0.4645 Y1.8351  
G01 X-0.4355 Y1.8351  
G01 X-0.4149 Y1.8145  
G01 X-0.4149 Y1.7855  
G01 X-0.4219 Y1.7785  
G01 X-0.4219 Y1.5723  
G01 X-0.2716 Y1.4220  
G01 X-0.2716 Y1.4797  
G01 X-0.2297 Y1.5216  
G01 X-0.2241 Y1.5216  
G01 X-0.2241 Y1.5544  
G01 X-0.2270 Y1.5559  
G01 X-0.2336 Y1.5606  
G01 X-0.2394 Y1.5664  
G01 X-0.2441 Y1.5730  
G01 X-0.2478 Y1.5802  
G01 X-0.2503 Y1.5879  
G01 X-0.2516 Y1.5959  
G01 X-0.2516 Y1.6041  
G01 X-0.2503 Y1.6121  
G01 X-0.2478 Y1.6198  
G01 X-0.2441 Y1.6270  
G01 X-0.2394 Y1.6336  
G01 X-0.2336 Y1.6394  
G01 X-0.2270 Y1.6441  
G01 X-0.2198 Y1.6478  
G01 X-0.2121 Y1.6503  
G01 X-0.2041 Y1.6516  
G01 X-0.1959 Y1.6516  
G01 X-0.1879 Y1.6503  
G01 X-0.1802 Y1.6478  
G01 X-0.1730 Y1.6441  
G01 X-0.1664 Y1.6394  
G01 X-0.1606 Y1.6336  
G01 X-0.1559 Y1.6270  
G01 X-0.1522 Y1.6198  
G01 X-0.1497 Y1.6121  
G01 X-0.1484 Y1.6041  
G01 X-0.1484 Y1.5959  
G01 X-0.1497 Y1.5879  
G01 X-0.1522 Y1.5802  
G01 X-0.1559 Y1.5730  
G01 X-0.1606 Y1.5664  
G01 X-0.1664 Y1.5606  
G01 X-0.1730 Y1.5559  
G01 X-0.1802 Y1.5522  
G01 X-0.1839 Y1.5510  
G01 X-0.1839 Y1.5216  
G01 X-0.1703 Y1.5216  
G01 X-0.1284 Y1.4797  
G01 X-0.1284 Y1.4203  
G01 X-0.1703 Y1.3784  
G01 X-0.2280 Y1.3784  
G01 X-0.1917 Y1.3421  
G01 X-0.1879 Y1.3383  
G01 X-0.1853 Y1.3338  
G01 X-0.1839 Y1.3286  
G01 X-0.1839 Y1.2216  
G01 X-0.1703 Y1.2216  
G01 X-0.1284 Y1.1797  
G01 X-0.1284 Y1.1203  
G01 X-0.1703 Y1.0784  
G01 X-0.2297 Y1.0784  
G01 X-0.2716 Y1.1203  
G01 X-0.2716 Y1.1797  
G01 X-0.2297 Y1.2216  
G01 X-0.2241 Y1.2216  
G01 X-0.2241 Y1.3177  
G01 X-0.3784 Y1.4720  
G01 X-0.3784 Y1.4203  
G01 X-0.4203 Y1.3784  
G01 X-0.4389 Y1.3784  
G01 X-0.4389 Y1.2216  
G01 X-0.4203 Y1.2216  
G01 X-0.3784 Y1.1797  
G01 X-0.3784 Y1.1203  
G01 X-0.3867 Y1.1121  
G01 X-0.1879 Y0.9133  
G01 X-0.1853 Y0.9088  
G01 X-0.1839 Y0.9036  
G01 X-0.1839 Y0.8033  
G01 X-0.1516 Y0.8033  
G01 X-0.1433 Y0.8020  
G01 X-0.1353 Y0.7994  
G01 X-0.1278 Y0.7956  
G01 X-0.1210 Y0.7907  
G01 X-0.1151 Y0.7848  
G01 X-0.1101 Y0.7780  
G01 X-0.1063 Y0.7705  
G01 X-0.1037 Y0.7625  
G01 X-0.1024 Y0.7542  
G01 X-0.1024 Y0.7458  
G01 X-0.1037 Y0.7375  
G01 X-0.1063 Y0.7295  
G01 X-0.1101 Y0.7220  
G01 X-0.1151 Y0.7152  
G01 X-0.1210 Y0.7093  
G01 X-0.1278 Y0.7044  
G01 X-0.1353 Y0.7006  
G01 X-0.1433 Y0.6980  
G01 X-0.1516 Y0.6966  
G01 X-0.2269 Y0.6966  
G01 X-0.5749 Y0.3487  
G01 X-0.5749 Y0.2901  
G01 X-0.5539 Y0.2691  
G01 X-0.5539 Y0.2309  
G01 X-0.5809 Y0.2039  
G01 X-0.5919 Y0.2039  
G01 X-0.5919 Y0.1961  
G01 X-0.5809 Y0.1961  
G01 X-0.5539 Y0.1691  
G01 X-0.5539 Y0.1309  
G01 X-0.5809 Y0.1039  
G01 X-0.6191 Y0.1039  
G01 X-0.6461 Y0.1309  
G01 X-0.6461 Y0.1329  
G01 X-0.6539 Y0.1329  
G01 X-0.6539 Y0.1309  
G01 X-0.6809 Y0.1039  
G01 X-0.7191 Y0.1039  
G01 X-0.7461 Y0.1309  
G01 X-0.7461 Y0.1329  
G01 X-0.7539 Y0.1329  
G01 X-0.7539 Y0.1309  
G01 X-0.7809 Y0.1039  
G01 X-0.8191 Y0.1039  
G01 X-0.8194 Y0.1042  
G01 X-0.8509 Y0.0727  
G01 X-0.8547 Y0.0689  
G01 X-0.8592 Y0.0663  
G01 X-0.8644 Y0.0649  
G01 X-1.7876 Y0.0649  
G01 X-1.7928 Y0.0663  
G01 X-1.7973 Y0.0689  
G01 X-1.9363 Y0.2079  
G01 X-1.9674 Y0.2079  
G01 X-1.9921 Y0.2326  
G01 X-1.9921 Y0.2637  
G01 X-2.0561 Y0.3277  
G01 X-2.0587 Y0.3322  
G01 X-2.0601 Y0.3374  
G01 X-2.0601 Y0.5749  
G01 X-2.0766 Y0.5749  
G01 X-2.0818 Y0.5763  
G01 X-2.0863 Y0.5789  
G01 X-2.4773 Y0.9699  
G01 X-2.4811 Y0.9737  
G01 X-2.4837 Y0.9782  
G01 X-2.4851 Y0.9834  
G01 X-2.4851 Y1.0906  
G01 X-2.4837 Y1.0958  
G01 X-2.4811 Y1.1003  
G01 X-2.4351 Y1.1463  
G01 X-2.4351 Y1.1645  
G01 X-2.4171 Y1.1825  
G01 X-2.4171 Y1.2096  
G01 X-2.4157 Y1.2148  
G01 X-2.4131 Y1.2193  
G01 X-2.2851 Y1.3473  
G01 X-2.2851 Y1.3645  
G01 X-2.2811 Y1.3685  
G01 X-2.2811 Y1.5557  
G01 X-2.2903 Y1.5649  
G01 X-2.3145 Y1.5649  
G01 X-2.3351 Y1.5855  
G01 X-2.3351 Y1.6097  
G01 X-2.3791 Y1.6537  
G01 X-2.3817 Y1.6582  
G01 X-2.3831 Y1.6634  
G01 X-2.3831 Y2.1122  
G01 X-2.3838 Y2.1138  
G01 X-2.3851 Y2.1205  
G01 X-2.3851 Y2.1795  
G01 X-2.3838 Y2.1862  
G01 X-2.3811 Y2.1926  
G01 X-2.3773 Y2.1984  
G01 X-2.3724 Y2.2033  
G01 X-2.3666 Y2.2071  
G01 X-2.3602 Y2.2098  
G01 X-2.3535 Y2.2111  
G01 X-2.3465 Y2.2111  
G01 X-2.3398 Y2.2098  
G01 X-2.3334 Y2.2071  
G01 X-2.3291 Y2.2043  
G01 X-2.2925 Y2.2409  
G01 X-2.3377 Y2.2409  
G01 X-2.4149 Y2.1637  
G01 X-2.4149 Y2.1205  
G01 X-2.4162 Y2.1138  
G01 X-2.4189 Y2.1074  
G01 X-2.4227 Y2.1016  
G01 X-2.4276 Y2.0967  
G01 X-2.4334 Y2.0929  
G01 X-2.4398 Y2.0902  
G01 X-2.4465 Y2.0889  
G01 X-2.4535 Y2.0889  
G01 X-2.4602 Y2.0902  
G01 X-2.4666 Y2.0929  
G01 X-2.4724 Y2.0967  
G01 X-2.4773 Y2.1016  
G01 X-2.4811 Y2.1074  
G01 X-2.4838 Y2.1138  
G01 X-2.4851 Y2.1205  
G01 X-2.4851 Y2.1795  
G01 X-2.4838 Y2.1862  
G01 X-2.4811 Y2.1926  
G01 X-2.4773 Y2.1984  
G01 X-2.4724 Y2.2033  
G01 X-2.4666 Y2.2071  
G01 X-2.4602 Y2.2098  
G01 X-2.4535 Y2.2111  
G01 X-2.4465 Y2.2111  
G01 X-2.4398 Y2.2098  
G01 X-2.4334 Y2.2071  
G01 X-2.4303 Y2.2051  
G01 X-2.3583 Y2.2771  
G01 X-2.3538 Y2.2797  
G01 X-2.3486 Y2.2811  
G01 X-1.9524 Y2.2811  
G01 X-1.9472 Y2.2797  
G01 X-1.9427 Y2.2771  
G01 X-1.9389 Y2.2733  
G01 X-1.8703 Y2.2047  
G01 X-1.8666 Y2.2071  
G01 X-1.8602 Y2.2098  
G01 X-1.8535 Y2.2111  
G01 X-1.8465 Y2.2111  
G01 X-1.8398 Y2.2098  
G01 X-1.8334 Y2.2071  
G01 X-1.8276 Y2.2033  
G01 X-1.8239 Y2.1995  
G01 X-1.8221 Y2.2013  
G01 X-1.8221 Y2.2126  
G01 X-1.8207 Y2.2178  
G01 X-1.8181 Y2.2223  
G01 X-1.6651 Y2.3753  
G01 X-1.6613 Y2.3791  
G01 X-1.6568 Y2.3817  
G01 X-1.6516 Y2.3831  
G01 X-1.6403 Y2.3831  
G01 X-1.0741 Y2.9493  
G01 X-1.0741 Y2.9745  
G01 X-1.0851 Y2.9855  
G01 X-1.0851 Y2.9889  
G01 X-1.0906 Y2.9889  
G01 X-1.0958 Y2.9903  
G01 X-1.1003 Y2.9929  
G01 X-1.1149 Y3.0075  
G01 X-1.1149 Y2.9855  
G01 X-1.1355 Y2.9649  
G01 X-1.1359 Y2.9649  
G01 X-1.1359 Y2.9554  
G01 X-1.1373 Y2.9502  
G01 X-1.1399 Y2.9457  
G01 X-1.6149 Y2.4707  
G01 X-1.6149 Y2.4205  
G01 X-1.6162 Y2.4138  
G01 X-1.6189 Y2.4074  
G01 X-1.6227 Y2.4016  
G01 X-1.6276 Y2.3967  
G01 X-1.6334 Y2.3929  
G01 X-1.6398 Y2.3902  
G01 X-1.6465 Y2.3889  
G01 X-1.6535 Y2.3889  
G01 X-1.6602 Y2.3902  
G01 X-1.6666 Y2.3929  
G01 X-1.6724 Y2.3967  
G01 X-1.6773 Y2.4016  
G01 X-1.6811 Y2.4074  
G01 X-1.6838 Y2.4138  
G01 X-1.6851 Y2.4205  
G01 X-1.6851 Y2.4795  
G01 X-1.6838 Y2.4862  
G01 X-1.6833 Y2.4872  
G01 X-1.7149 Y2.4557  
G01 X-1.7149 Y2.4205  
G01 X-1.7162 Y2.4138  
G01 X-1.7189 Y2.4074  
G01 X-1.7227 Y2.4016  
G01 X-1.7276 Y2.3967  
G01 X-1.7334 Y2.3929  
G01 X-1.7398 Y2.3902  
G01 X-1.7465 Y2.3889  
G01 X-1.7535 Y2.3889  
G01 X-1.7602 Y2.3902  
G01 X-1.7666 Y2.3929  
G01 X-1.7724 Y2.3967  
G01 X-1.7773 Y2.4016  
G01 X-1.7811 Y2.4074  
G01 X-1.7838 Y2.4138  
G01 X-1.7851 Y2.4205  
G01 X-1.7851 Y2.4795  
G01 X-1.7838 Y2.4862  
G01 X-1.7819 Y2.4907  
G01 X-1.8149 Y2.4577  
G01 X-1.8149 Y2.4205  
G01 X-1.8162 Y2.4138  
G01 X-1.8189 Y2.4074  
G01 X-1.8227 Y2.4016  
G01 X-1.8276 Y2.3967  
G01 X-1.8334 Y2.3929  
G01 X-1.8398 Y2.3902  
G01 X-1.8465 Y2.3889  
G01 X-1.8535 Y2.3889  
G01 X-1.8602 Y2.3902  
G01 X-1.8666 Y2.3929  
G01 X-1.8724 Y2.3967  
G01 X-1.8773 Y2.4016  
G01 X-1.8811 Y2.4074  
G01 X-1.8838 Y2.4138  
G01 X-1.8851 Y2.4205  
G01 X-1.8851 Y2.4795  
G01 X-1.8838 Y2.4862  
G01 X-1.8811 Y2.4926  
G01 X-1.8773 Y2.4984  
G01 X-1.8724 Y2.5033  
G01 X-1.8666 Y2.5071  
G01 X-1.8602 Y2.5098  
G01 X-1.8535 Y2.5111  
G01 X-1.8465 Y2.5111  
G01 X-1.8398 Y2.5098  
G01 X-1.8334 Y2.5071  
G01 X-1.8276 Y2.5033  
G01 X-1.8269 Y2.5025  
G01 X-1.6861 Y2.6433  
G01 X-1.6861 Y2.9900  
G01 X-1.6862 Y2.9906  
G01 X-1.6861 Y2.9926  
G01 X-1.6861 Y2.9946  
G01 X-1.6859 Y2.9952  
G01 X-1.6859 Y2.9958  
G01 X-1.6853 Y2.9978  
G01 X-1.6851 Y2.9984  
G01 X-1.6851 Y3.0125  
G01 X-1.7047 Y2.9929  
G01 X-1.7092 Y2.9903  
G01 X-1.7144 Y2.9889  
G01 X-1.7649 Y2.9889  
G01 X-1.7649 Y2.9855  
G01 X-1.7855 Y2.9649  
G01 X-1.8145 Y2.9649  
G01 X-1.8351 Y2.9855  
G01 X-1.8351 Y3.0137  
G01 X-1.8613 Y3.0399  
G01 X-1.9127 Y3.0399  
G01 X-1.9597 Y2.9929  
G01 X-1.9642 Y2.9903  
G01 X-1.9694 Y2.9889  
G01 X-2.0149 Y2.9889  
G01 X-2.0149 Y2.9855  
G01 X-2.0355 Y2.9649  
G01 X-2.0645 Y2.9649  
G01 X-2.0851 Y2.9855  
G01 X-2.0851 Y3.0087  
G01 X-2.1163 Y3.0399  
G01 X-2.2357 Y3.0399  
G01 X-2.2649 Y3.0107  
G01 X-2.2649 Y2.9855  
G01 X-2.2855 Y2.9649  
G01 X-2.3145 Y2.9649  
G01 X-2.3351 Y2.9855  
G01 X-2.3351 Y3.0037  
G01 X-2.3713 Y3.0399  
G01 X-2.4057 Y3.0399  
G01 X-2.4105 Y3.0351  
G01 X-2.3855 Y3.0351  
G01 X-2.3649 Y3.0145  
G01 X-2.3649 Y2.9883  
G01 X-2.1429 Y2.7663  
G01 X-2.1403 Y2.7618  
G01 X-2.1389 Y2.7566  
G01 X-2.1389 Y2.5094  
G01 X-2.1334 Y2.5071  
G01 X-2.1276 Y2.5033  
G01 X-2.1227 Y2.4984  
G01 X-2.1189 Y2.4926  
G01 X-2.1162 Y2.4862  
G01 X-2.1149 Y2.4795  
G01 X-2.1149 Y2.4205  
G01 X-2.1162 Y2.4138  
G01 X-2.1189 Y2.4074  
G01 X-2.1227 Y2.4016  
G01 X-2.1276 Y2.3967  
G01 X-2.1334 Y2.3929  
G01 X-2.1398 Y2.3902  
G01 X-2.1465 Y2.3889  
G01 X-2.1535 Y2.3889  
G01 X-2.1602 Y2.3902  
G01 X-2.1666 Y2.3929  
G01 X-2.1724 Y2.3967  
G01 X-2.1773 Y2.4016  
G01 X-2.1811 Y2.4074  
G01 X-2.1838 Y2.4138  
G01 X-2.1851 Y2.4205  
G01 X-2.1851 Y2.4795  
G01 X-2.1838 Y2.4862  
G01 X-2.1811 Y2.4926  
G01 X-2.1791 Y2.4956  
G01 X-2.1791 Y2.7457  
G01 X-2.3983 Y2.9649  
G01 X-2.4145 Y2.9649  
G01 X-2.4351 Y2.9855  
G01 X-2.4351 Y3.0105  
G01 X-2.4527 Y2.9929  
G01 X-2.4572 Y2.9903  
G01 X-2.4624 Y2.9889  
G01 X-2.5149 Y2.9889  
G01 X-2.5149 Y2.9855  
G01 X-2.5355 Y2.9649  
G01 X-2.5645 Y2.9649  
G01 X-2.5851 Y2.9855  
G01 X-2.5851 Y3.0145  
G01 X-2.5845 Y3.0151  
G01 X-2.6093 Y3.0399  
G01 X-2.6607 Y3.0399  
G01 X-2.7077 Y2.9929  
G01 X-2.7122 Y2.9903  
G01 X-2.7174 Y2.9889  
G01 X-2.7649 Y2.9889  
G01 X-2.7649 Y2.9855  
G01 X-2.7855 Y2.9649  
G01 X-2.8145 Y2.9649  
G01 X-2.8351 Y2.9855  
G01 X-2.8351 Y3.0107  
G01 X-2.8643 Y3.0399  
G01 X-2.9157 Y3.0399  
G01 X-2.9627 Y2.9929  
G01 X-2.9672 Y2.9903  
G01 X-2.9724 Y2.9889  
G01 X-3.0149 Y2.9889  
G01 X-3.0149 Y2.9855  
G01 X-3.0355 Y2.9649  
G01 X-3.0645 Y2.9649  
G01 X-3.0851 Y2.9855  
G01 X-3.0851 Y3.0145  
G01 X-3.0645 Y3.0351  
G01 X-3.0355 Y3.0351  
G01 X-3.0295 Y3.0291  
G01 X-2.9833 Y3.0291  
G01 X-2.9401 Y3.0723  
G01 X-2.9363 Y3.0761  
G01 X-2.9318 Y3.0787  
G01 X-2.9266 Y3.0801  
G01 X-2.8534 Y3.0801  
G01 X-2.8482 Y3.0787  
G01 X-2.8437 Y3.0761  
G01 X-2.8027 Y3.0351  
G01 X-2.7855 Y3.0351  
G01 X-2.7795 Y3.0291  
G01 X-2.7283 Y3.0291  
G01 X-2.6851 Y3.0723  
G01 X-2.6813 Y3.0761  
G01 X-2.6768 Y3.0787  
G01 X-2.6716 Y3.0801  
G01 X-2.5984 Y3.0801  
G01 X-2.5932 Y3.0787  
G01 X-2.5887 Y3.0761  
G01 X-2.5477 Y3.0351  
G01 X-2.5355 Y3.0351  
G01 X-2.5295 Y3.0291  
G01 X-2.4733 Y3.0291  
G01 X-2.4301 Y3.0723  
G01 X-2.4263 Y3.0761  
G01 X-2.4218 Y3.0787  
G01 X-2.4166 Y3.0801  
G01 X-2.3604 Y3.0801  
G01 X-2.3552 Y3.0787  
G01 X-2.3507 Y3.0761  
G01 X-2.3097 Y3.0351  
G01 X-2.2973 Y3.0351  
G01 X-2.2563 Y3.0761  
G01 X-2.2518 Y3.0787  
G01 X-2.2466 Y3.0801  
G01 X-2.1054 Y3.0801  
G01 X-2.1002 Y3.0787  
G01 X-2.0957 Y3.0761  
G01 X-2.0547 Y3.0351  
G01 X-2.0355 Y3.0351  
G01 X-2.0295 Y3.0291  
G01 X-1.9803 Y3.0291  
G01 X-1.9371 Y3.0723  
G01 X-1.9333 Y3.0761  
G01 X-1.9288 Y3.0787  
G01 X-1.9236 Y3.0801  
G01 X-1.8504 Y3.0801  
G01 X-1.8452 Y3.0787  
G01 X-1.8407 Y3.0761  
G01 X-1.7997 Y3.0351  
G01 X-1.7855 Y3.0351  
G01 X-1.7795 Y3.0291  
G01 X-1.7253 Y3.0291  
G01 X-1.6821 Y3.0723  
G01 X-1.6783 Y3.0761  
G01 X-1.6738 Y3.0787  
G01 X-1.6686 Y3.0801  
G01 X-1.6124 Y3.0801  
G01 X-1.6072 Y3.0787  
G01 X-1.6027 Y3.0761  
G01 X-1.5617 Y3.0351  
G01 X-1.5493 Y3.0351  
G01 X-1.5083 Y3.0761  
G01 X-1.5038 Y3.0787  
G01 X-1.4986 Y3.0801  
G01 X-1.3574 Y3.0801  
G01 X-1.3522 Y3.0787  
G01 X-1.3477 Y3.0761  
G01 X-1.3439 Y3.0723  
G01 X-1.3067 Y3.0351  
G01 X-1.2943 Y3.0351  
G01 X-1.2533 Y3.0761  
G01 X-1.2488 Y3.0787  
G01 X-1.2436 Y3.0801  
G01 X-1.1364 Y3.0801  
G01 X-1.1312 Y3.0787  
G01 X-1.1267 Y3.0761  
G01 X-1.1229 Y3.0723  
G01 X-1.0797 Y3.0291  
G01 X-1.0705 Y3.0291  
G01 X-1.0645 Y3.0351  
G01 X-1.0393 Y3.0351  
G01 X-0.9983 Y3.0761  
G01 X-0.9938 Y3.0787  
G01 X-0.9886 Y3.0801  
G01 X-0.8644 Y3.0801  
G01 X-0.8592 Y3.0787  
G01 X-0.8547 Y3.0761  
G01 X-0.8509 Y3.0723  
G01 X-0.8137 Y3.0351  
G01 X-0.7855 Y3.0351  
G01 X-0.7649 Y3.0145  
G01 X-0.7649 Y3.0121  
G01 X-0.4054 Y3.0121  
G01 X-0.4002 Y3.0107  
G01 X-0.3957 Y3.0081  
G01 X-0.3919 Y3.0043  
G01 X-0.0349 Y2.6473  
G01 X-0.0323 Y2.6428  
G01 X-0.0309 Y2.6376  
G01 X-0.0309 Y2.5644  
G01 X-0.0323 Y2.5592  
G01 X-0.0349 Y2.5547  
G01 X-0.0387 Y2.5509  
G01 X-0.1756 Y2.4140  
G01 X-0.0349 Y2.2733  
G01 X-0.0323 Y2.2688  
G01 X-0.0309 Y2.2636  
G01 X-0.0309 Y0.7454  
G01 X-0.0323 Y0.7402  
G01 X-0.0349 Y0.7357  
G01 X-0.0387 Y0.7319  
G01 X-0.1669 Y0.6037  
G01 X-0.1669 Y0.5533  
G01 X-0.1516 Y0.5533  
G01 X-0.1433 Y0.5520  
G01 X-0.1353 Y0.5494  
G01 X-0.1278 Y0.5456  
G01 X-0.1210 Y0.5407  
G01 X-0.1151 Y0.5348  
G01 X-0.1101 Y0.5280  
G01 X-0.1063 Y0.5205  
G01 X-0.1037 Y0.5125  
G01 X-0.1024 Y0.5042  
G01 X-0.1024 Y0.4958  
G01 X-0.1037 Y0.4875  
G01 X-0.1063 Y0.4795  
G01 X-0.1101 Y0.4720  
G01 X-0.1151 Y0.4652  
G01 X-0.1210 Y0.4593  
G01 X-0.1278 Y0.4544  
G01 X-0.1353 Y0.4506  
G01 X-0.1433 Y0.4480  
G01 X-0.1516 Y0.4466  
G01 X-0.2484 Y0.4466  
G01 X-0.2567 Y0.4480  
G01 X-0.2647 Y0.4506  
G01 X-0.2676 Y0.4520  
G01 X-0.4539 Y0.2657  
G01 X-0.4539 Y0.2309  
G01 X-0.4809 Y0.2039  
G01 X-0.4899 Y0.2039  
G01 X-0.4899 Y0.1961  
G01 X-0.4809 Y0.1961  
G01 X-0.4539 Y0.1691  
G01 X-0.4539 Y0.1309  
G00 Z0.1000  
G00 X-0.4461 Y0.2309  
G01 Z-0.0020 F10    
G01 X-0.4461 Y0.2691  F20    
G01 X-0.4191 Y0.2961  
G01 X-0.3809 Y0.2961  
G01 X-0.3539 Y0.2691  
G01 X-0.3539 Y0.2309  
G01 X-0.3809 Y0.2039  
G01 X-0.4191 Y0.2039  
G01 X-0.4461 Y0.2309  
G00 Z0.1000  
G00 X-0.3461 Y0.2309  
G01 Z-0.0020 F10    
G01 X-0.3461 Y0.2691  F20    
G01 X-0.3191 Y0.2961  
G01 X-0.2809 Y0.2961  
G01 X-0.2539 Y0.2691  
G01 X-0.2539 Y0.2309  
G01 X-0.2809 Y0.2039  
G01 X-0.3191 Y0.2039  
G01 X-0.3461 Y0.2309  
G00 Z0.1000  
G00 X-0.2461 Y0.2309  
G01 Z-0.0020 F10    
G01 X-0.2461 Y0.2691  F20    
G01 X-0.2191 Y0.2961  
G01 X-0.1809 Y0.2961  
G01 X-0.1539 Y0.2691  
G01 X-0.1539 Y0.2309  
G01 X-0.1809 Y0.2039  
G01 X-0.2191 Y0.2039  
G01 X-0.2461 Y0.2309  
G00 Z0.1000  
G00 X-0.7341 Y0.2189  
G01 Z-0.0020 F10    
G01 X-0.7461 Y0.2309  F20    
G01 X-0.7461 Y0.2349  
G01 X-0.7539 Y0.2349  
G01 X-0.7539 Y0.2309  
G01 X-0.7809 Y0.2039  
G01 X-0.8191 Y0.2039  
G01 X-0.8461 Y0.2309  
G01 X-0.8461 Y0.2691  
G01 X-0.8191 Y0.2961  
G01 X-0.8191 Y0.4466  
G01 X-0.8484 Y0.4466  
G01 X-0.8567 Y0.4480  
G01 X-0.8647 Y0.4506  
G01 X-0.8722 Y0.4544  
G01 X-0.8790 Y0.4593  
G01 X-0.8849 Y0.4652  
G01 X-0.8899 Y0.4720  
G01 X-0.8937 Y0.4795  
G01 X-0.8963 Y0.4875  
G01 X-0.8976 Y0.4958  
G01 X-0.8976 Y0.5042  
G01 X-0.8963 Y0.5125  
G01 X-0.8937 Y0.5205  
G01 X-0.8912 Y0.5254  
G01 X-0.8979 Y0.5187  
G01 X-0.8979 Y0.2961  
G01 X-0.8809 Y0.2961  
G01 X-0.8539 Y0.2691  
G01 X-0.8539 Y0.2309  
G01 X-0.8809 Y0.2039  
G01 X-0.8809 Y0.1961  
G01 X-0.8539 Y0.1691  
G01 X-0.8539 Y0.1309  
G01 X-0.8797 Y0.1051  
G01 X-0.8753 Y0.1051  
G01 X-0.8461 Y0.1343  
G01 X-0.8461 Y0.1691  
G01 X-0.8191 Y0.1961  
G01 X-0.7809 Y0.1961  
G01 X-0.7579 Y0.1731  
G01 X-0.7421 Y0.1731  
G01 X-0.7341 Y0.1811  
G01 X-0.7341 Y0.2189  
G00 Z0.1000  
G00 X-0.9211 Y0.2059  
G01 Z-0.0020 F10    
G01 X-0.9461 Y0.2309  F20    
G01 X-0.9461 Y0.2691  
G01 X-0.9381 Y0.2771  
G01 X-0.9381 Y0.4729  
G01 X-1.9916 Y0.4729  
G01 X-1.9968 Y0.4743  
G01 X-2.0013 Y0.4769  
G01 X-2.0051 Y0.4807  
G01 X-2.0199 Y0.4955  
G01 X-2.0199 Y0.3483  
G01 X-1.9637 Y0.2921  
G01 X-1.9326 Y0.2921  
G01 X-1.9079 Y0.2674  
G01 X-1.9079 Y0.2363  
G01 X-1.7767 Y0.1051  
G01 X-0.9203 Y0.1051  
G01 X-0.9461 Y0.1309  
G01 X-0.9461 Y0.1691  
G01 X-0.9211 Y0.1941  
G01 X-0.9211 Y0.2059  
G00 Z0.1000  
G00 X-1.1303 Y0.6151  
G01 Z-0.0020 F10    
G01 X-0.9381 Y0.8073  F20    
G01 X-0.9381 Y0.9545  
G01 X-0.9397 Y0.9529  
G01 X-1.1189 Y0.7737  
G01 X-1.1189 Y0.6685  
G01 X-1.1149 Y0.6645  
G01 X-1.1149 Y0.6355  
G01 X-1.1353 Y0.6151  
G01 X-1.1303 Y0.6151  
G00 Z0.1000  
G00 X-1.1851 Y0.6355  
G01 Z-0.0020 F10    
G01 X-1.1851 Y0.6645  F20    
G01 X-1.1645 Y0.6851  
G01 X-1.1591 Y0.6851  
G01 X-1.1591 Y0.7846  
G01 X-1.1577 Y0.7898  
G01 X-1.1551 Y0.7943  
G01 X-0.9721 Y0.9773  
G01 X-0.9721 Y1.0225  
G01 X-0.9737 Y1.0209  
G01 X-1.0169 Y0.9777  
G01 X-1.0169 Y0.9665  
G01 X-1.0149 Y0.9645  
G01 X-1.0149 Y0.9355  
G01 X-1.0355 Y0.9149  
G01 X-1.0645 Y0.9149  
G01 X-1.0815 Y0.9319  
G01 X-1.3116 Y0.9319  
G01 X-1.3168 Y0.9333  
G01 X-1.3213 Y0.9359  
G01 X-1.5003 Y1.1149  
G01 X-1.5035 Y1.1149  
G01 X-1.5102 Y1.1162  
G01 X-1.5166 Y1.1189  
G01 X-1.5224 Y1.1227  
G01 X-1.5273 Y1.1276  
G01 X-1.5311 Y1.1334  
G01 X-1.5338 Y1.1398  
G01 X-1.5351 Y1.1465  
G01 X-1.5351 Y1.1535  
G01 X-1.5344 Y1.1572  
G01 X-1.5439 Y1.1477  
G01 X-1.5439 Y1.1133  
G01 X-1.3131 Y0.8826  
G01 X-1.3102 Y0.8838  
G01 X-1.3035 Y0.8851  
G01 X-1.2965 Y0.8851  
G01 X-1.2898 Y0.8838  
G01 X-1.2834 Y0.8811  
G01 X-1.2776 Y0.8773  
G01 X-1.2727 Y0.8724  
G01 X-1.2712 Y0.8701  
G01 X-1.2288 Y0.8701  
G01 X-1.2273 Y0.8724  
G01 X-1.2224 Y0.8773  
G01 X-1.2166 Y0.8811  
G01 X-1.2102 Y0.8838  
G01 X-1.2035 Y0.8851  
G01 X-1.1965 Y0.8851  
G01 X-1.1898 Y0.8838  
G01 X-1.1834 Y0.8811  
G01 X-1.1776 Y0.8773  
G01 X-1.1727 Y0.8724  
G01 X-1.1689 Y0.8666  
G01 X-1.1662 Y0.8602  
G01 X-1.1649 Y0.8535  
G01 X-1.1649 Y0.8465  
G01 X-1.1662 Y0.8398  
G01 X-1.1689 Y0.8334  
G01 X-1.1727 Y0.8276  
G01 X-1.1776 Y0.8227  
G01 X-1.1834 Y0.8189  
G01 X-1.1869 Y0.8174  
G01 X-1.1869 Y0.6373  
G01 X-1.1851 Y0.6355  
G00 Z0.1000  
G00 X-1.0775 Y0.9721  
G01 Z-0.0020 F10    
G01 X-1.0645 Y0.9851  F20    
G01 X-1.0571 Y0.9851  
G01 X-1.0571 Y0.9886  
G01 X-1.0557 Y0.9938  
G01 X-1.0531 Y0.9983  
G01 X-1.0365 Y1.0149  
G01 X-1.0645 Y1.0149  
G01 X-1.0835 Y1.0339  
G01 X-1.1076 Y1.0339  
G01 X-1.1128 Y1.0353  
G01 X-1.1173 Y1.0379  
G01 X-1.1947 Y1.1153  
G01 X-1.1965 Y1.1149  
G01 X-1.2035 Y1.1149  
G01 X-1.2102 Y1.1162  
G01 X-1.2166 Y1.1189  
G01 X-1.2224 Y1.1227  
G01 X-1.2273 Y1.1276  
G01 X-1.2311 Y1.1334  
G01 X-1.2338 Y1.1398  
G01 X-1.2351 Y1.1465  
G01 X-1.2351 Y1.1535  
G01 X-1.2338 Y1.1602  
G01 X-1.2311 Y1.1666  
G01 X-1.2273 Y1.1724  
G01 X-1.2271 Y1.1725  
G01 X-1.2271 Y1.3275  
G01 X-1.2351 Y1.3355  
G01 X-1.2351 Y1.3645  
G01 X-1.2145 Y1.3851  
G01 X-1.1855 Y1.3851  
G01 X-1.1805 Y1.3801  
G01 X-1.1133 Y1.3801  
G01 X-1.0571 Y1.4363  
G01 X-1.0571 Y1.4537  
G01 X-1.0649 Y1.4615  
G01 X-1.0649 Y1.4355  
G01 X-1.0855 Y1.4149  
G01 X-1.1145 Y1.4149  
G01 X-1.1351 Y1.4355  
G01 X-1.1351 Y1.4419  
G01 X-1.2096 Y1.4419  
G01 X-1.2148 Y1.4433  
G01 X-1.2193 Y1.4459  
G01 X-1.2819 Y1.5085  
G01 X-1.2826 Y1.5079  
G01 X-1.3174 Y1.5079  
G01 X-1.3421 Y1.5326  
G01 X-1.3421 Y1.5439  
G01 X-1.5156 Y1.5439  
G01 X-1.5208 Y1.5453  
G01 X-1.5253 Y1.5479  
G01 X-1.5833 Y1.6059  
G01 X-1.6183 Y1.6059  
G01 X-1.6441 Y1.6317  
G01 X-1.6441 Y1.6459  
G01 X-1.7026 Y1.6459  
G01 X-1.7078 Y1.6473  
G01 X-1.7123 Y1.6499  
G01 X-1.7161 Y1.6537  
G01 X-1.9293 Y1.8669  
G01 X-1.9656 Y1.8669  
G01 X-1.9662 Y1.8638  
G01 X-1.9689 Y1.8574  
G01 X-1.9727 Y1.8516  
G01 X-1.9776 Y1.8467  
G01 X-1.9834 Y1.8429  
G01 X-1.9898 Y1.8402  
G01 X-1.9965 Y1.8389  
G01 X-2.0035 Y1.8389  
G01 X-2.0102 Y1.8402  
G01 X-2.0166 Y1.8429  
G01 X-2.0224 Y1.8467  
G01 X-2.0273 Y1.8516  
G01 X-2.0311 Y1.8574  
G01 X-2.0338 Y1.8638  
G01 X-2.0351 Y1.8705  
G01 X-2.0351 Y1.9295  
G01 X-2.0338 Y1.9362  
G01 X-2.0311 Y1.9426  
G01 X-2.0273 Y1.9484  
G01 X-2.0224 Y1.9533  
G01 X-2.0166 Y1.9571  
G01 X-2.0102 Y1.9598  
G01 X-2.0035 Y1.9611  
G01 X-1.9965 Y1.9611  
G01 X-1.9898 Y1.9598  
G01 X-1.9834 Y1.9571  
G01 X-1.9776 Y1.9533  
G01 X-1.9727 Y1.9484  
G01 X-1.9689 Y1.9426  
G01 X-1.9662 Y1.9362  
G01 X-1.9649 Y1.9295  
G01 X-1.9649 Y1.9071  
G01 X-1.9184 Y1.9071  
G01 X-1.9132 Y1.9057  
G01 X-1.9087 Y1.9031  
G01 X-1.7441 Y1.7385  
G01 X-1.7441 Y1.7667  
G01 X-2.0561 Y2.0787  
G01 X-2.0587 Y2.0832  
G01 X-2.0601 Y2.0884  
G01 X-2.0601 Y2.0902  
G01 X-2.0602 Y2.0902  
G01 X-2.0666 Y2.0929  
G01 X-2.0724 Y2.0967  
G01 X-2.0773 Y2.1016  
G01 X-2.0811 Y2.1074  
G01 X-2.0838 Y2.1138  
G01 X-2.0851 Y2.1205  
G01 X-2.0851 Y2.1795  
G01 X-2.0838 Y2.1862  
G01 X-2.0811 Y2.1926  
G01 X-2.0773 Y2.1984  
G01 X-2.0724 Y2.2033  
G01 X-2.0669 Y2.2069  
G01 X-2.1331 Y2.2069  
G01 X-2.1276 Y2.2033  
G01 X-2.1227 Y2.1984  
G01 X-2.1189 Y2.1926  
G01 X-2.1162 Y2.1862  
G01 X-2.1149 Y2.1795  
G01 X-2.1149 Y2.1205  
G01 X-2.1162 Y2.1138  
G01 X-2.1189 Y2.1074  
G01 X-2.1227 Y2.1016  
G01 X-2.1276 Y2.0967  
G01 X-2.1334 Y2.0929  
G01 X-2.1398 Y2.0902  
G01 X-2.1465 Y2.0889  
G01 X-2.1535 Y2.0889  
G01 X-2.1602 Y2.0902  
G01 X-2.1666 Y2.0929  
G01 X-2.1724 Y2.0967  
G01 X-2.1773 Y2.1016  
G01 X-2.1811 Y2.1074  
G01 X-2.1838 Y2.1138  
G01 X-2.1851 Y2.1205  
G01 X-2.1851 Y2.1389  
G01 X-2.2149 Y2.1389  
G01 X-2.2149 Y2.1205  
G01 X-2.2162 Y2.1138  
G01 X-2.2189 Y2.1074  
G01 X-2.2227 Y2.1016  
G01 X-2.2276 Y2.0967  
G01 X-2.2334 Y2.0929  
G01 X-2.2398 Y2.0902  
G01 X-2.2465 Y2.0889  
G01 X-2.2535 Y2.0889  
G01 X-2.2602 Y2.0902  
G01 X-2.2666 Y2.0929  
G01 X-2.2724 Y2.0967  
G01 X-2.2749 Y2.0993  
G01 X-2.2749 Y2.0245  
G01 X-2.2649 Y2.0145  
G01 X-2.2649 Y1.9855  
G01 X-2.2855 Y1.9649  
G01 X-2.3145 Y1.9649  
G01 X-2.3351 Y1.9855  
G01 X-2.3351 Y2.0145  
G01 X-2.3151 Y2.0345  
G01 X-2.3151 Y2.1106  
G01 X-2.3137 Y2.1158  
G01 X-2.3111 Y2.1203  
G01 X-2.2851 Y2.1463  
G01 X-2.2851 Y2.1795  
G01 X-2.2838 Y2.1862  
G01 X-2.2811 Y2.1926  
G01 X-2.2773 Y2.1984  
G01 X-2.2724 Y2.2033  
G01 X-2.2669 Y2.2069  
G01 X-2.2697 Y2.2069  
G01 X-2.3149 Y2.1617  
G01 X-2.3149 Y2.1205  
G01 X-2.3162 Y2.1138  
G01 X-2.3189 Y2.1074  
G01 X-2.3227 Y2.1016  
G01 X-2.3276 Y2.0967  
G01 X-2.3334 Y2.0929  
G01 X-2.3398 Y2.0902  
G01 X-2.3429 Y2.0896  
G01 X-2.3429 Y1.6743  
G01 X-2.3037 Y1.6351  
G01 X-2.2855 Y1.6351  
G01 X-2.2649 Y1.6145  
G01 X-2.2649 Y1.5963  
G01 X-2.2610 Y1.5924  
G01 X-2.1203 Y1.7331  
G01 X-2.1158 Y1.7357  
G01 X-2.1106 Y1.7371  
G01 X-1.8334 Y1.7371  
G01 X-1.8282 Y1.7357  
G01 X-1.8237 Y1.7331  
G01 X-1.8199 Y1.7293  
G01 X-1.4969 Y1.4063  
G01 X-1.4943 Y1.4018  
G01 X-1.4929 Y1.3966  
G01 X-1.4929 Y1.1844  
G01 X-1.4898 Y1.1838  
G01 X-1.4834 Y1.1811  
G01 X-1.4776 Y1.1773  
G01 X-1.4727 Y1.1724  
G01 X-1.4689 Y1.1666  
G01 X-1.4662 Y1.1602  
G01 X-1.4649 Y1.1535  
G01 X-1.4649 Y1.1465  
G01 X-1.4662 Y1.1398  
G01 X-1.4669 Y1.1383  
G01 X-1.3007 Y0.9721  
G01 X-1.0775 Y0.9721  
G00 Z0.1000  
G00 X-1.0755 Y1.0741  
G01 Z-0.0020 F10    
G01 X-1.0645 Y1.0851  F20    
G01 X-1.0355 Y1.0851  
G01 X-1.0149 Y1.0645  
G01 X-1.0149 Y1.0365  
G01 X-1.0061 Y1.0453  
G01 X-1.0061 Y1.7257  
G01 X-1.0953 Y1.8149  
G01 X-1.1145 Y1.8149  
G01 X-1.1325 Y1.8329  
G01 X-1.2579 Y1.8329  
G01 X-1.2579 Y1.8326  
G01 X-1.2826 Y1.8079  
G01 X-1.3174 Y1.8079  
G01 X-1.3421 Y1.8326  
G01 X-1.3421 Y1.8329  
G01 X-1.5559 Y1.8329  
G01 X-1.5559 Y1.8317  
G01 X-1.5817 Y1.8059  
G01 X-1.6183 Y1.8059  
G01 X-1.6441 Y1.8317  
G01 X-1.6441 Y1.8537  
G01 X-1.7501 Y1.9597  
G01 X-1.7527 Y1.9642  
G01 X-1.7541 Y1.9694  
G01 X-1.7541 Y2.0890  
G01 X-1.7602 Y2.0902  
G01 X-1.7666 Y2.0929  
G01 X-1.7724 Y2.0967  
G01 X-1.7773 Y2.1016  
G01 X-1.7811 Y2.1074  
G01 X-1.7838 Y2.1138  
G01 X-1.7851 Y2.1205  
G01 X-1.7851 Y2.1795  
G01 X-1.7843 Y2.1834  
G01 X-1.7859 Y2.1807  
G01 X-1.7897 Y2.1769  
G01 X-1.8149 Y2.1517  
G01 X-1.8149 Y2.1205  
G01 X-1.8159 Y2.1155  
G01 X-1.8159 Y1.9973  
G01 X-1.6237 Y1.8051  
G01 X-1.3574 Y1.8051  
G01 X-1.3522 Y1.8037  
G01 X-1.3477 Y1.8011  
G01 X-1.3439 Y1.7973  
G01 X-1.0209 Y1.4743  
G01 X-1.0183 Y1.4698  
G01 X-1.0169 Y1.4646  
G01 X-1.0169 Y1.4254  
G01 X-1.0183 Y1.4202  
G01 X-1.0209 Y1.4157  
G01 X-1.0247 Y1.4119  
G01 X-1.0927 Y1.3439  
G01 X-1.0972 Y1.3413  
G01 X-1.1024 Y1.3399  
G01 X-1.1649 Y1.3399  
G01 X-1.1649 Y1.3355  
G01 X-1.1855 Y1.3149  
G01 X-1.1869 Y1.3149  
G01 X-1.1869 Y1.1826  
G01 X-1.1834 Y1.1811  
G01 X-1.1776 Y1.1773  
G01 X-1.1727 Y1.1724  
G01 X-1.1689 Y1.1666  
G01 X-1.1662 Y1.1602  
G01 X-1.1649 Y1.1535  
G01 X-1.1649 Y1.1465  
G01 X-1.1656 Y1.1430  
G01 X-1.0967 Y1.0741  
G01 X-1.0755 Y1.0741  
G00 Z0.1000  
G00 X-1.2727 Y1.1276  
G01 Z-0.0020 F10    
G01 X-1.2776 Y1.1227  F20    
G01 X-1.2834 Y1.1189  
G01 X-1.2898 Y1.1162  
G01 X-1.2965 Y1.1149  
G01 X-1.3035 Y1.1149  
G01 X-1.3102 Y1.1162  
G01 X-1.3166 Y1.1189  
G01 X-1.3224 Y1.1227  
G01 X-1.3273 Y1.1276  
G01 X-1.3311 Y1.1334  
G01 X-1.3322 Y1.1359  
G01 X-1.3678 Y1.1359  
G01 X-1.3689 Y1.1334  
G01 X-1.3727 Y1.1276  
G01 X-1.3776 Y1.1227  
G01 X-1.3834 Y1.1189  
G01 X-1.3898 Y1.1162  
G01 X-1.3965 Y1.1149  
G01 X-1.4035 Y1.1149  
G01 X-1.4102 Y1.1162  
G01 X-1.4166 Y1.1189  
G01 X-1.4224 Y1.1227  
G01 X-1.4273 Y1.1276  
G01 X-1.4311 Y1.1334  
G01 X-1.4338 Y1.1398  
G01 X-1.4351 Y1.1465  
G01 X-1.4351 Y1.1535  
G01 X-1.4338 Y1.1602  
G01 X-1.4311 Y1.1666  
G01 X-1.4273 Y1.1724  
G01 X-1.4224 Y1.1773  
G01 X-1.4166 Y1.1811  
G01 X-1.4102 Y1.1838  
G01 X-1.4035 Y1.1851  
G01 X-1.3965 Y1.1851  
G01 X-1.3898 Y1.1838  
G01 X-1.3834 Y1.1811  
G01 X-1.3776 Y1.1773  
G01 X-1.3765 Y1.1761  
G01 X-1.3235 Y1.1761  
G01 X-1.3224 Y1.1773  
G01 X-1.3166 Y1.1811  
G01 X-1.3102 Y1.1838  
G01 X-1.3035 Y1.1851  
G01 X-1.2965 Y1.1851  
G01 X-1.2898 Y1.1838  
G01 X-1.2834 Y1.1811  
G01 X-1.2776 Y1.1773  
G01 X-1.2727 Y1.1724  
G01 X-1.2689 Y1.1666  
G01 X-1.2662 Y1.1602  
G01 X-1.2649 Y1.1535  
G01 X-1.2649 Y1.1465  
G01 X-1.2662 Y1.1398  
G01 X-1.2689 Y1.1334  
G01 X-1.2727 Y1.1276  
G00 Z0.1000  
G00 X-1.5841 Y1.1251  
G01 Z-0.0020 F10    
G01 X-1.5841 Y1.1586  F20    
G01 X-1.5827 Y1.1638  
G01 X-1.5801 Y1.1683  
G01 X-1.5763 Y1.1721  
G01 X-1.5671 Y1.1813  
G01 X-1.5671 Y1.3333  
G01 X-1.5855 Y1.3149  
G01 X-1.6145 Y1.3149  
G01 X-1.6499 Y1.2797  
G01 X-1.6537 Y1.2759  
G01 X-2.0957 Y0.8339  
G01 X-2.1002 Y0.8313  
G01 X-2.1054 Y0.8299  
G01 X-2.1106 Y0.8299  
G01 X-2.2805 Y0.8299  
G01 X-2.0657 Y0.6151  
G01 X-2.0483 Y0.6151  
G01 X-1.8051 Y0.8583  
G01 X-1.8051 Y0.9206  
G01 X-1.8037 Y0.9258  
G01 X-1.8011 Y0.9303  
G01 X-1.7973 Y0.9341  
G01 X-1.6851 Y1.0463  
G01 X-1.6851 Y1.0575  
G01 X-1.8159 Y0.9267  
G01 X-1.8159 Y0.9155  
G01 X-1.8149 Y0.9145  
G01 X-1.8149 Y0.8855  
G01 X-1.8355 Y0.8649  
G01 X-1.8645 Y0.8649  
G01 X-1.8851 Y0.8855  
G01 X-1.8851 Y0.9145  
G01 X-1.8645 Y0.9351  
G01 X-1.8561 Y0.9351  
G01 X-1.8561 Y0.9376  
G01 X-1.8547 Y0.9428  
G01 X-1.8521 Y0.9473  
G01 X-1.6821 Y1.1173  
G01 X-1.6783 Y1.1211  
G01 X-1.6738 Y1.1237  
G01 X-1.6686 Y1.1251  
G01 X-1.5841 Y1.1251  
G00 Z0.1000  
G00 X-1.5671 Y1.3667  
G01 Z-0.0020 F10    
G01 X-1.5671 Y1.3687  F20    
G01 X-1.8613 Y1.6629  
G01 X-2.0147 Y1.6629  
G01 X-2.0369 Y1.6407  
G01 X-2.0369 Y1.5553  
G01 X-2.0147 Y1.5331  
G01 X-2.0034 Y1.5331  
G01 X-1.9982 Y1.5317  
G01 X-1.9937 Y1.5291  
G01 X-1.9899 Y1.5253  
G01 X-1.8497 Y1.3851  
G01 X-1.8355 Y1.3851  
G01 X-1.8149 Y1.3645  
G01 X-1.8149 Y1.3355  
G01 X-1.8355 Y1.3149  
G01 X-1.8645 Y1.3149  
G01 X-1.8851 Y1.3355  
G01 X-1.8851 Y1.3637  
G01 X-2.0143 Y1.4929  
G01 X-2.0256 Y1.4929  
G01 X-2.0308 Y1.4943  
G01 X-2.0353 Y1.4969  
G01 X-2.0391 Y1.5007  
G01 X-2.0693 Y1.5309  
G01 X-2.0731 Y1.5347  
G01 X-2.0757 Y1.5392  
G01 X-2.0771 Y1.5444  
G01 X-2.0771 Y1.6516  
G01 X-2.0757 Y1.6568  
G01 X-2.0731 Y1.6613  
G01 X-2.0391 Y1.6953  
G01 X-2.0375 Y1.6969  
G01 X-2.0997 Y1.6969  
G01 X-2.2409 Y1.5557  
G01 X-2.2409 Y1.3851  
G01 X-2.2355 Y1.3851  
G01 X-2.2149 Y1.3645  
G01 X-2.2149 Y1.3355  
G01 X-2.2355 Y1.3149  
G01 X-2.2607 Y1.3149  
G01 X-2.3769 Y1.1987  
G01 X-2.3769 Y1.1765  
G01 X-2.3649 Y1.1645  
G01 X-2.3649 Y1.1355  
G01 X-2.3855 Y1.1149  
G01 X-2.4097 Y1.1149  
G01 X-2.4449 Y1.0797  
G01 X-2.4449 Y0.9943  
G01 X-2.4171 Y0.9665  
G01 X-2.4171 Y1.0175  
G01 X-2.4351 Y1.0355  
G01 X-2.4351 Y1.0645  
G01 X-2.4145 Y1.0851  
G01 X-2.3855 Y1.0851  
G01 X-2.3649 Y1.0645  
G01 X-2.3649 Y1.0355  
G01 X-2.3769 Y1.0235  
G01 X-2.3769 Y0.9773  
G01 X-2.2851 Y0.8855  
G01 X-2.2851 Y0.9145  
G01 X-2.2811 Y0.9185  
G01 X-2.2811 Y1.0287  
G01 X-2.3173 Y1.0649  
G01 X-2.3395 Y1.0649  
G01 X-2.3601 Y1.0855  
G01 X-2.3601 Y1.1145  
G01 X-2.3395 Y1.1351  
G01 X-2.3105 Y1.1351  
G01 X-2.2899 Y1.1145  
G01 X-2.2899 Y1.0943  
G01 X-2.2449 Y1.0493  
G01 X-2.2423 Y1.0448  
G01 X-2.2409 Y1.0396  
G01 X-2.2409 Y0.9351  
G01 X-2.2355 Y0.9351  
G01 X-2.2149 Y0.9145  
G01 X-2.2149 Y0.8855  
G01 X-2.2303 Y0.8701  
G01 X-2.1163 Y0.8701  
G01 X-1.7029 Y1.2835  
G01 X-1.9721 Y1.5526  
G01 X-1.9727 Y1.5516  
G01 X-1.9776 Y1.5467  
G01 X-1.9834 Y1.5429  
G01 X-1.9898 Y1.5402  
G01 X-1.9965 Y1.5389  
G01 X-2.0035 Y1.5389  
G01 X-2.0102 Y1.5402  
G01 X-2.0166 Y1.5429  
G01 X-2.0224 Y1.5467  
G01 X-2.0273 Y1.5516  
G01 X-2.0311 Y1.5574  
G01 X-2.0338 Y1.5638  
G01 X-2.0351 Y1.5705  
G01 X-2.0351 Y1.6295  
G01 X-2.0338 Y1.6362  
G01 X-2.0311 Y1.6426  
G01 X-2.0273 Y1.6484  
G01 X-2.0224 Y1.6533  
G01 X-2.0166 Y1.6571  
G01 X-2.0102 Y1.6598  
G01 X-2.0035 Y1.6611  
G01 X-1.9965 Y1.6611  
G01 X-1.9898 Y1.6598  
G01 X-1.9834 Y1.6571  
G01 X-1.9776 Y1.6533  
G01 X-1.9727 Y1.6484  
G01 X-1.9689 Y1.6426  
G01 X-1.9662 Y1.6362  
G01 X-1.9649 Y1.6295  
G01 X-1.9649 Y1.6023  
G01 X-1.6747 Y1.3121  
G01 X-1.6743 Y1.3121  
G01 X-1.6351 Y1.3513  
G01 X-1.6351 Y1.3645  
G01 X-1.6145 Y1.3851  
G01 X-1.5855 Y1.3851  
G01 X-1.5671 Y1.3667  
G00 Z0.1000  
G00 X-1.5559 Y1.6353  
G01 Z-0.0020 F10    
G01 X-1.5047 Y1.5841  F20    
G01 X-1.3254 Y1.5841  
G01 X-1.3174 Y1.5921  
G01 X-1.2826 Y1.5921  
G01 X-1.2579 Y1.5674  
G01 X-1.2579 Y1.5413  
G01 X-1.1987 Y1.4821  
G01 X-1.1175 Y1.4821  
G01 X-1.1145 Y1.4851  
G01 X-1.0885 Y1.4851  
G01 X-1.3683 Y1.7649  
G01 X-1.6346 Y1.7649  
G01 X-1.6398 Y1.7663  
G01 X-1.6443 Y1.7689  
G01 X-1.8483 Y1.9729  
G01 X-1.8521 Y1.9767  
G01 X-1.8547 Y1.9812  
G01 X-1.8561 Y1.9864  
G01 X-1.8561 Y2.0894  
G01 X-1.8602 Y2.0902  
G01 X-1.8666 Y2.0929  
G01 X-1.8724 Y2.0967  
G01 X-1.8773 Y2.1016  
G01 X-1.8811 Y2.1074  
G01 X-1.8838 Y2.1138  
G01 X-1.8851 Y2.1205  
G01 X-1.8851 Y2.1627  
G01 X-1.9633 Y2.2409  
G01 X-2.0085 Y2.2409  
G01 X-2.0069 Y2.2393  
G01 X-1.9715 Y2.2039  
G01 X-1.9666 Y2.2071  
G01 X-1.9602 Y2.2098  
G01 X-1.9535 Y2.2111  
G01 X-1.9465 Y2.2111  
G01 X-1.9398 Y2.2098  
G01 X-1.9334 Y2.2071  
G01 X-1.9276 Y2.2033  
G01 X-1.9227 Y2.1984  
G01 X-1.9189 Y2.1926  
G01 X-1.9162 Y2.1862  
G01 X-1.9149 Y2.1795  
G01 X-1.9149 Y2.1205  
G01 X-1.9162 Y2.1138  
G01 X-1.9189 Y2.1074  
G01 X-1.9227 Y2.1016  
G01 X-1.9276 Y2.0967  
G01 X-1.9334 Y2.0929  
G01 X-1.9398 Y2.0902  
G01 X-1.9465 Y2.0889  
G01 X-1.9535 Y2.0889  
G01 X-1.9602 Y2.0902  
G01 X-1.9666 Y2.0929  
G01 X-1.9724 Y2.0967  
G01 X-1.9773 Y2.1016  
G01 X-1.9811 Y2.1074  
G01 X-1.9838 Y2.1138  
G01 X-1.9851 Y2.1205  
G01 X-1.9851 Y2.1607  
G01 X-2.0226 Y2.1982  
G01 X-2.0189 Y2.1926  
G01 X-2.0162 Y2.1862  
G01 X-2.0149 Y2.1795  
