(/Applications/pcbgcode.repo/pcb-gcode.ulp)
(Copyright 2005 - 2012 by John Johnson)
(See readme.txt for licensing terms.)
(This file generated from the board:)
(.../eagle/output_attenuator/zerod.brd)
(Current profile is .../pcbgcode.repo/profiles/mach.pp  )
(This file generated 10/23/14 9:44 AM)
(Settings from pcb-machine.h)
(spindle on time = 0.0000)
(  Tool Size)
(0.0102  )
(spindle speed = 30000.0000)
(tool change at 0.0000  0.0000  3.0000  )
(feed rate xy = F20    )
(feed rate z  = F10    )
(Z Axis Settings)
(  High     Up        Down     Drill)
(0.5000  	0.1000  	-0.0020 	-0.0629 )
(Settings from pcb-defaults.h)
(isolate min = 0.0010)
(isolate max = 0.0040)
(isolate step = 0.0010)
(Generated bottom outlines, bottom drill, )
(Unit of measure: inch)
(Inch Mode)
G20
(Absolute Coordinates)
G90
S30000
G00 Z0.5000  
G00 X0.0000  Y0.0000  
M03
G04 P0.000000
G00 Z0.1000  
G00 X-0.1097 Y0.1633  
G01 Z-0.0020 F10    
G01 X-0.2097 Y0.0633  F20    
G01 X-0.2133 Y0.0597  
G01 X-0.2176 Y0.0572  
G01 X-0.2225 Y0.0559  
G01 X-0.5900 Y0.0559  
G01 X-0.5949 Y0.0572  
G01 X-0.5992 Y0.0597  
G01 X-0.6464 Y0.1069  
G01 X-0.6679 Y0.1069  
G01 X-0.6919 Y0.1309  
G01 X-0.7081 Y0.1309  
G01 X-0.7321 Y0.1069  
G01 X-0.7679 Y0.1069  
G01 X-0.7919 Y0.1309  
G01 X-0.8081 Y0.1309  
G01 X-0.8321 Y0.1069  
G01 X-0.8536 Y0.1069  
G01 X-0.9008 Y0.0597  
G01 X-0.9051 Y0.0572  
G01 X-0.9100 Y0.0559  
G01 X-1.1650 Y0.0559  
G01 X-1.1699 Y0.0572  
G01 X-1.1742 Y0.0597  
G01 X-1.1778 Y0.0633  
G01 X-1.9778 Y0.8633  
G01 X-1.9803 Y0.8676  
G01 X-1.9816 Y0.8725  
G01 X-1.9816 Y0.9275  
G01 X-1.9803 Y0.9324  
G01 X-1.9778 Y0.9367  
G01 X-1.9742 Y0.9403  
G01 X-1.9367 Y0.9778  
G01 X-1.9324 Y0.9803  
G01 X-1.9301 Y0.9809  
G01 X-2.2900 Y0.9809  
G01 X-2.2949 Y0.9822  
G01 X-2.2992 Y0.9847  
G01 X-2.3742 Y1.0597  
G01 X-2.3778 Y1.0633  
G01 X-2.3803 Y1.0676  
G01 X-2.3816 Y1.0725  
G01 X-2.3816 Y1.4400  
G01 X-2.3803 Y1.4449  
G01 X-2.3778 Y1.4492  
G01 X-2.3321 Y1.4949  
G01 X-2.3321 Y1.5133  
G01 X-2.3300 Y1.5154  
G01 X-2.4153 Y1.6008  
G01 X-2.4178 Y1.6051  
G01 X-2.4191 Y1.6100  
G01 X-2.4191 Y1.6184  
G01 X-2.6275 Y1.6184  
G01 X-2.6324 Y1.6197  
G01 X-2.6367 Y1.6222  
G01 X-2.6742 Y1.6597  
G01 X-2.6778 Y1.6633  
G01 X-2.6803 Y1.6676  
G01 X-2.6816 Y1.6725  
G01 X-2.6816 Y2.0775  
G01 X-2.6803 Y2.0824  
G01 X-2.6778 Y2.0867  
G01 X-2.6300 Y2.1346  
G01 X-2.6321 Y2.1367  
G01 X-2.6321 Y2.1633  
G01 X-2.6133 Y2.1821  
G01 X-2.5867 Y2.1821  
G01 X-2.5737 Y2.1691  
G01 X-2.4954 Y2.1691  
G01 X-2.4066 Y2.2579  
G01 X-2.4066 Y2.2650  
G01 X-2.4053 Y2.2699  
G01 X-2.4028 Y2.2742  
G01 X-2.3992 Y2.2778  
G01 X-2.3821 Y2.2949  
G01 X-2.3821 Y2.3292  
G01 X-2.3809 Y2.3354  
G01 X-2.3784 Y2.3412  
G01 X-2.3749 Y2.3465  
G01 X-2.3705 Y2.3509  
G01 X-2.3652 Y2.3544  
G01 X-2.3594 Y2.3569  
G01 X-2.3532 Y2.3581  
G01 X-2.3468 Y2.3581  
G01 X-2.3406 Y2.3569  
G01 X-2.3350 Y2.3545  
G01 X-2.2903 Y2.3992  
G01 X-2.2867 Y2.4028  
G01 X-2.2824 Y2.4053  
G01 X-2.2775 Y2.4066  
G01 X-2.0225 Y2.4066  
G01 X-2.0176 Y2.4053  
G01 X-2.0133 Y2.4028  
G01 X-1.9650 Y2.3545  
G01 X-1.9594 Y2.3569  
G01 X-1.9532 Y2.3581  
G01 X-1.9468 Y2.3581  
G01 X-1.9406 Y2.3569  
G01 X-1.9348 Y2.3544  
G01 X-1.9295 Y2.3509  
G01 X-1.9251 Y2.3465  
G01 X-1.9216 Y2.3412  
G01 X-1.9191 Y2.3354  
G01 X-1.9179 Y2.3292  
G01 X-1.9179 Y2.2708  
G01 X-1.9191 Y2.2646  
G01 X-1.9209 Y2.2604  
G01 X-1.5926 Y1.9321  
G01 X-1.5867 Y1.9321  
G01 X-1.5679 Y1.9133  
G01 X-1.5679 Y1.8867  
G01 X-1.5809 Y1.8737  
G01 X-1.5809 Y1.6975  
G01 X-1.5822 Y1.6926  
G01 X-1.5847 Y1.6883  
G01 X-1.6589 Y1.6141  
G01 X-1.6589 Y1.5830  
G01 X-1.6637 Y1.5782  
G01 X-1.5347 Y1.4492  
G01 X-1.5322 Y1.4449  
G01 X-1.5309 Y1.4400  
G01 X-1.5309 Y1.3862  
G01 X-1.5109 Y1.3662  
G01 X-1.5109 Y1.3338  
G01 X-1.5338 Y1.3109  
G01 X-1.5621 Y1.3109  
G01 X-1.6809 Y1.1921  
G01 X-1.6809 Y1.1258  
G01 X-1.6795 Y1.1249  
G01 X-1.6751 Y1.1205  
G01 X-1.6716 Y1.1152  
G01 X-1.6691 Y1.1094  
G01 X-1.6690 Y1.1085  
G01 X-1.4796 Y0.9191  
G01 X-1.1763 Y0.9191  
G01 X-1.1633 Y0.9321  
G01 X-1.1367 Y0.9321  
G01 X-1.1237 Y0.9191  
G01 X-0.9910 Y0.9191  
G01 X-0.9909 Y0.9193  
G01 X-0.9873 Y0.9264  
G01 X-0.9827 Y0.9328  
G01 X-0.9771 Y0.9384  
G01 X-0.9706 Y0.9431  
G01 X-0.9636 Y0.9467  
G01 X-0.9560 Y0.9491  
G01 X-0.9482 Y0.9503  
G01 X-0.8518 Y0.9503  
G01 X-0.8440 Y0.9491  
G01 X-0.8364 Y0.9467  
G01 X-0.8294 Y0.9431  
G01 X-0.8229 Y0.9384  
G01 X-0.8173 Y0.9328  
G01 X-0.8127 Y0.9264  
G01 X-0.8091 Y0.9193  
G01 X-0.8066 Y0.9118  
G01 X-0.8054 Y0.9040  
G01 X-0.8054 Y0.8960  
G01 X-0.8066 Y0.8882  
G01 X-0.8091 Y0.8807  
G01 X-0.8127 Y0.8736  
G01 X-0.8173 Y0.8672  
G01 X-0.8229 Y0.8616  
G01 X-0.8294 Y0.8569  
G01 X-0.8364 Y0.8533  
G01 X-0.8440 Y0.8509  
G01 X-0.8518 Y0.8496  
G01 X-0.9482 Y0.8496  
G01 X-0.9560 Y0.8509  
G01 X-0.9636 Y0.8533  
G01 X-0.9706 Y0.8569  
G01 X-0.9771 Y0.8616  
G01 X-0.9827 Y0.8672  
G01 X-0.9873 Y0.8736  
G01 X-0.9909 Y0.8807  
G01 X-0.9910 Y0.8809  
G01 X-1.1237 Y0.8809  
G01 X-1.1367 Y0.8679  
G01 X-1.1633 Y0.8679  
G01 X-1.1763 Y0.8809  
G01 X-1.4900 Y0.8809  
G01 X-1.4949 Y0.8822  
G01 X-1.4992 Y0.8847  
G01 X-1.6857 Y1.0712  
G01 X-1.6906 Y1.0691  
G01 X-1.6968 Y1.0679  
G01 X-1.7032 Y1.0679  
G01 X-1.7094 Y1.0691  
G01 X-1.7152 Y1.0716  
G01 X-1.7205 Y1.0751  
G01 X-1.7249 Y1.0795  
G01 X-1.7284 Y1.0848  
G01 X-1.7309 Y1.0906  
G01 X-1.7321 Y1.0968  
G01 X-1.7321 Y1.1032  
G01 X-1.7309 Y1.1094  
G01 X-1.7284 Y1.1152  
G01 X-1.7249 Y1.1205  
G01 X-1.7205 Y1.1249  
G01 X-1.7191 Y1.1258  
G01 X-1.7191 Y1.2025  
G01 X-1.7178 Y1.2074  
G01 X-1.7153 Y1.2117  
G01 X-1.5891 Y1.3379  
G01 X-1.5891 Y1.3662  
G01 X-1.5691 Y1.3862  
G01 X-1.5691 Y1.4296  
G01 X-1.6984 Y1.5589  
G01 X-1.7170 Y1.5589  
G01 X-1.7411 Y1.5830  
G01 X-1.7411 Y1.6170  
G01 X-1.7170 Y1.6411  
G01 X-1.6859 Y1.6411  
G01 X-1.6191 Y1.7079  
G01 X-1.6191 Y1.8737  
G01 X-1.6321 Y1.8867  
G01 X-1.6321 Y1.9133  
G01 X-1.6300 Y1.9154  
G01 X-1.9572 Y2.2427  
G01 X-1.9594 Y2.2431  
G01 X-1.9652 Y2.2456  
G01 X-1.9705 Y2.2491  
G01 X-1.9749 Y2.2535  
G01 X-1.9784 Y2.2588  
G01 X-1.9809 Y2.2646  
G01 X-1.9821 Y2.2708  
G01 X-1.9821 Y2.3176  
G01 X-2.0329 Y2.3684  
G01 X-2.2671 Y2.3684  
G01 X-2.3179 Y2.3176  
G01 X-2.3179 Y2.2708  
G01 X-2.3191 Y2.2646  
G01 X-2.3216 Y2.2588  
G01 X-2.3251 Y2.2535  
G01 X-2.3295 Y2.2491  
G01 X-2.3348 Y2.2456  
G01 X-2.3406 Y2.2431  
G01 X-2.3468 Y2.2419  
G01 X-2.3532 Y2.2419  
G01 X-2.3594 Y2.2431  
G01 X-2.3652 Y2.2456  
G01 X-2.3684 Y2.2477  
G01 X-2.3684 Y2.2475  
G01 X-2.3697 Y2.2426  
G01 X-2.3722 Y2.2383  
G01 X-2.4722 Y2.1383  
G01 X-2.4758 Y2.1347  
G01 X-2.4801 Y2.1322  
G01 X-2.4850 Y2.1309  
G01 X-2.5737 Y2.1309  
G01 X-2.5867 Y2.1179  
G01 X-2.5926 Y2.1179  
G01 X-2.6434 Y2.0671  
G01 X-2.6434 Y1.6829  
G01 X-2.6171 Y1.6566  
G01 X-2.4191 Y1.6566  
G01 X-2.4191 Y1.8237  
G01 X-2.4321 Y1.8367  
G01 X-2.4321 Y1.8633  
G01 X-2.4133 Y1.8821  
G01 X-2.3867 Y1.8821  
G01 X-2.3679 Y1.8633  
G01 X-2.3679 Y1.8367  
G01 X-2.3809 Y1.8237  
G01 X-2.3809 Y1.6204  
G01 X-2.2926 Y1.5321  
G01 X-2.2867 Y1.5321  
G01 X-2.2679 Y1.5133  
G01 X-2.2679 Y1.4867  
G01 X-2.2867 Y1.4679  
G01 X-2.3051 Y1.4679  
G01 X-2.3434 Y1.4296  
G01 X-2.3434 Y1.0829  
G01 X-2.2796 Y1.0191  
G01 X-1.9263 Y1.0191  
G01 X-1.9133 Y1.0321  
G01 X-1.8867 Y1.0321  
G01 X-1.8679 Y1.0133  
G01 X-1.8679 Y0.9867  
G01 X-1.8684 Y0.9862  
G01 X-1.8684 Y0.9850  
G01 X-1.8697 Y0.9801  
G01 X-1.8722 Y0.9758  
G01 X-1.8972 Y0.9508  
G01 X-1.9008 Y0.9472  
G01 X-1.9051 Y0.9447  
G01 X-1.9100 Y0.9434  
G01 X-1.9171 Y0.9434  
G01 X-1.9434 Y0.9171  
G01 X-1.9434 Y0.8829  
G01 X-1.1546 Y0.0941  
G01 X-0.9204 Y0.0941  
G01 X-0.8877 Y0.1268  
G01 X-0.8931 Y0.1321  
G01 X-0.8931 Y0.1679  
G01 X-0.8679 Y0.1931  
G01 X-0.8321 Y0.1931  
G01 X-0.8081 Y0.1691  
G01 X-0.7919 Y0.1691  
G01 X-0.7679 Y0.1931  
G01 X-0.7321 Y0.1931  
G01 X-0.7081 Y0.1691  
G01 X-0.6919 Y0.1691  
G01 X-0.6691 Y0.1919  
G01 X-0.6691 Y0.2081  
G01 X-0.6919 Y0.2309  
G01 X-0.7081 Y0.2309  
G01 X-0.7321 Y0.2069  
G01 X-0.7679 Y0.2069  
G01 X-0.7919 Y0.2309  
G01 X-0.8081 Y0.2309  
G01 X-0.8321 Y0.2069  
G01 X-0.8679 Y0.2069  
G01 X-0.8931 Y0.2321  
G01 X-0.8931 Y0.2679  
G01 X-0.8679 Y0.2931  
G01 X-0.8321 Y0.2931  
G01 X-0.8081 Y0.2691  
G01 X-0.7919 Y0.2691  
G01 X-0.7691 Y0.2919  
G01 X-0.7691 Y0.4546  
G01 X-0.9153 Y0.6008  
G01 X-0.9178 Y0.6051  
G01 X-0.9191 Y0.6100  
G01 X-0.9191 Y0.6138  
G01 X-0.9391 Y0.6338  
G01 X-0.9391 Y0.6662  
G01 X-0.9162 Y0.6891  
G01 X-0.8838 Y0.6891  
G01 X-0.8609 Y0.6662  
G01 X-0.8609 Y0.6338  
G01 X-0.8776 Y0.6171  
G01 X-0.7383 Y0.4778  
G01 X-0.7347 Y0.4742  
G01 X-0.7322 Y0.4699  
G01 X-0.7320 Y0.4691  
G01 X-0.3910 Y0.4691  
G01 X-0.3909 Y0.4693  
G01 X-0.3873 Y0.4764  
G01 X-0.3827 Y0.4828  
G01 X-0.3771 Y0.4884  
G01 X-0.3706 Y0.4931  
G01 X-0.3636 Y0.4967  
G01 X-0.3560 Y0.4991  
G01 X-0.3482 Y0.5003  
G01 X-0.2518 Y0.5003  
G01 X-0.2440 Y0.4991  
G01 X-0.2364 Y0.4967  
G01 X-0.2294 Y0.4931  
G01 X-0.2229 Y0.4884  
G01 X-0.2173 Y0.4828  
G01 X-0.2127 Y0.4764  
G01 X-0.2091 Y0.4693  
G01 X-0.2066 Y0.4618  
G01 X-0.2054 Y0.4540  
G01 X-0.2054 Y0.4460  
G01 X-0.2066 Y0.4382  
G01 X-0.2091 Y0.4307  
G01 X-0.2127 Y0.4236  
G01 X-0.2173 Y0.4172  
G01 X-0.2229 Y0.4116  
G01 X-0.2294 Y0.4069  
G01 X-0.2364 Y0.4033  
G01 X-0.2440 Y0.4009  
G01 X-0.2518 Y0.3996  
G01 X-0.3482 Y0.3996  
G01 X-0.3560 Y0.4009  
G01 X-0.3636 Y0.4033  
G01 X-0.3706 Y0.4069  
G01 X-0.3771 Y0.4116  
G01 X-0.3827 Y0.4172  
G01 X-0.3873 Y0.4236  
G01 X-0.3909 Y0.4307  
G01 X-0.3910 Y0.4309  
G01 X-0.7309 Y0.4309  
G01 X-0.7309 Y0.2919  
G01 X-0.7081 Y0.2691  
G01 X-0.6919 Y0.2691  
G01 X-0.6679 Y0.2931  
G01 X-0.6321 Y0.2931  
G01 X-0.6069 Y0.2679  
G01 X-0.6069 Y0.2321  
G01 X-0.6309 Y0.2081  
G01 X-0.6309 Y0.1919  
G01 X-0.6069 Y0.1679  
G01 X-0.6069 Y0.1321  
G01 X-0.6123 Y0.1268  
G01 X-0.5796 Y0.0941  
G01 X-0.2329 Y0.0941  
G01 X-0.1441 Y0.1829  
G01 X-0.1441 Y0.8796  
G01 X-0.2653 Y1.0008  
G01 X-0.2678 Y1.0051  
G01 X-0.2691 Y1.0100  
G01 X-0.2691 Y1.0814  
G01 X-0.2784 Y1.0814  
G01 X-0.3186 Y1.1216  
G01 X-0.3186 Y1.1309  
G01 X-0.3814 Y1.1309  
G01 X-0.3814 Y1.1216  
G01 X-0.4216 Y1.0814  
G01 X-0.4784 Y1.0814  
G01 X-0.5186 Y1.1216  
G01 X-0.5186 Y1.1784  
G01 X-0.4784 Y1.2186  
G01 X-0.4216 Y1.2186  
G01 X-0.3814 Y1.1784  
G01 X-0.3814 Y1.1691  
G01 X-0.3186 Y1.1691  
G01 X-0.3186 Y1.1784  
G01 X-0.2784 Y1.2186  
G01 X-0.2216 Y1.2186  
G01 X-0.2212 Y1.2183  
G01 X-0.1566 Y1.2829  
G01 X-0.1566 Y2.6921  
G01 X-0.2829 Y2.8184  
G01 X-0.4171 Y2.8184  
G01 X-0.4580 Y2.7775  
G01 X-0.4509 Y2.7703  
G01 X-0.4509 Y2.7297  
G01 X-0.4797 Y2.7009  
G01 X-0.5203 Y2.7009  
G01 X-0.5491 Y2.7297  
G01 X-0.5491 Y2.7309  
G01 X-0.9796 Y2.7309  
G01 X-1.1821 Y2.5284  
G01 X-1.1819 Y2.5282  
G01 X-1.1819 Y2.4718  
G01 X-1.2218 Y2.4319  
G01 X-1.2782 Y2.4319  
G01 X-1.2846 Y2.4383  
G01 X-1.5258 Y2.1972  
G01 X-1.5301 Y2.1947  
G01 X-1.5350 Y2.1934  
G01 X-1.6775 Y2.1934  
G01 X-1.6824 Y2.1947  
G01 X-1.6867 Y2.1972  
G01 X-1.6903 Y2.2008  
G01 X-1.7278 Y2.2383  
G01 X-1.7303 Y2.2426  
G01 X-1.7316 Y2.2475  
G01 X-1.7316 Y2.2477  
G01 X-1.7348 Y2.2456  
G01 X-1.7406 Y2.2431  
G01 X-1.7468 Y2.2419  
G01 X-1.7532 Y2.2419  
G01 X-1.7594 Y2.2431  
G01 X-1.7652 Y2.2456  
G01 X-1.7705 Y2.2491  
G01 X-1.7749 Y2.2535  
G01 X-1.7784 Y2.2588  
G01 X-1.7809 Y2.2646  
G01 X-1.7821 Y2.2708  
G01 X-1.7821 Y2.3292  
G01 X-1.7809 Y2.3354  
G01 X-1.7784 Y2.3412  
G01 X-1.7749 Y2.3465  
G01 X-1.7705 Y2.3509  
G01 X-1.7652 Y2.3544  
G01 X-1.7594 Y2.3569  
G01 X-1.7532 Y2.3581  
G01 X-1.7468 Y2.3581  
G01 X-1.7406 Y2.3569  
G01 X-1.7348 Y2.3544  
G01 X-1.7295 Y2.3509  
G01 X-1.7251 Y2.3465  
G01 X-1.7216 Y2.3412  
G01 X-1.7191 Y2.3354  
G01 X-1.7179 Y2.3292  
G01 X-1.7179 Y2.2949  
G01 X-1.7008 Y2.2778  
G01 X-1.6972 Y2.2742  
G01 X-1.6947 Y2.2699  
G01 X-1.6934 Y2.2650  
G01 X-1.6934 Y2.2579  
G01 X-1.6671 Y2.2316  
G01 X-1.5454 Y2.2316  
G01 X-1.3117 Y2.4654  
G01 X-1.3181 Y2.4718  
G01 X-1.3181 Y2.5282  
G01 X-1.2782 Y2.5681  
G01 X-1.2218 Y2.5681  
G01 X-1.2091 Y2.5554  
G01 X-0.9992 Y2.7653  
G01 X-0.9949 Y2.7678  
G01 X-0.9900 Y2.7691  
G01 X-0.5491 Y2.7691  
G01 X-0.5491 Y2.7703  
G01 X-0.5203 Y2.7991  
G01 X-0.4904 Y2.7991  
G01 X-0.4403 Y2.8492  
G01 X-0.4367 Y2.8528  
G01 X-0.4324 Y2.8553  
G01 X-0.4275 Y2.8566  
G01 X-0.2725 Y2.8566  
G01 X-0.2676 Y2.8553  
G01 X-0.2633 Y2.8528  
G01 X-0.1258 Y2.7153  
G01 X-0.1222 Y2.7117  
G01 X-0.1197 Y2.7074  
G01 X-0.1184 Y2.7025  
G01 X-0.1184 Y1.2725  
G01 X-0.1197 Y1.2676  
G01 X-0.1222 Y1.2633  
G01 X-0.1942 Y1.1913  
G01 X-0.1814 Y1.1784  
G01 X-0.1814 Y1.1216  
G01 X-0.2216 Y1.0814  
G01 X-0.2309 Y1.0814  
G01 X-0.2309 Y1.0204  
G01 X-0.1133 Y0.9028  
G01 X-0.1097 Y0.8992  
G01 X-0.1072 Y0.8949  
G01 X-0.1059 Y0.8900  
G01 X-0.1059 Y0.1725  
G01 X-0.1072 Y0.1676  
G01 X-0.1097 Y0.1633  
G00 Z0.1000  
G00 X-0.2069 Y0.1679  
G01 Z-0.0020 F10    
G01 X-0.2069 Y0.1321  F20    
G01 X-0.2321 Y0.1069  
G01 X-0.2679 Y0.1069  
G01 X-0.2931 Y0.1321  
G01 X-0.2931 Y0.1679  
G01 X-0.2679 Y0.1931  
G01 X-0.2321 Y0.1931  
G01 X-0.2069 Y0.1679  
G00 Z0.1000  
G00 X-0.2069 Y0.2321  
G01 Z-0.0020 F10    
G01 X-0.2321 Y0.2069  F20    
G01 X-0.2679 Y0.2069  
G01 X-0.2931 Y0.2321  
G01 X-0.2931 Y0.2679  
G01 X-0.2679 Y0.2931  
G01 X-0.2321 Y0.2931  
G01 X-0.2069 Y0.2679  
G01 X-0.2069 Y0.2321  
G00 Z0.1000  
G00 X-0.3069 Y0.2321  
G01 Z-0.0020 F10    
G01 X-0.3321 Y0.2069  F20    
G01 X-0.3679 Y0.2069  
G01 X-0.3931 Y0.2321  
G01 X-0.3931 Y0.2679  
G01 X-0.3679 Y0.2931  
G01 X-0.3321 Y0.2931  
G01 X-0.3069 Y0.2679  
G01 X-0.3069 Y0.2321  
G00 Z0.1000  
G00 X-0.3321 Y0.1931  
G01 Z-0.0020 F10    
G01 X-0.3069 Y0.1679  F20    
G01 X-0.3069 Y0.1321  
G01 X-0.3321 Y0.1069  
G01 X-0.3679 Y0.1069  
G01 X-0.3931 Y0.1321  
G01 X-0.3931 Y0.1679  
G01 X-0.3679 Y0.1931  
G01 X-0.3321 Y0.1931  
G00 Z0.1000  
G00 X-0.4321 Y0.1931  
G01 Z-0.0020 F10    
G01 X-0.4069 Y0.1679  F20    
G01 X-0.4069 Y0.1321  
G01 X-0.4321 Y0.1069  
G01 X-0.4679 Y0.1069  
G01 X-0.4931 Y0.1321  
G01 X-0.4931 Y0.1679  
G01 X-0.4679 Y0.1931  
G01 X-0.4321 Y0.1931  
G00 Z0.1000  
G00 X-0.4321 Y0.2069  
G01 Z-0.0020 F10    
G01 X-0.4679 Y0.2069  F20    
G01 X-0.4931 Y0.2321  
G01 X-0.4931 Y0.2679  
G01 X-0.4679 Y0.2931  
G01 X-0.4321 Y0.2931  
G01 X-0.4069 Y0.2679  
G01 X-0.4069 Y0.2321  
G01 X-0.4321 Y0.2069  
G00 Z0.1000  
G00 X-0.5069 Y0.2321  
G01 Z-0.0020 F10    
G01 X-0.5309 Y0.2081  F20    
G01 X-0.5309 Y0.1919  
G01 X-0.5069 Y0.1679  
G01 X-0.5069 Y0.1321  
G01 X-0.5321 Y0.1069  
G01 X-0.5679 Y0.1069  
G01 X-0.5931 Y0.1321  
G01 X-0.5931 Y0.1679  
G01 X-0.5691 Y0.1919  
G01 X-0.5691 Y0.2081  
G01 X-0.5931 Y0.2321  
G01 X-0.5931 Y0.2679  
G01 X-0.5679 Y0.2931  
G01 X-0.5464 Y0.2931  
G01 X-0.4992 Y0.3403  
G01 X-0.4949 Y0.3428  
G01 X-0.4900 Y0.3441  
G01 X-0.2704 Y0.3441  
G01 X-0.1941 Y0.4204  
G01 X-0.1941 Y0.4796  
G01 X-0.3153 Y0.6008  
G01 X-0.3178 Y0.6051  
G01 X-0.3191 Y0.6100  
G01 X-0.3191 Y0.8496  
G01 X-0.3482 Y0.8496  
G01 X-0.3560 Y0.8509  
G01 X-0.3636 Y0.8533  
G01 X-0.3706 Y0.8569  
G01 X-0.3771 Y0.8616  
G01 X-0.3827 Y0.8672  
G01 X-0.3873 Y0.8736  
G01 X-0.3909 Y0.8807  
G01 X-0.3934 Y0.8882  
G01 X-0.3946 Y0.8960  
G01 X-0.3946 Y0.9040  
G01 X-0.3934 Y0.9118  
G01 X-0.3909 Y0.9193  
G01 X-0.3885 Y0.9240  
G01 X-0.5992 Y1.1347  
G01 X-0.6028 Y1.1383  
G01 X-0.6053 Y1.1426  
G01 X-0.6066 Y1.1475  
G01 X-0.6066 Y1.3921  
G01 X-0.8117 Y1.5972  
G01 X-0.8153 Y1.6008  
G01 X-0.8178 Y1.6051  
G01 X-0.8191 Y1.6100  
G01 X-0.8191 Y1.6296  
G01 X-0.8704 Y1.6809  
G01 X-1.2309 Y1.6809  
G01 X-1.2309 Y1.6654  
G01 X-1.2281 Y1.6646  
G01 X-1.2198 Y1.6612  
G01 X-1.2121 Y1.6567  
G01 X-1.2050 Y1.6513  
G01 X-1.1987 Y1.6450  
G01 X-1.1933 Y1.6379  
G01 X-1.1888 Y1.6302  
G01 X-1.1854 Y1.6219  
G01 X-1.1831 Y1.6133  
G01 X-1.1819 Y1.6045  
G01 X-1.1819 Y1.5955  
G01 X-1.1831 Y1.5867  
G01 X-1.1854 Y1.5781  
G01 X-1.1888 Y1.5698  
G01 X-1.1933 Y1.5621  
G01 X-1.1987 Y1.5550  
G01 X-1.2050 Y1.5487  
G01 X-1.2121 Y1.5433  
G01 X-1.2198 Y1.5388  
G01 X-1.2281 Y1.5354  
G01 X-1.2367 Y1.5331  
G01 X-1.2455 Y1.5319  
G01 X-1.2545 Y1.5319  
G01 X-1.2633 Y1.5331  
G01 X-1.2719 Y1.5354  
G01 X-1.2802 Y1.5388  
G01 X-1.2827 Y1.5403  
G01 X-1.3809 Y1.4421  
G01 X-1.3809 Y1.1258  
G01 X-1.3795 Y1.1249  
G01 X-1.3751 Y1.1205  
G01 X-1.3716 Y1.1152  
G01 X-1.3691 Y1.1094  
G01 X-1.3679 Y1.1032  
G01 X-1.3679 Y1.0968  
G01 X-1.3682 Y1.0952  
G01 X-1.2921 Y1.0191  
G01 X-1.1763 Y1.0191  
G01 X-1.1633 Y1.0321  
G01 X-1.1367 Y1.0321  
G01 X-1.1179 Y1.0133  
G01 X-1.1179 Y0.9867  
G01 X-1.1367 Y0.9679  
G01 X-1.1633 Y0.9679  
G01 X-1.1763 Y0.9809  
G01 X-1.3025 Y0.9809  
G01 X-1.3074 Y0.9822  
G01 X-1.3117 Y0.9847  
G01 X-1.3952 Y1.0682  
G01 X-1.3968 Y1.0679  
G01 X-1.4032 Y1.0679  
G01 X-1.4094 Y1.0691  
G01 X-1.4152 Y1.0716  
G01 X-1.4205 Y1.0751  
G01 X-1.4249 Y1.0795  
G01 X-1.4284 Y1.0848  
G01 X-1.4309 Y1.0906  
G01 X-1.4321 Y1.0968  
G01 X-1.4321 Y1.1032  
G01 X-1.4309 Y1.1094  
G01 X-1.4284 Y1.1152  
G01 X-1.4249 Y1.1205  
G01 X-1.4205 Y1.1249  
G01 X-1.4191 Y1.1258  
G01 X-1.4191 Y1.4525  
G01 X-1.4178 Y1.4574  
G01 X-1.4153 Y1.4617  
G01 X-1.3097 Y1.5673  
G01 X-1.3112 Y1.5698  
G01 X-1.3146 Y1.5781  
G01 X-1.3169 Y1.5867  
G01 X-1.3181 Y1.5955  
G01 X-1.3181 Y1.6045  
G01 X-1.3169 Y1.6133  
G01 X-1.3146 Y1.6219  
G01 X-1.3112 Y1.6302  
G01 X-1.3067 Y1.6379  
G01 X-1.3013 Y1.6450  
G01 X-1.2950 Y1.6513  
G01 X-1.2879 Y1.6567  
G01 X-1.2802 Y1.6612  
G01 X-1.2719 Y1.6646  
G01 X-1.2691 Y1.6654  
G01 X-1.2691 Y1.7296  
G01 X-1.6074 Y2.0679  
G01 X-1.6133 Y2.0679  
G01 X-1.6263 Y2.0809  
G01 X-1.6650 Y2.0809  
G01 X-1.6699 Y2.0822  
G01 X-1.6742 Y2.0847  
G01 X-1.8350 Y2.2455  
G01 X-1.8406 Y2.2431  
G01 X-1.8468 Y2.2419  
G01 X-1.8532 Y2.2419  
G01 X-1.8594 Y2.2431  
G01 X-1.8652 Y2.2456  
G01 X-1.8705 Y2.2491  
G01 X-1.8749 Y2.2535  
G01 X-1.8784 Y2.2588  
G01 X-1.8809 Y2.2646  
G01 X-1.8821 Y2.2708  
G01 X-1.8821 Y2.3176  
G01 X-1.9305 Y2.3660  
G01 X-1.9340 Y2.3695  
G01 X-1.9829 Y2.4184  
G01 X-2.3171 Y2.4184  
G01 X-2.3934 Y2.3421  
G01 X-2.3934 Y2.3350  
G01 X-2.3947 Y2.3301  
G01 X-2.3972 Y2.3258  
G01 X-2.4008 Y2.3222  
G01 X-2.4179 Y2.3051  
G01 X-2.4179 Y2.2708  
G01 X-2.4191 Y2.2646  
G01 X-2.4216 Y2.2588  
G01 X-2.4251 Y2.2535  
G01 X-2.4295 Y2.2491  
G01 X-2.4348 Y2.2456  
G01 X-2.4406 Y2.2431  
G01 X-2.4468 Y2.2419  
G01 X-2.4532 Y2.2419  
G01 X-2.4594 Y2.2431  
G01 X-2.4652 Y2.2456  
G01 X-2.4705 Y2.2491  
G01 X-2.4749 Y2.2535  
G01 X-2.4784 Y2.2588  
G01 X-2.4809 Y2.2646  
G01 X-2.4821 Y2.2708  
G01 X-2.4821 Y2.3292  
G01 X-2.4809 Y2.3354  
G01 X-2.4784 Y2.3412  
G01 X-2.4749 Y2.3465  
G01 X-2.4705 Y2.3509  
G01 X-2.4652 Y2.3544  
G01 X-2.4594 Y2.3569  
G01 X-2.4532 Y2.3581  
G01 X-2.4468 Y2.3581  
G01 X-2.4406 Y2.3569  
G01 X-2.4348 Y2.3544  
G01 X-2.4316 Y2.3523  
G01 X-2.4316 Y2.3525  
G01 X-2.4303 Y2.3574  
G01 X-2.4278 Y2.3617  
G01 X-2.3403 Y2.4492  
G01 X-2.3367 Y2.4528  
G01 X-2.3324 Y2.4553  
G01 X-2.3275 Y2.4566  
G01 X-1.9725 Y2.4566  
G01 X-1.9676 Y2.4553  
G01 X-1.9633 Y2.4528  
G01 X-1.9167 Y2.4062  
G01 X-1.9150 Y2.4066  
G01 X-1.6704 Y2.4066  
G01 X-1.0833 Y2.9937  
G01 X-1.1329 Y3.0434  
G01 X-1.3164 Y3.0434  
G01 X-1.3051 Y3.0321  
G01 X-1.2867 Y3.0321  
G01 X-1.2679 Y3.0133  
G01 X-1.2679 Y2.9867  
G01 X-1.2867 Y2.9679  
G01 X-1.3133 Y2.9679  
G01 X-1.3321 Y2.9867  
G01 X-1.3321 Y3.0051  
G01 X-1.3680 Y3.0410  
G01 X-1.3704 Y3.0434  
G01 X-1.4796 Y3.0434  
G01 X-1.5179 Y3.0051  
G01 X-1.5179 Y2.9867  
G01 X-1.5367 Y2.9679  
G01 X-1.5633 Y2.9679  
G01 X-1.5821 Y2.9867  
G01 X-1.5821 Y2.9926  
G01 X-1.6329 Y3.0434  
G01 X-1.8164 Y3.0434  
G01 X-1.8051 Y3.0321  
G01 X-1.7867 Y3.0321  
G01 X-1.7679 Y3.0133  
G01 X-1.7679 Y2.9867  
G01 X-1.7867 Y2.9679  
G01 X-1.8133 Y2.9679  
G01 X-1.8321 Y2.9867  
G01 X-1.8321 Y3.0051  
G01 X-1.8680 Y3.0410  
G01 X-1.8704 Y3.0434  
G01 X-1.9796 Y3.0434  
G01 X-2.0179 Y3.0051  
G01 X-2.0179 Y2.9867  
G01 X-2.0367 Y2.9679  
G01 X-2.0633 Y2.9679  
G01 X-2.0821 Y2.9867  
G01 X-2.0821 Y2.9926  
G01 X-2.1329 Y3.0434  
G01 X-2.3164 Y3.0434  
G01 X-2.3051 Y3.0321  
G01 X-2.2867 Y3.0321  
G01 X-2.2679 Y3.0133  
G01 X-2.2679 Y2.9867  
G01 X-2.2867 Y2.9679  
G01 X-2.3133 Y2.9679  
G01 X-2.3321 Y2.9867  
G01 X-2.3321 Y3.0051  
G01 X-2.3680 Y3.0410  
G01 X-2.3704 Y3.0434  
G01 X-2.4796 Y3.0434  
G01 X-2.5179 Y3.0051  
G01 X-2.5179 Y2.9867  
G01 X-2.5367 Y2.9679  
G01 X-2.5633 Y2.9679  
G01 X-2.5821 Y2.9867  
G01 X-2.5821 Y3.0133  
G01 X-2.5633 Y3.0321  
G01 X-2.5449 Y3.0321  
G01 X-2.5336 Y3.0434  
G01 X-2.6671 Y3.0434  
G01 X-2.7258 Y2.9847  
G01 X-2.7301 Y2.9822  
G01 X-2.7350 Y2.9809  
G01 X-2.7737 Y2.9809  
G01 X-2.7867 Y2.9679  
G01 X-2.8133 Y2.9679  
G01 X-2.8321 Y2.9867  
G01 X-2.8321 Y3.0051  
G01 X-2.8704 Y3.0434  
G01 X-2.9796 Y3.0434  
G01 X-3.0179 Y3.0051  
G01 X-3.0179 Y2.9867  
G01 X-3.0367 Y2.9679  
G01 X-3.0633 Y2.9679  
G01 X-3.0821 Y2.9867  
G01 X-3.0821 Y3.0133  
G01 X-3.0633 Y3.0321  
G01 X-3.0449 Y3.0321  
G01 X-2.9992 Y3.0778  
G01 X-2.9949 Y3.0803  
G01 X-2.9900 Y3.0816  
G01 X-2.8600 Y3.0816  
G01 X-2.8551 Y3.0803  
G01 X-2.8508 Y3.0778  
G01 X-2.8472 Y3.0742  
G01 X-2.8051 Y3.0321  
G01 X-2.7867 Y3.0321  
G01 X-2.7737 Y3.0191  
G01 X-2.7454 Y3.0191  
G01 X-2.6903 Y3.0742  
G01 X-2.6867 Y3.0778  
G01 X-2.6824 Y3.0803  
G01 X-2.6775 Y3.0816  
G01 X-2.3600 Y3.0816  
G01 X-2.3563 Y3.0806  
G01 X-2.3525 Y3.0816  
G01 X-2.1225 Y3.0816  
G01 X-2.1176 Y3.0803  
G01 X-2.1133 Y3.0778  
G01 X-2.1097 Y3.0742  
G01 X-2.0654 Y3.0300  
G01 X-2.0633 Y3.0321  
G01 X-2.0449 Y3.0321  
G01 X-1.9992 Y3.0778  
G01 X-1.9949 Y3.0803  
G01 X-1.9900 Y3.0816  
G01 X-1.8600 Y3.0816  
G01 X-1.8562 Y3.0806  
G01 X-1.8525 Y3.0816  
G01 X-1.6225 Y3.0816  
G01 X-1.6176 Y3.0803  
G01 X-1.6133 Y3.0778  
G01 X-1.6097 Y3.0742  
G01 X-1.5654 Y3.0300  
G01 X-1.5633 Y3.0321  
G01 X-1.5449 Y3.0321  
G01 X-1.4992 Y3.0778  
G01 X-1.4949 Y3.0803  
G01 X-1.4900 Y3.0816  
G01 X-1.3600 Y3.0816  
G01 X-1.3562 Y3.0806  
G01 X-1.3525 Y3.0816  
G01 X-1.1225 Y3.0816  
G01 X-1.1176 Y3.0803  
G01 X-1.1133 Y3.0778  
G01 X-1.1097 Y3.0742  
G01 X-1.0654 Y3.0300  
G01 X-1.0633 Y3.0321  
G01 X-1.0449 Y3.0321  
G01 X-0.9992 Y3.0778  
G01 X-0.9949 Y3.0803  
G01 X-0.9900 Y3.0816  
G01 X-0.8600 Y3.0816  
G01 X-0.8551 Y3.0803  
G01 X-0.8508 Y3.0778  
G01 X-0.8472 Y3.0742  
G01 X-0.8051 Y3.0321  
G01 X-0.7867 Y3.0321  
G01 X-0.7679 Y3.0133  
G01 X-0.7679 Y2.9867  
G01 X-0.7867 Y2.9679  
G01 X-0.8133 Y2.9679  
G01 X-0.8321 Y2.9867  
G01 X-0.8321 Y3.0051  
G01 X-0.8704 Y3.0434  
G01 X-0.9796 Y3.0434  
G01 X-1.0179 Y3.0051  
G01 X-1.0179 Y2.9867  
G01 X-1.0367 Y2.9679  
G01 X-1.0551 Y2.9679  
G01 X-1.6472 Y2.3758  
G01 X-1.6508 Y2.3722  
G01 X-1.6551 Y2.3697  
G01 X-1.6600 Y2.3684  
G01 X-1.8789 Y2.3684  
G01 X-1.8650 Y2.3545  
G01 X-1.8594 Y2.3569  
G01 X-1.8532 Y2.3581  
G01 X-1.8468 Y2.3581  
G01 X-1.8406 Y2.3569  
G01 X-1.8348 Y2.3544  
G01 X-1.8295 Y2.3509  
G01 X-1.8251 Y2.3465  
G01 X-1.8216 Y2.3412  
G01 X-1.8191 Y2.3354  
G01 X-1.8179 Y2.3292  
G01 X-1.8179 Y2.2824  
G01 X-1.6546 Y2.1191  
G01 X-1.6263 Y2.1191  
G01 X-1.6133 Y2.1321  
G01 X-1.5867 Y2.1321  
G01 X-1.5679 Y2.1133  
G01 X-1.5679 Y2.0867  
G01 X-1.5700 Y2.0846  
G01 X-1.2347 Y1.7492  
G01 X-1.2322 Y1.7449  
G01 X-1.2309 Y1.7400  
G01 X-1.2309 Y1.7191  
G01 X-0.8600 Y1.7191  
G01 X-0.8551 Y1.7178  
G01 X-0.8508 Y1.7153  
G01 X-0.8472 Y1.7117  
G01 X-0.7847 Y1.6492  
G01 X-0.7822 Y1.6449  
G01 X-0.7809 Y1.6400  
G01 X-0.7809 Y1.6204  
G01 X-0.5722 Y1.4117  
G01 X-0.5697 Y1.4074  
G01 X-0.5684 Y1.4025  
G01 X-0.5684 Y1.1579  
G01 X-0.3587 Y0.9482  
G01 X-0.3560 Y0.9491  
G01 X-0.3482 Y0.9503  
G01 X-0.2518 Y0.9503  
G01 X-0.2440 Y0.9491  
G01 X-0.2364 Y0.9467  
G01 X-0.2294 Y0.9431  
G01 X-0.2229 Y0.9384  
G01 X-0.2173 Y0.9328  
G01 X-0.2127 Y0.9264  
G01 X-0.2091 Y0.9193  
G01 X-0.2066 Y0.9118  
G01 X-0.2054 Y0.9040  
G01 X-0.2054 Y0.8960  
G01 X-0.2066 Y0.8882  
G01 X-0.2091 Y0.8807  
G01 X-0.2127 Y0.8736  
G01 X-0.2173 Y0.8672  
G01 X-0.2229 Y0.8616  
G01 X-0.2294 Y0.8569  
G01 X-0.2364 Y0.8533  
G01 X-0.2440 Y0.8509  
G01 X-0.2518 Y0.8496  
G01 X-0.2809 Y0.8496  
G01 X-0.2809 Y0.6204  
G01 X-0.1597 Y0.4992  
G01 X-0.1572 Y0.4949  
G01 X-0.1559 Y0.4900  
G01 X-0.1559 Y0.4100  
G01 X-0.1572 Y0.4051  
G01 X-0.1597 Y0.4008  
G01 X-0.2472 Y0.3133  
G01 X-0.2508 Y0.3097  
G01 X-0.2551 Y0.3072  
G01 X-0.2600 Y0.3059  
G01 X-0.4796 Y0.3059  
G01 X-0.5123 Y0.2732  
G01 X-0.5069 Y0.2679  
G01 X-0.5069 Y0.2321  
G00 Z0.1000  
G00 X-0.9069 Y0.2321  
G01 Z-0.0020 F10    
G01 X-0.9309 Y0.2081  F20    
G01 X-0.9309 Y0.1919  
G01 X-0.9069 Y0.1679  
G01 X-0.9069 Y0.1321  
G01 X-0.9321 Y0.1069  
G01 X-0.9679 Y0.1069  
G01 X-0.9931 Y0.1321  
G01 X-0.9931 Y0.1679  
G01 X-0.9691 Y0.1919  
G01 X-0.9691 Y0.2081  
G01 X-0.9931 Y0.2321  
G01 X-0.9931 Y0.2679  
G01 X-0.9679 Y0.2931  
G01 X-0.9464 Y0.2931  
G01 X-0.9191 Y0.3204  
G01 X-0.9191 Y0.3996  
G01 X-0.9482 Y0.3996  
G01 X-0.9560 Y0.4009  
G01 X-0.9636 Y0.4033  
G01 X-0.9706 Y0.4069  
G01 X-0.9771 Y0.4116  
G01 X-0.9827 Y0.4172  
G01 X-0.9873 Y0.4236  
G01 X-0.9909 Y0.4307  
G01 X-0.9910 Y0.4309  
G01 X-1.3400 Y0.4309  
G01 X-1.3449 Y0.4322  
G01 X-1.3492 Y0.4347  
G01 X-1.3528 Y0.4383  
G01 X-1.6857 Y0.7712  
G01 X-1.6906 Y0.7691  
G01 X-1.6968 Y0.7679  
G01 X-1.7032 Y0.7679  
G01 X-1.7094 Y0.7691  
G01 X-1.7152 Y0.7716  
G01 X-1.7205 Y0.7751  
G01 X-1.7249 Y0.7795  
G01 X-1.7258 Y0.7809  
G01 X-1.8025 Y0.7809  
G01 X-1.8074 Y0.7822  
G01 X-1.8117 Y0.7847  
G01 X-1.8949 Y0.8679  
G01 X-1.9133 Y0.8679  
G01 X-1.9321 Y0.8867  
G01 X-1.9321 Y0.9133  
G01 X-1.9133 Y0.9321  
G01 X-1.8867 Y0.9321  
G01 X-1.8679 Y0.9133  
G01 X-1.8679 Y0.8949  
G01 X-1.7921 Y0.8191  
G01 X-1.7258 Y0.8191  
G01 X-1.7249 Y0.8205  
G01 X-1.7205 Y0.8249  
G01 X-1.7152 Y0.8284  
G01 X-1.7094 Y0.8309  
G01 X-1.7032 Y0.8321  
G01 X-1.6968 Y0.8321  
G01 X-1.6906 Y0.8309  
G01 X-1.6848 Y0.8284  
G01 X-1.6795 Y0.8249  
G01 X-1.6751 Y0.8205  
G01 X-1.6716 Y0.8152  
G01 X-1.6691 Y0.8094  
G01 X-1.6690 Y0.8085  
G01 X-1.3296 Y0.4691  
G01 X-0.9910 Y0.4691  
G01 X-0.9909 Y0.4693  
G01 X-0.9873 Y0.4764  
G01 X-0.9827 Y0.4828  
G01 X-0.9771 Y0.4884  
G01 X-0.9706 Y0.4931  
G01 X-0.9636 Y0.4967  
G01 X-0.9560 Y0.4991  
G01 X-0.9482 Y0.5003  
G01 X-0.8518 Y0.5003  
G01 X-0.8440 Y0.4991  
G01 X-0.8364 Y0.4967  
G01 X-0.8294 Y0.4931  
G01 X-0.8229 Y0.4884  
G01 X-0.8173 Y0.4828  
G01 X-0.8127 Y0.4764  
G01 X-0.8091 Y0.4693  
G01 X-0.8066 Y0.4618  
G01 X-0.8054 Y0.4540  
G01 X-0.8054 Y0.4460  
G01 X-0.8066 Y0.4382  
G01 X-0.8091 Y0.4307  
G01 X-0.8127 Y0.4236  
G01 X-0.8173 Y0.4172  
G01 X-0.8229 Y0.4116  
G01 X-0.8294 Y0.4069  
G01 X-0.8364 Y0.4033  
G01 X-0.8440 Y0.4009  
G01 X-0.8518 Y0.3996  
G01 X-0.8809 Y0.3996  
G01 X-0.8809 Y0.3100  
G01 X-0.8822 Y0.3051  
G01 X-0.8847 Y0.3008  
G01 X-0.9123 Y0.2732  
G01 X-0.9069 Y0.2679  
G01 X-0.9069 Y0.2321  
G00 Z0.1000  
G00 X-0.8350 Y0.7809  
G01 Z-0.0020 F10    
G01 X-1.3742 Y0.7809  F20    
G01 X-1.3751 Y0.7795  
G01 X-1.3795 Y0.7751  
G01 X-1.3848 Y0.7716  
G01 X-1.3906 Y0.7691  
G01 X-1.3968 Y0.7679  
G01 X-1.4032 Y0.7679  
G01 X-1.4094 Y0.7691  
G01 X-1.4152 Y0.7716  
G01 X-1.4205 Y0.7751  
G01 X-1.4249 Y0.7795  
G01 X-1.4258 Y0.7809  
G01 X-1.4742 Y0.7809  
G01 X-1.4751 Y0.7795  
G01 X-1.4795 Y0.7751  
G01 X-1.4848 Y0.7716  
G01 X-1.4906 Y0.7691  
G01 X-1.4968 Y0.7679  
G01 X-1.5032 Y0.7679  
G01 X-1.5094 Y0.7691  
G01 X-1.5152 Y0.7716  
G01 X-1.5205 Y0.7751  
G01 X-1.5249 Y0.7795  
G01 X-1.5284 Y0.7848  
G01 X-1.5309 Y0.7906  
G01 X-1.5310 Y0.7915  
G01 X-2.2125 Y1.4730  
G01 X-2.2809 Y1.4046  
G01 X-2.2809 Y1.1263  
G01 X-2.2679 Y1.1133  
G01 X-2.2679 Y1.0867  
G01 X-2.2867 Y1.0679  
G01 X-2.3133 Y1.0679  
G01 X-2.3321 Y1.0867  
G01 X-2.3321 Y1.1133  
G01 X-2.3191 Y1.1263  
G01 X-2.3191 Y1.4150  
G01 X-2.3178 Y1.4199  
G01 X-2.3153 Y1.4242  
G01 X-2.2278 Y1.5117  
G01 X-2.2242 Y1.5153  
G01 X-2.2191 Y1.5204  
G01 X-2.2191 Y1.6737  
G01 X-2.2321 Y1.6867  
G01 X-2.2321 Y1.7133  
G01 X-2.2133 Y1.7321  
G01 X-2.1867 Y1.7321  
G01 X-2.1679 Y1.7133  
G01 X-2.1679 Y1.6867  
G01 X-2.1809 Y1.6737  
G01 X-2.1809 Y1.5100  
G01 X-2.1822 Y1.5051  
G01 X-2.1847 Y1.5008  
G01 X-2.1855 Y1.5000  
G01 X-1.5143 Y0.8288  
G01 X-1.5094 Y0.8309  
G01 X-1.5032 Y0.8321  
G01 X-1.4968 Y0.8321  
G01 X-1.4906 Y0.8309  
G01 X-1.4848 Y0.8284  
G01 X-1.4795 Y0.8249  
G01 X-1.4751 Y0.8205  
G01 X-1.4742 Y0.8191  
G01 X-1.4258 Y0.8191  
G01 X-1.4249 Y0.8205  
G01 X-1.4205 Y0.8249  
G01 X-1.4152 Y0.8284  
G01 X-1.4094 Y0.8309  
G01 X-1.4032 Y0.8321  
G01 X-1.3968 Y0.8321  
G01 X-1.3906 Y0.8309  
G01 X-1.3848 Y0.8284  
G01 X-1.3795 Y0.8249  
G01 X-1.3751 Y0.8205  
G01 X-1.3742 Y0.8191  
G01 X-0.8454 Y0.8191  
G01 X-0.7941 Y0.8704  
G01 X-0.7941 Y0.9296  
G01 X-0.9153 Y1.0508  
G01 X-0.9178 Y1.0551  
G01 X-0.9191 Y1.0600  
G01 X-0.9191 Y1.5346  
G01 X-0.9219 Y1.5354  
G01 X-0.9302 Y1.5388  
G01 X-0.9379 Y1.5433  
G01 X-0.9450 Y1.5487  
G01 X-0.9513 Y1.5550  
G01 X-0.9567 Y1.5621  
G01 X-0.9612 Y1.5698  
G01 X-0.9646 Y1.5781  
G01 X-0.9669 Y1.5867  
G01 X-0.9681 Y1.5955  
G01 X-0.9681 Y1.6045  
G01 X-0.9669 Y1.6133  
G01 X-0.9646 Y1.6219  
G01 X-0.9612 Y1.6302  
G01 X-0.9567 Y1.6379  
G01 X-0.9513 Y1.6450  
G01 X-0.9450 Y1.6513  
G01 X-0.9379 Y1.6567  
G01 X-0.9302 Y1.6612  
G01 X-0.9219 Y1.6646  
G01 X-0.9133 Y1.6669  
G01 X-0.9045 Y1.6681  
G01 X-0.8955 Y1.6681  
G01 X-0.8867 Y1.6669  
G01 X-0.8781 Y1.6646  
G01 X-0.8698 Y1.6612  
G01 X-0.8621 Y1.6567  
G01 X-0.8550 Y1.6513  
G01 X-0.8487 Y1.6450  
G01 X-0.8433 Y1.6379  
G01 X-0.8388 Y1.6302  
G01 X-0.8354 Y1.6219  
G01 X-0.8331 Y1.6133  
G01 X-0.8319 Y1.6045  
G01 X-0.8319 Y1.5955  
G01 X-0.8331 Y1.5867  
G01 X-0.8354 Y1.5781  
G01 X-0.8388 Y1.5698  
G01 X-0.8433 Y1.5621  
G01 X-0.8487 Y1.5550  
G01 X-0.8550 Y1.5487  
G01 X-0.8621 Y1.5433  
G01 X-0.8698 Y1.5388  
G01 X-0.8781 Y1.5354  
G01 X-0.8809 Y1.5346  
G01 X-0.8809 Y1.0704  
G01 X-0.7633 Y0.9528  
G01 X-0.7597 Y0.9492  
G01 X-0.7572 Y0.9449  
G01 X-0.7559 Y0.9400  
G01 X-0.7559 Y0.8600  
G01 X-0.7572 Y0.8551  
G01 X-0.7597 Y0.8508  
G01 X-0.8222 Y0.7883  
G01 X-0.8258 Y0.7847  
G01 X-0.8301 Y0.7822  
G01 X-0.8350 Y0.7809  
G00 Z0.1000  
G00 X-0.6725 Y0.7441  
G01 Z-0.0020 F10    
G01 X-0.6691 Y0.7432  F20    
G01 X-0.6691 Y1.1237  
G01 X-0.6821 Y1.1367  
G01 X-0.6821 Y1.1633  
G01 X-0.6633 Y1.1821  
G01 X-0.6367 Y1.1821  
G01 X-0.6179 Y1.1633  
G01 X-0.6179 Y1.1367  
G01 X-0.6309 Y1.1237  
G01 X-0.6309 Y0.7100  
G01 X-0.6313 Y0.7083  
G01 X-0.6121 Y0.6891  
G01 X-0.5838 Y0.6891  
G01 X-0.5609 Y0.6662  
G01 X-0.5609 Y0.6338  
G01 X-0.5838 Y0.6109  
G01 X-0.6162 Y0.6109  
G01 X-0.6391 Y0.6338  
G01 X-0.6391 Y0.6621  
G01 X-0.6680 Y0.6910  
G01 X-0.6715 Y0.6945  
G01 X-0.6829 Y0.7059  
G01 X-1.5275 Y0.7059  
G01 X-1.5324 Y0.7072  
G01 X-1.5367 Y0.7097  
G01 X-1.5403 Y0.7133  
G01 X-1.5952 Y0.7682  
G01 X-1.5968 Y0.7679  
G01 X-1.6032 Y0.7679  
G01 X-1.6094 Y0.7691  
G01 X-1.6152 Y0.7716  
G01 X-1.6205 Y0.7751  
G01 X-1.6249 Y0.7795  
G01 X-1.6284 Y0.7848  
G01 X-1.6309 Y0.7906  
G01 X-1.6321 Y0.7968  
G01 X-1.6321 Y0.8032  
G01 X-1.6309 Y0.8094  
G01 X-1.6284 Y0.8152  
G01 X-1.6249 Y0.8205  
G01 X-1.6205 Y0.8249  
G01 X-1.6152 Y0.8284  
G01 X-1.6094 Y0.8309  
G01 X-1.6032 Y0.8321  
G01 X-1.5968 Y0.8321  
G01 X-1.5906 Y0.8309  
G01 X-1.5848 Y0.8284  
G01 X-1.5795 Y0.8249  
G01 X-1.5751 Y0.8205  
G01 X-1.5716 Y0.8152  
G01 X-1.5691 Y0.8094  
G01 X-1.5679 Y0.8032  
G01 X-1.5679 Y0.7968  
G01 X-1.5682 Y0.7952  
G01 X-1.5171 Y0.7441  
G01 X-0.6725 Y0.7441  
G00 Z0.1000  
G00 X-0.6633 Y1.5179  
G01 Z-0.0020 F10    
G01 X-0.6821 Y1.5367  F20    
G01 X-0.6821 Y1.5633  
G01 X-0.6691 Y1.5763  
G01 X-0.6691 Y1.7546  
G01 X-0.6742 Y1.7597  
G01 X-0.6778 Y1.7633  
G01 X-0.6803 Y1.7676  
G01 X-0.6816 Y1.7725  
G01 X-0.6816 Y2.0525  
G01 X-0.6803 Y2.0574  
G01 X-0.6778 Y2.0617  
G01 X-0.5066 Y2.2329  
G01 X-0.5066 Y2.6525  
G01 X-0.5053 Y2.6574  
G01 X-0.5028 Y2.6617  
G01 X-0.4420 Y2.7225  
G01 X-0.4491 Y2.7297  
G01 X-0.4491 Y2.7703  
G01 X-0.4203 Y2.7991  
G01 X-0.3797 Y2.7991  
G01 X-0.3509 Y2.7703  
G01 X-0.3509 Y2.7297  
G01 X-0.3797 Y2.7009  
G01 X-0.4096 Y2.7009  
G01 X-0.4684 Y2.6421  
G01 X-0.4684 Y2.2225  
G01 X-0.4697 Y2.2176  
G01 X-0.4722 Y2.2133  
G01 X-0.4758 Y2.2097  
G01 X-0.6434 Y2.0421  
G01 X-0.6434 Y1.7829  
G01 X-0.6347 Y1.7742  
G01 X-0.6322 Y1.7699  
G01 X-0.6309 Y1.7650  
G01 X-0.6309 Y1.5763  
G01 X-0.6179 Y1.5633  
G01 X-0.6179 Y1.5367  
G01 X-0.6367 Y1.5179  
G01 X-0.6633 Y1.5179  
G00 Z0.1000  
G00 X-0.6153 Y1.5883  
G01 Z-0.0020 F10    
G01 X-0.6178 Y1.5926  F20    
G01 X-0.6191 Y1.5975  
G01 X-0.6191 Y1.7737  
G01 X-0.6321 Y1.7867  
G01 X-0.6321 Y1.8133  
G01 X-0.6133 Y1.8321  
G01 X-0.5867 Y1.8321  
G01 X-0.5679 Y1.8133  
G01 X-0.5679 Y1.7867  
G01 X-0.5809 Y1.7737  
G01 X-0.5809 Y1.6079  
G01 X-0.4850 Y1.5120  
G01 X-0.4784 Y1.5186  
G01 X-0.4216 Y1.5186  
G01 X-0.3814 Y1.4784  
G01 X-0.3814 Y1.4216  
G01 X-0.4216 Y1.3814  
G01 X-0.4784 Y1.3814  
G01 X-0.5186 Y1.4216  
G01 X-0.5186 Y1.4784  
G01 X-0.5120 Y1.4850  
G01 X-0.6153 Y1.5883  
G00 Z0.1000  
G00 X-0.4153 Y1.5883  
G01 Z-0.0020 F10    
G01 X-0.4178 Y1.5926  F20    
G01 X-0.4191 Y1.5975  
G01 X-0.4191 Y1.6552  
G01 X-0.4255 Y1.6584  
G01 X-0.4317 Y1.6629  
G01 X-0.4371 Y1.6683  
G01 X-0.4416 Y1.6745  
G01 X-0.4450 Y1.6813  
G01 X-0.4474 Y1.6886  
G01 X-0.4486 Y1.6962  
G01 X-0.4486 Y1.7038  
G01 X-0.4474 Y1.7114  
G01 X-0.4450 Y1.7187  
G01 X-0.4416 Y1.7255  
G01 X-0.4371 Y1.7317  
G01 X-0.4317 Y1.7371  
G01 X-0.4255 Y1.7416  
G01 X-0.4187 Y1.7450  
G01 X-0.4114 Y1.7474  
G01 X-0.4038 Y1.7486  
G01 X-0.3962 Y1.7486  
G01 X-0.3886 Y1.7474  
G01 X-0.3813 Y1.7450  
G01 X-0.3745 Y1.7416  
G01 X-0.3683 Y1.7371  
G01 X-0.3629 Y1.7317  
G01 X-0.3584 Y1.7255  
G01 X-0.3550 Y1.7187  
G01 X-0.3526 Y1.7114  
G01 X-0.3514 Y1.7038  
G01 X-0.3514 Y1.6962  
G01 X-0.3526 Y1.6886  
G01 X-0.3550 Y1.6813  
G01 X-0.3584 Y1.6745  
G01 X-0.3629 Y1.6683  
G01 X-0.3683 Y1.6629  
G01 X-0.3745 Y1.6584  
G01 X-0.3809 Y1.6552  
G01 X-0.3809 Y1.6079  
G01 X-0.2850 Y1.5120  
G01 X-0.2784 Y1.5186  
G01 X-0.2216 Y1.5186  
G01 X-0.1814 Y1.4784  
G01 X-0.1814 Y1.4216  
G01 X-0.2216 Y1.3814  
G01 X-0.2784 Y1.3814  
G01 X-0.3186 Y1.4216  
G01 X-0.3186 Y1.4784  
G01 X-0.3120 Y1.4850  
G01 X-0.4153 Y1.5883  
G00 Z0.1000  
G00 X-0.4201 Y2.2514  
G01 Z-0.0020 F10    
G01 X-0.4486 Y2.2799  F20    
G01 X-0.4486 Y2.3201  
G01 X-0.4201 Y2.3486  
G01 X-0.3799 Y2.3486  
G01 X-0.3514 Y2.3201  
G01 X-0.3514 Y2.2799  
G01 X-0.3521 Y2.2791  
G01 X-0.2921 Y2.2191  
G01 X-0.2263 Y2.2191  
G01 X-0.2133 Y2.2321  
G01 X-0.1867 Y2.2321  
G01 X-0.1679 Y2.2133  
G01 X-0.1679 Y2.1867  
G01 X-0.1867 Y2.1679  
G01 X-0.2133 Y2.1679  
G01 X-0.2263 Y2.1809  
G01 X-0.3025 Y2.1809  
G01 X-0.3074 Y2.1822  
G01 X-0.3117 Y2.1847  
G01 X-0.3791 Y2.2521  
G01 X-0.3799 Y2.2514  
G01 X-0.4201 Y2.2514  
G00 Z0.1000  
G00 X-0.5867 Y2.2321  
G01 Z-0.0020 F10    
G01 X-0.5679 Y2.2133  F20    
G01 X-0.5679 Y2.1867  
G01 X-0.5867 Y2.1679  
G01 X-0.6133 Y2.1679  
G01 X-0.6321 Y2.1867  
G01 X-0.6321 Y2.2051  
G01 X-0.8654 Y2.4383  
G01 X-0.8718 Y2.4319  
G01 X-0.9282 Y2.4319  
G01 X-0.9681 Y2.4718  
G01 X-0.9681 Y2.5282  
G01 X-0.9282 Y2.5681  
G01 X-0.8718 Y2.5681  
G01 X-0.8319 Y2.5282  
G01 X-0.8319 Y2.4718  
G01 X-0.8383 Y2.4654  
G01 X-0.6051 Y2.2321  
G01 X-0.5867 Y2.2321  
G00 Z0.1000  
G00 X-0.2133 Y2.5679  
G01 Z-0.0020 F10    
G01 X-0.2321 Y2.5867  F20    
G01 X-0.2321 Y2.6133  
G01 X-0.2191 Y2.6263  
G01 X-0.2191 Y2.6421  
G01 X-0.2788 Y2.7018  
G01 X-0.2797 Y2.7009  
G01 X-0.3203 Y2.7009  
G01 X-0.3491 Y2.7297  
G01 X-0.3491 Y2.7703  
G01 X-0.3203 Y2.7991  
G01 X-0.2797 Y2.7991  
G01 X-0.2509 Y2.7703  
G01 X-0.2509 Y2.7297  
G01 X-0.2518 Y2.7288  
G01 X-0.1847 Y2.6617  
G01 X-0.1822 Y2.6574  
G01 X-0.1809 Y2.6525  
G01 X-0.1809 Y2.6263  
G01 X-0.1679 Y2.6133  
G01 X-0.1679 Y2.5867  
G01 X-0.1867 Y2.5679  
G01 X-0.2133 Y2.5679  
G00 Z0.1000  
G00 X-0.8679 Y2.9867  
G01 Z-0.0020 F10    
G01 X-0.8867 Y2.9679  F20    
G01 X-0.9133 Y2.9679  
G01 X-0.9263 Y2.9809  
G01 X-0.9421 Y2.9809  
G01 X-1.6179 Y2.3051  
G01 X-1.6179 Y2.2708  
G01 X-1.6191 Y2.2646  
G01 X-1.6216 Y2.2588  
G01 X-1.6251 Y2.2535  
G01 X-1.6295 Y2.2491  
G01 X-1.6348 Y2.2456  
G01 X-1.6406 Y2.2431  
G01 X-1.6468 Y2.2419  
G01 X-1.6532 Y2.2419  
G01 X-1.6594 Y2.2431  
G01 X-1.6652 Y2.2456  
G01 X-1.6705 Y2.2491  
G01 X-1.6749 Y2.2535  
G01 X-1.6784 Y2.2588  
G01 X-1.6809 Y2.2646  
G01 X-1.6821 Y2.2708  
G01 X-1.6821 Y2.3292  
G01 X-1.6809 Y2.3354  
G01 X-1.6784 Y2.3412  
G01 X-1.6749 Y2.3465  
G01 X-1.6705 Y2.3509  
G01 X-1.6652 Y2.3544  
G01 X-1.6594 Y2.3569  
G01 X-1.6532 Y2.3581  
G01 X-1.6468 Y2.3581  
G01 X-1.6406 Y2.3569  
G01 X-1.6348 Y2.3544  
G01 X-1.6295 Y2.3509  
G01 X-1.6278 Y2.3492  
G01 X-0.9617 Y3.0153  
G01 X-0.9574 Y3.0178  
G01 X-0.9525 Y3.0191  
G01 X-0.9263 Y3.0191  
G01 X-0.9133 Y3.0321  
G01 X-0.8867 Y3.0321  
G01 X-0.8679 Y3.0133  
G01 X-0.8679 Y2.9867  
G00 Z0.1000  
G00 X-1.1179 Y2.9867  
G01 Z-0.0020 F10    
G01 X-1.1367 Y2.9679  F20    
G01 X-1.1633 Y2.9679  
G01 X-1.1763 Y2.9809  
G01 X-1.2046 Y2.9809  
G01 X-1.5972 Y2.5883  
G01 X-1.6008 Y2.5847  
G01 X-1.6051 Y2.5822  
G01 X-1.6100 Y2.5809  
G01 X-1.6179 Y2.5809  
G01 X-1.6179 Y2.5708  
G01 X-1.6191 Y2.5646  
G01 X-1.6216 Y2.5588  
G01 X-1.6251 Y2.5535  
G01 X-1.6295 Y2.5491  
G01 X-1.6348 Y2.5456  
G01 X-1.6406 Y2.5431  
G01 X-1.6468 Y2.5419  
G01 X-1.6532 Y2.5419  
G01 X-1.6594 Y2.5431  
G01 X-1.6652 Y2.5456  
G01 X-1.6705 Y2.5491  
G01 X-1.6749 Y2.5535  
G01 X-1.6784 Y2.5588  
G01 X-1.6809 Y2.5646  
G01 X-1.6821 Y2.5708  
G01 X-1.6821 Y2.6292  
G01 X-1.6809 Y2.6354  
G01 X-1.6784 Y2.6412  
G01 X-1.6749 Y2.6465  
G01 X-1.6705 Y2.6509  
G01 X-1.6652 Y2.6544  
G01 X-1.6594 Y2.6569  
G01 X-1.6532 Y2.6581  
G01 X-1.6468 Y2.6581  
G01 X-1.6406 Y2.6569  
G01 X-1.6348 Y2.6544  
G01 X-1.6295 Y2.6509  
G01 X-1.6251 Y2.6465  
G01 X-1.6216 Y2.6412  
G01 X-1.6191 Y2.6354  
G01 X-1.6179 Y2.6292  
G01 X-1.6179 Y2.6216  
G01 X-1.2242 Y3.0153  
G01 X-1.2199 Y3.0178  
G01 X-1.2150 Y3.0191  
G01 X-1.1763 Y3.0191  
G01 X-1.1633 Y3.0321  
G01 X-1.1367 Y3.0321  
G01 X-1.1179 Y3.0133  
G01 X-1.1179 Y2.9867  
G00 Z0.1000  
G00 X-1.3679 Y2.9867  
G01 Z-0.0020 F10    
G01 X-1.3867 Y2.9679  F20    
G01 X-1.4051 Y2.9679  
G01 X-1.7258 Y2.6472  
G01 X-1.7251 Y2.6465  
G01 X-1.7216 Y2.6412  
G01 X-1.7191 Y2.6354  
G01 X-1.7179 Y2.6292  
G01 X-1.7179 Y2.5708  
G01 X-1.7191 Y2.5646  
G01 X-1.7216 Y2.5588  
G01 X-1.7251 Y2.5535  
G01 X-1.7295 Y2.5491  
G01 X-1.7348 Y2.5456  
G01 X-1.7406 Y2.5431  
G01 X-1.7468 Y2.5419  
G01 X-1.7532 Y2.5419  
G01 X-1.7594 Y2.5431  
G01 X-1.7652 Y2.5456  
G01 X-1.7705 Y2.5491  
G01 X-1.7749 Y2.5535  
G01 X-1.7784 Y2.5588  
G01 X-1.7809 Y2.5646  
G01 X-1.7821 Y2.5708  
G01 X-1.7821 Y2.6292  
G01 X-1.7809 Y2.6354  
G01 X-1.7784 Y2.6412  
G01 X-1.7749 Y2.6465  
G01 X-1.7705 Y2.6509  
G01 X-1.7691 Y2.6518  
G01 X-1.7691 Y2.6525  
G01 X-1.7678 Y2.6574  
G01 X-1.7653 Y2.6617  
G01 X-1.4321 Y2.9949  
G01 X-1.4321 Y3.0133  
G01 X-1.4133 Y3.0321  
G01 X-1.3867 Y3.0321  
G01 X-1.3679 Y3.0133  
G01 X-1.3679 Y2.9867  
G00 Z0.1000  
G00 X-1.6179 Y2.9867  
G01 Z-0.0020 F10    
G01 X-1.6367 Y2.9679  F20    
G01 X-1.6551 Y2.9679  
G01 X-1.8309 Y2.7921  
G01 X-1.8309 Y2.6518  
G01 X-1.8295 Y2.6509  
G01 X-1.8251 Y2.6465  
G01 X-1.8216 Y2.6412  
G01 X-1.8191 Y2.6354  
G01 X-1.8179 Y2.6292  
G01 X-1.8179 Y2.5708  
G01 X-1.8191 Y2.5646  
G01 X-1.8216 Y2.5588  
G01 X-1.8251 Y2.5535  
G01 X-1.8295 Y2.5491  
G01 X-1.8348 Y2.5456  
G01 X-1.8406 Y2.5431  
G01 X-1.8468 Y2.5419  
G01 X-1.8532 Y2.5419  
G01 X-1.8594 Y2.5431  
G01 X-1.8652 Y2.5456  
G01 X-1.8705 Y2.5491  
G01 X-1.8749 Y2.5535  
G01 X-1.8784 Y2.5588  
G01 X-1.8809 Y2.5646  
G01 X-1.8821 Y2.5708  
G01 X-1.8821 Y2.6292  
G01 X-1.8809 Y2.6354  
G01 X-1.8784 Y2.6412  
G01 X-1.8749 Y2.6465  
G01 X-1.8705 Y2.6509  
G01 X-1.8691 Y2.6518  
G01 X-1.8691 Y2.8025  
G01 X-1.8678 Y2.8074  
G01 X-1.8653 Y2.8117  
G01 X-1.6821 Y2.9949  
G01 X-1.6821 Y3.0133  
G01 X-1.6633 Y3.0321  
G01 X-1.6367 Y3.0321  
G01 X-1.6179 Y3.0133  
G01 X-1.6179 Y2.9867  
G00 Z0.1000  
G00 X-1.8679 Y2.9867  
G01 Z-0.0020 F10    
G01 X-1.8867 Y2.9679  F20    
G01 X-1.9051 Y2.9679  
G01 X-1.9309 Y2.9421  
G01 X-1.9309 Y2.6518  
G01 X-1.9295 Y2.6509  
G01 X-1.9251 Y2.6465  
G01 X-1.9216 Y2.6412  
G01 X-1.9191 Y2.6354  
G01 X-1.9179 Y2.6292  
G01 X-1.9179 Y2.5708  
G01 X-1.9191 Y2.5646  
G01 X-1.9216 Y2.5588  
G01 X-1.9251 Y2.5535  
G01 X-1.9295 Y2.5491  
G01 X-1.9348 Y2.5456  
G01 X-1.9406 Y2.5431  
G01 X-1.9468 Y2.5419  
G01 X-1.9532 Y2.5419  
G01 X-1.9594 Y2.5431  
G01 X-1.9652 Y2.5456  
G01 X-1.9705 Y2.5491  
G01 X-1.9749 Y2.5535  
G01 X-1.9784 Y2.5588  
G01 X-1.9809 Y2.5646  
G01 X-1.9821 Y2.5708  
G01 X-1.9821 Y2.6292  
G01 X-1.9809 Y2.6354  
G01 X-1.9784 Y2.6412  
G01 X-1.9749 Y2.6465  
G01 X-1.9705 Y2.6509  
G01 X-1.9691 Y2.6518  
G01 X-1.9691 Y2.9525  
G01 X-1.9678 Y2.9574  
G01 X-1.9653 Y2.9617  
G01 X-1.9321 Y2.9949  
G01 X-1.9321 Y3.0133  
G01 X-1.9133 Y3.0321  
G01 X-1.8867 Y3.0321  
G01 X-1.8679 Y3.0133  
G01 X-1.8679 Y2.9867  
G00 Z0.1000  
G00 X-2.0347 Y2.9117  
G01 Z-0.0020 F10    
G01 X-2.0322 Y2.9074  F20    
G01 X-2.0309 Y2.9025  
G01 X-2.0309 Y2.6518  
G01 X-2.0295 Y2.6509  
G01 X-2.0251 Y2.6465  
G01 X-2.0216 Y2.6412  
G01 X-2.0191 Y2.6354  
G01 X-2.0179 Y2.6292  
G01 X-2.0179 Y2.5708  
G01 X-2.0191 Y2.5646  
G01 X-2.0216 Y2.5588  
G01 X-2.0251 Y2.5535  
G01 X-2.0295 Y2.5491  
G01 X-2.0348 Y2.5456  
G01 X-2.0406 Y2.5431  
G01 X-2.0468 Y2.5419  
G01 X-2.0532 Y2.5419  
G01 X-2.0594 Y2.5431  
G01 X-2.0652 Y2.5456  
G01 X-2.0705 Y2.5491  
G01 X-2.0749 Y2.5535  
G01 X-2.0784 Y2.5588  
G01 X-2.0809 Y2.5646  
G01 X-2.0821 Y2.5708  
G01 X-2.0821 Y2.6292  
G01 X-2.0809 Y2.6354  
G01 X-2.0784 Y2.6412  
G01 X-2.0749 Y2.6465  
G01 X-2.0705 Y2.6509  
G01 X-2.0691 Y2.6518  
G01 X-2.0691 Y2.8921  
G01 X-2.1449 Y2.9679  
G01 X-2.1633 Y2.9679  
G01 X-2.1821 Y2.9867  
G01 X-2.1821 Y3.0133  
G01 X-2.1633 Y3.0321  
G01 X-2.1367 Y3.0321  
G01 X-2.1179 Y3.0133  
G01 X-2.1179 Y2.9949  
G01 X-2.0347 Y2.9117  
G00 Z0.1000  
G00 X-2.1347 Y2.7617  
G01 Z-0.0020 F10    
G01 X-2.1322 Y2.7574  F20    
G01 X-2.1309 Y2.7525  
G01 X-2.1309 Y2.6518  
G01 X-2.1295 Y2.6509  
G01 X-2.1251 Y2.6465  
G01 X-2.1216 Y2.6412  
G01 X-2.1191 Y2.6354  
G01 X-2.1179 Y2.6292  
G01 X-2.1179 Y2.5708  
G01 X-2.1191 Y2.5646  
G01 X-2.1216 Y2.5588  
G01 X-2.1251 Y2.5535  
G01 X-2.1295 Y2.5491  
G01 X-2.1348 Y2.5456  
G01 X-2.1406 Y2.5431  
G01 X-2.1468 Y2.5419  
G01 X-2.1532 Y2.5419  
G01 X-2.1594 Y2.5431  
G01 X-2.1652 Y2.5456  
G01 X-2.1705 Y2.5491  
G01 X-2.1749 Y2.5535  
G01 X-2.1784 Y2.5588  
G01 X-2.1809 Y2.5646  
G01 X-2.1821 Y2.5708  
G01 X-2.1821 Y2.6292  
G01 X-2.1809 Y2.6354  
G01 X-2.1784 Y2.6412  
G01 X-2.1749 Y2.6465  
G01 X-2.1705 Y2.6509  
G01 X-2.1691 Y2.6518  
G01 X-2.1691 Y2.7421  
G01 X-2.3949 Y2.9679  
G01 X-2.4133 Y2.9679  
G01 X-2.4321 Y2.9867  
G01 X-2.4321 Y3.0133  
G01 X-2.4133 Y3.0321  
G01 X-2.3867 Y3.0321  
G01 X-2.3679 Y3.0133  
G01 X-2.3679 Y2.9949  
G01 X-2.1347 Y2.7617  
G00 Z0.1000  
G00 X-2.2295 Y2.6509  
G01 Z-0.0020 F10    
G01 X-2.2251 Y2.6465  F20    
G01 X-2.2216 Y2.6412  
G01 X-2.2191 Y2.6354  
G01 X-2.2179 Y2.6292  
G01 X-2.2179 Y2.5708  
G01 X-2.2191 Y2.5646  
G01 X-2.2216 Y2.5588  
G01 X-2.2251 Y2.5535  
G01 X-2.2295 Y2.5491  
G01 X-2.2348 Y2.5456  
G01 X-2.2406 Y2.5431  
G01 X-2.2468 Y2.5419  
G01 X-2.2532 Y2.5419  
G01 X-2.2594 Y2.5431  
G01 X-2.2652 Y2.5456  
G01 X-2.2705 Y2.5491  
G01 X-2.2749 Y2.5535  
G01 X-2.2784 Y2.5588  
G01 X-2.2809 Y2.5646  
G01 X-2.2821 Y2.5708  
G01 X-2.2821 Y2.6051  
G01 X-2.2992 Y2.6222  
G01 X-2.3028 Y2.6258  
G01 X-2.3053 Y2.6301  
G01 X-2.3066 Y2.6350  
G01 X-2.3066 Y2.6421  
G01 X-2.6346 Y2.9700  
G01 X-2.6367 Y2.9679  
G01 X-2.6633 Y2.9679  
G01 X-2.6821 Y2.9867  
G01 X-2.6821 Y3.0133  
G01 X-2.6633 Y3.0321  
G01 X-2.6367 Y3.0321  
G01 X-2.6179 Y3.0133  
G01 X-2.6179 Y3.0074  
G01 X-2.2722 Y2.6617  
G01 X-2.2697 Y2.6574  
G01 X-2.2684 Y2.6525  
G01 X-2.2684 Y2.6523  
G01 X-2.2652 Y2.6544  
G01 X-2.2594 Y2.6569  
G01 X-2.2532 Y2.6581  
G01 X-2.2468 Y2.6581  
G01 X-2.2406 Y2.6569  
G01 X-2.2348 Y2.6544  
G01 X-2.2295 Y2.6509  
G00 Z0.1000  
G00 X-2.3295 Y2.6509  
G01 Z-0.0020 F10    
G01 X-2.3251 Y2.6465  F20    
G01 X-2.3216 Y2.6412  
G01 X-2.3191 Y2.6354  
G01 X-2.3179 Y2.6292  
G01 X-2.3179 Y2.5708  
G01 X-2.3191 Y2.5646  
G01 X-2.3216 Y2.5588  
G01 X-2.3251 Y2.5535  
G01 X-2.3295 Y2.5491  
G01 X-2.3348 Y2.5456  
G01 X-2.3406 Y2.5431  
G01 X-2.3468 Y2.5419  
G01 X-2.3532 Y2.5419  
G01 X-2.3594 Y2.5431  
G01 X-2.3652 Y2.5456  
G01 X-2.3705 Y2.5491  
G01 X-2.3749 Y2.5535  
G01 X-2.3784 Y2.5588  
G01 X-2.3809 Y2.5646  
G01 X-2.3821 Y2.5708  
G01 X-2.3821 Y2.6051  
G01 X-2.3992 Y2.6222  
G01 X-2.4028 Y2.6258  
G01 X-2.4053 Y2.6301  
G01 X-2.4066 Y2.6350  
G01 X-2.4066 Y2.6421  
G01 X-2.6829 Y2.9184  
G01 X-2.8400 Y2.9184  
G01 X-2.8449 Y2.9197  
G01 X-2.8492 Y2.9222  
G01 X-2.8949 Y2.9679  
G01 X-2.9133 Y2.9679  
G01 X-2.9321 Y2.9867  
G01 X-2.9321 Y3.0133  
G01 X-2.9133 Y3.0321  
G01 X-2.8867 Y3.0321  
G01 X-2.8679 Y3.0133  
G01 X-2.8679 Y2.9949  
G01 X-2.8296 Y2.9566  
G01 X-2.6725 Y2.9566  
G01 X-2.6676 Y2.9553  
G01 X-2.6633 Y2.9528  
G01 X-2.6597 Y2.9492  
G01 X-2.3722 Y2.6617  
G01 X-2.3697 Y2.6574  
G01 X-2.3684 Y2.6525  
G01 X-2.3684 Y2.6523  
G01 X-2.3652 Y2.6544  
G01 X-2.3594 Y2.6569  
G01 X-2.3532 Y2.6581  
G01 X-2.3468 Y2.6581  
G01 X-2.3406 Y2.6569  
G01 X-2.3348 Y2.6544  
G01 X-2.3295 Y2.6509  
G00 Z0.1000  
G00 X-2.4295 Y2.6509  
G01 Z-0.0020 F10    
G01 X-2.4251 Y2.6465  F20    
G01 X-2.4216 Y2.6412  
G01 X-2.4191 Y2.6354  
G01 X-2.4179 Y2.6292  
G01 X-2.4179 Y2.5708  
G01 X-2.4191 Y2.5646  
G01 X-2.4216 Y2.5588  
G01 X-2.4251 Y2.5535  
G01 X-2.4295 Y2.5491  
G01 X-2.4348 Y2.5456  
G01 X-2.4406 Y2.5431  
G01 X-2.4468 Y2.5419  
G01 X-2.4532 Y2.5419  
G01 X-2.4594 Y2.5431  
G01 X-2.4652 Y2.5456  
G01 X-2.4705 Y2.5491  
G01 X-2.4749 Y2.5535  
G01 X-2.4784 Y2.5588  
G01 X-2.4809 Y2.5646  
G01 X-2.4821 Y2.5708  
G01 X-2.4821 Y2.5809  
G01 X-2.7525 Y2.5809  
G01 X-2.7574 Y2.5822  
G01 X-2.7617 Y2.5847  
G01 X-3.1449 Y2.9679  
G01 X-3.1633 Y2.9679  
G01 X-3.1821 Y2.9867  
G01 X-3.1821 Y3.0133  
G01 X-3.1633 Y3.0321  
G01 X-3.1367 Y3.0321  
G01 X-3.1179 Y3.0133  
G01 X-3.1179 Y2.9949  
G01 X-2.7421 Y2.6191  
G01 X-2.4821 Y2.6191  
G01 X-2.4821 Y2.6292  
G01 X-2.4809 Y2.6354  
G01 X-2.4784 Y2.6412  
G01 X-2.4749 Y2.6465  
G01 X-2.4705 Y2.6509  
G01 X-2.4652 Y2.6544  
G01 X-2.4594 Y2.6569  
G01 X-2.4532 Y2.6581  
G01 X-2.4468 Y2.6581  
G01 X-2.4406 Y2.6569  
G01 X-2.4348 Y2.6544  
G01 X-2.4295 Y2.6509  
G00 Z0.1000  
G00 X-2.2749 Y2.3465  
G01 Z-0.0020 F10    
G01 X-2.2705 Y2.3509  F20    
G01 X-2.2652 Y2.3544  
G01 X-2.2594 Y2.3569  
G01 X-2.2532 Y2.3581  
G01 X-2.2468 Y2.3581  
G01 X-2.2406 Y2.3569  
G01 X-2.2348 Y2.3544  
G01 X-2.2295 Y2.3509  
G01 X-2.2251 Y2.3465  
G01 X-2.2216 Y2.3412  
G01 X-2.2191 Y2.3354  
G01 X-2.2179 Y2.3292  
G01 X-2.2179 Y2.2949  
G01 X-2.2000 Y2.2770  
G01 X-2.1821 Y2.2949  
G01 X-2.1821 Y2.3292  
G01 X-2.1809 Y2.3354  
G01 X-2.1784 Y2.3412  
G01 X-2.1749 Y2.3465  
G01 X-2.1705 Y2.3509  
G01 X-2.1652 Y2.3544  
G01 X-2.1594 Y2.3569  
G01 X-2.1532 Y2.3581  
G01 X-2.1468 Y2.3581  
G01 X-2.1406 Y2.3569  
G01 X-2.1348 Y2.3544  
G01 X-2.1295 Y2.3509  
G01 X-2.1251 Y2.3465  
G01 X-2.1216 Y2.3412  
G01 X-2.1191 Y2.3354  
G01 X-2.1179 Y2.3292  
G01 X-2.1179 Y2.2708  
G01 X-2.1191 Y2.2646  
G01 X-2.1216 Y2.2588  
G01 X-2.1251 Y2.2535  
G01 X-2.1295 Y2.2491  
G01 X-2.1348 Y2.2456  
G01 X-2.1406 Y2.2431  
G01 X-2.1468 Y2.2419  
G01 X-2.1532 Y2.2419  
G01 X-2.1594 Y2.2431  
G01 X-2.1652 Y2.2456  
G01 X-2.1705 Y2.2491  
G01 X-2.1722 Y2.2508  
G01 X-2.1809 Y2.2421  
G01 X-2.1809 Y2.1763  
G01 X-2.1679 Y2.1633  
G01 X-2.1679 Y2.1367  
G01 X-2.1867 Y2.1179  
G01 X-2.2133 Y2.1179  
G01 X-2.2321 Y2.1367  
G01 X-2.2321 Y2.1633  
G01 X-2.2191 Y2.1763  
G01 X-2.2191 Y2.2421  
G01 X-2.2278 Y2.2508  
G01 X-2.2295 Y2.2491  
G01 X-2.2348 Y2.2456  
G01 X-2.2406 Y2.2431  
G01 X-2.2468 Y2.2419  
G01 X-2.2532 Y2.2419  
G01 X-2.2594 Y2.2431  
G01 X-2.2652 Y2.2456  
G01 X-2.2705 Y2.2491  
G01 X-2.2749 Y2.2535  
G01 X-2.2784 Y2.2588  
G01 X-2.2809 Y2.2646  
G01 X-2.2821 Y2.2708  
G01 X-2.2821 Y2.3292  
G01 X-2.2809 Y2.3354  
G01 X-2.2784 Y2.3412  
G01 X-2.2749 Y2.3465  
G00 Z0.1000  
G00 X-2.0749 Y2.3465  
G01 Z-0.0020 F10    
G01 X-2.0705 Y2.3509  F20    
G01 X-2.0652 Y2.3544  
G01 X-2.0594 Y2.3569  
G01 X-2.0532 Y2.3581  
G01 X-2.0468 Y2.3581  
G01 X-2.0406 Y2.3569  
G01 X-2.0348 Y2.3544  
G01 X-2.0295 Y2.3509  
G01 X-2.0251 Y2.3465  
G01 X-2.0216 Y2.3412  
G01 X-2.0191 Y2.3354  
G01 X-2.0179 Y2.3292  
G01 X-2.0179 Y2.2708  
G01 X-2.0191 Y2.2646  
G01 X-2.0216 Y2.2588  
G01 X-2.0251 Y2.2535  
G01 X-2.0295 Y2.2491  
G01 X-2.0309 Y2.2482  
G01 X-2.0309 Y2.2454  
G01 X-1.7883 Y2.0028  
G01 X-1.7847 Y1.9992  
G01 X-1.7822 Y1.9949  
G01 X-1.7809 Y1.9900  
G01 X-1.7809 Y1.7390  
G01 X-1.7589 Y1.7170  
G01 X-1.7589 Y1.6830  
G01 X-1.7830 Y1.6589  
G01 X-1.8170 Y1.6589  
G01 X-1.8411 Y1.6830  
G01 X-1.8411 Y1.7170  
G01 X-1.8191 Y1.7390  
G01 X-1.8191 Y1.9796  
G01 X-2.0653 Y2.2258  
G01 X-2.0678 Y2.2301  
G01 X-2.0691 Y2.2350  
G01 X-2.0691 Y2.2482  
G01 X-2.0705 Y2.2491  
G01 X-2.0749 Y2.2535  
G01 X-2.0784 Y2.2588  
G01 X-2.0809 Y2.2646  
G01 X-2.0821 Y2.2708  
G01 X-2.0821 Y2.3292  
G01 X-2.0809 Y2.3354  
G01 X-2.0784 Y2.3412  
G01 X-2.0749 Y2.3465  
G00 Z0.1000  
G00 X-2.0321 Y2.1133  
G01 Z-0.0020 F10    
G01 X-2.0133 Y2.1321  F20    
G01 X-1.9867 Y2.1321  
G01 X-1.9679 Y2.1133  
G01 X-1.9679 Y2.0867  
G01 X-1.9867 Y2.0679  
G01 X-2.0051 Y2.0679  
G01 X-2.0679 Y2.0051  
G01 X-2.0679 Y1.9708  
G01 X-2.0691 Y1.9646  
G01 X-2.0716 Y1.9588  
G01 X-2.0751 Y1.9535  
G01 X-2.0795 Y1.9491  
G01 X-2.0848 Y1.9456  
G01 X-2.0906 Y1.9431  
G01 X-2.0968 Y1.9419  
G01 X-2.1032 Y1.9419  
G01 X-2.1094 Y1.9431  
G01 X-2.1152 Y1.9456  
G01 X-2.1205 Y1.9491  
G01 X-2.1249 Y1.9535  
G01 X-2.1277 Y1.9577  
G01 X-2.1508 Y1.9347  
G01 X-2.1551 Y1.9322  
G01 X-2.1600 Y1.9309  
G01 X-2.3737 Y1.9309  
G01 X-2.3867 Y1.9179  
G01 X-2.4133 Y1.9179  
G01 X-2.4321 Y1.9367  
G01 X-2.4321 Y1.9633  
G01 X-2.4133 Y1.9821  
G01 X-2.3867 Y1.9821  
G01 X-2.3737 Y1.9691  
G01 X-2.1704 Y1.9691  
G01 X-2.1321 Y2.0074  
G01 X-2.1321 Y2.0292  
G01 X-2.1309 Y2.0354  
G01 X-2.1284 Y2.0412  
G01 X-2.1249 Y2.0465  
G01 X-2.1205 Y2.0509  
G01 X-2.1152 Y2.0544  
G01 X-2.1094 Y2.0569  
G01 X-2.1032 Y2.0581  
G01 X-2.0968 Y2.0581  
G01 X-2.0906 Y2.0569  
G01 X-2.0848 Y2.0544  
G01 X-2.0795 Y2.0509  
G01 X-2.0778 Y2.0492  
G01 X-2.0321 Y2.0949  
G01 X-2.0321 Y2.1133  
G00 Z0.1000  
G00 X-2.0321 Y1.9133  
G01 Z-0.0020 F10    
G01 X-2.0133 Y1.9321  F20    
G01 X-1.9867 Y1.9321  
G01 X-1.9679 Y1.9133  
G01 X-1.9679 Y1.8867  
G01 X-1.9809 Y1.8737  
G01 X-1.9809 Y1.7079  
G01 X-1.9141 Y1.6411  
G01 X-1.8830 Y1.6411  
G01 X-1.8589 Y1.6170  
G01 X-1.8589 Y1.5830  
G01 X-1.8637 Y1.5782  
G01 X-1.8347 Y1.5492  
G01 X-1.8322 Y1.5449  
G01 X-1.8309 Y1.5400  
G01 X-1.8309 Y1.3862  
G01 X-1.8109 Y1.3662  
G01 X-1.8109 Y1.3338  
G01 X-1.8338 Y1.3109  
G01 X-1.8662 Y1.3109  
G01 X-1.8891 Y1.3338  
G01 X-1.8891 Y1.3662  
G01 X-1.8691 Y1.3862  
G01 X-1.8691 Y1.5296  
G01 X-1.8984 Y1.5589  
G01 X-1.9170 Y1.5589  
G01 X-1.9411 Y1.5830  
G01 X-1.9411 Y1.6141  
G01 X-2.0079 Y1.6809  
G01 X-2.0679 Y1.6809  
G01 X-2.0679 Y1.6708  
G01 X-2.0691 Y1.6646  
G01 X-2.0716 Y1.6588  
G01 X-2.0751 Y1.6535  
G01 X-2.0795 Y1.6491  
G01 X-2.0848 Y1.6456  
G01 X-2.0906 Y1.6431  
G01 X-2.0968 Y1.6419  
G01 X-2.1032 Y1.6419  
G01 X-2.1094 Y1.6431  
G01 X-2.1152 Y1.6456  
G01 X-2.1205 Y1.6491  
G01 X-2.1249 Y1.6535  
G01 X-2.1284 Y1.6588  
G01 X-2.1309 Y1.6646  
G01 X-2.1321 Y1.6708  
G01 X-2.1321 Y1.7292  
G01 X-2.1309 Y1.7354  
G01 X-2.1284 Y1.7412  
G01 X-2.1249 Y1.7465  
G01 X-2.1205 Y1.7509  
G01 X-2.1152 Y1.7544  
G01 X-2.1094 Y1.7569  
G01 X-2.1032 Y1.7581  
G01 X-2.0968 Y1.7581  
G01 X-2.0906 Y1.7569  
G01 X-2.0848 Y1.7544  
G01 X-2.0795 Y1.7509  
G01 X-2.0751 Y1.7465  
G01 X-2.0716 Y1.7412  
G01 X-2.0691 Y1.7354  
G01 X-2.0679 Y1.7292  
G01 X-2.0679 Y1.7191  
G01 X-2.0191 Y1.7191  
G01 X-2.0191 Y1.8737  
G01 X-2.0321 Y1.8867  
G01 X-2.0321 Y1.9133  
G00 Z0.1000  
G00 X-2.4429 Y1.9133  
G01 Z-0.0020 F10    
G01 X-2.4429 Y1.8867  F20    
G01 X-2.4559 Y1.8737  
G01 X-2.4559 Y1.8225  
G01 X-2.4572 Y1.8176  
G01 X-2.4597 Y1.8133  
G01 X-2.5679 Y1.7051  
G01 X-2.5679 Y1.6867  
G01 X-2.5867 Y1.6679  
G01 X-2.6133 Y1.6679  
G01 X-2.6321 Y1.6867  
G01 X-2.6321 Y1.7133  
G01 X-2.6133 Y1.7321  
G01 X-2.5949 Y1.7321  
G01 X-2.4941 Y1.8329  
G01 X-2.4941 Y1.8737  
G01 X-2.5071 Y1.8867  
G01 X-2.5071 Y1.9133  
G01 X-2.4883 Y1.9321  
G01 X-2.4617 Y1.9321  
G01 X-2.4429 Y1.9133  
G00 Z0.1000  
G00 X-1.6249 Y1.1205  
G01 Z-0.0020 F10    
G01 X-1.6205 Y1.1249  F20    
G01 X-1.6152 Y1.1284  
G01 X-1.6094 Y1.1309  
G01 X-1.6032 Y1.1321  
G01 X-1.5968 Y1.1321  
G01 X-1.5906 Y1.1309  
G01 X-1.5848 Y1.1284  
G01 X-1.5795 Y1.1249  
G01 X-1.5751 Y1.1205  
G01 X-1.5742 Y1.1191  
G01 X-1.5258 Y1.1191  
G01 X-1.5249 Y1.1205  
G01 X-1.5205 Y1.1249  
G01 X-1.5152 Y1.1284  
G01 X-1.5094 Y1.1309  
G01 X-1.5032 Y1.1321  
G01 X-1.4968 Y1.1321  
G01 X-1.4906 Y1.1309  
G01 X-1.4848 Y1.1284  
G01 X-1.4795 Y1.1249  
G01 X-1.4751 Y1.1205  
G01 X-1.4716 Y1.1152  
G01 X-1.4691 Y1.1094  
G01 X-1.4679 Y1.1032  
G01 X-1.4679 Y1.0968  
G01 X-1.4691 Y1.0906  
G01 X-1.4716 Y1.0848  
G01 X-1.4751 Y1.0795  
G01 X-1.4795 Y1.0751  
G01 X-1.4848 Y1.0716  
G01 X-1.4906 Y1.0691  
G01 X-1.4968 Y1.0679  
G01 X-1.5032 Y1.0679  
G01 X-1.5094 Y1.0691  
G01 X-1.5152 Y1.0716  
G01 X-1.5205 Y1.0751  
G01 X-1.5249 Y1.0795  
G01 X-1.5258 Y1.0809  
G01 X-1.5742 Y1.0809  
G01 X-1.5751 Y1.0795  
G01 X-1.5795 Y1.0751  
G01 X-1.5848 Y1.0716  
G01 X-1.5906 Y1.0691  
G01 X-1.5968 Y1.0679  
G01 X-1.6032 Y1.0679  
G01 X-1.6094 Y1.0691  
G01 X-1.6152 Y1.0716  
G01 X-1.6205 Y1.0751  
G01 X-1.6249 Y1.0795  
G01 X-1.6284 Y1.0848  
G01 X-1.6309 Y1.0906  
G01 X-1.6321 Y1.0968  
G01 X-1.6321 Y1.1032  
G01 X-1.6309 Y1.1094  
G01 X-1.6284 Y1.1152  
G01 X-1.6249 Y1.1205  
G00 Z0.1000  
G00 X-0.1089 Y0.1627  
G01 Z-0.0020 F10    
G01 X-0.2089 Y0.0627  F20    
G01 X-0.2127 Y0.0589  
G01 X-0.2172 Y0.0563  
G01 X-0.2224 Y0.0549  
G01 X-0.5901 Y0.0549  
G01 X-0.5953 Y0.0563  
G01 X-0.5998 Y0.0589  
G01 X-0.6468 Y0.1059  
G01 X-0.6683 Y0.1059  
G01 X-0.6923 Y0.1299  
G01 X-0.7077 Y0.1299  
G01 X-0.7317 Y0.1059  
G01 X-0.7683 Y0.1059  
G01 X-0.7923 Y0.1299  
G01 X-0.8077 Y0.1299  
G01 X-0.8317 Y0.1059  
G01 X-0.8532 Y0.1059  
G01 X-0.9002 Y0.0589  
G01 X-0.9047 Y0.0563  
G01 X-0.9099 Y0.0549  
G01 X-1.1651 Y0.0549  
G01 X-1.1703 Y0.0563  
G01 X-1.1748 Y0.0589  
G01 X-1.1786 Y0.0627  
G01 X-1.9786 Y0.8627  
G01 X-1.9812 Y0.8672  
G01 X-1.9826 Y0.8724  
G01 X-1.9826 Y0.9276  
G01 X-1.9812 Y0.9328  
G01 X-1.9786 Y0.9373  
G01 X-1.9748 Y0.9411  
G01 X-1.9373 Y0.9786  
G01 X-1.9351 Y0.9799  
G01 X-2.2901 Y0.9799  
G01 X-2.2953 Y0.9813  
G01 X-2.2998 Y0.9839  
G01 X-2.3748 Y1.0589  
G01 X-2.3786 Y1.0627  
G01 X-2.3812 Y1.0672  
G01 X-2.3826 Y1.0724  
G01 X-2.3826 Y1.4401  
G01 X-2.3812 Y1.4453  
G01 X-2.3786 Y1.4498  
G01 X-2.3331 Y1.4953  
G01 X-2.3331 Y1.5137  
G01 X-2.3314 Y1.5154  
G01 X-2.4161 Y1.6002  
G01 X-2.4187 Y1.6047  
G01 X-2.4201 Y1.6099  
G01 X-2.4201 Y1.6174  
G01 X-2.6276 Y1.6174  
G01 X-2.6328 Y1.6188  
G01 X-2.6373 Y1.6214  
G01 X-2.6748 Y1.6589  
G01 X-2.6786 Y1.6627  
G01 X-2.6812 Y1.6672  
G01 X-2.6826 Y1.6724  
G01 X-2.6826 Y2.0776  
G01 X-2.6812 Y2.0828  
G01 X-2.6786 Y2.0873  
G01 X-2.6314 Y2.1346  
G01 X-2.6331 Y2.1363  
G01 X-2.6331 Y2.1637  
G01 X-2.6137 Y2.1831  
G01 X-2.5863 Y2.1831  
G01 X-2.5733 Y2.1701  
G01 X-2.4958 Y2.1701  
G01 X-2.4076 Y2.2583  
G01 X-2.4076 Y2.2651  
G01 X-2.4062 Y2.2703  
G01 X-2.4036 Y2.2748  
G01 X-2.3998 Y2.2786  
G01 X-2.3831 Y2.2953  
G01 X-2.3831 Y2.3293  
G01 X-2.3818 Y2.3357  
G01 X-2.3793 Y2.3417  
G01 X-2.3757 Y2.3471  
G01 X-2.3711 Y2.3517  
G01 X-2.3657 Y2.3553  
G01 X-2.3597 Y2.3578  
G01 X-2.3533 Y2.3591  
G01 X-2.3467 Y2.3591  
G01 X-2.3403 Y2.3578  
G01 X-2.3352 Y2.3557  
G01 X-2.2911 Y2.3998  
G01 X-2.2873 Y2.4036  
G01 X-2.2828 Y2.4062  
G01 X-2.2776 Y2.4076  
G01 X-2.0224 Y2.4076  
G01 X-2.0172 Y2.4062  
G01 X-2.0127 Y2.4036  
G01 X-1.9648 Y2.3557  
G01 X-1.9597 Y2.3578  
G01 X-1.9533 Y2.3591  
G01 X-1.9467 Y2.3591  
G01 X-1.9403 Y2.3578  
G01 X-1.9343 Y2.3553  
G01 X-1.9289 Y2.3517  
G01 X-1.9243 Y2.3471  
G01 X-1.9207 Y2.3417  
G01 X-1.9182 Y2.3357  
G01 X-1.9169 Y2.3293  
G01 X-1.9169 Y2.2707  
G01 X-1.9182 Y2.2643  
G01 X-1.9197 Y2.2606  
G01 X-1.5922 Y1.9331  
G01 X-1.5863 Y1.9331  
G01 X-1.5669 Y1.9137  
G01 X-1.5669 Y1.8863  
G01 X-1.5799 Y1.8733  
G01 X-1.5799 Y1.6974  
G01 X-1.5813 Y1.6922  
G01 X-1.5839 Y1.6877  
G01 X-1.6579 Y1.6137  
G01 X-1.6579 Y1.5826  
G01 X-1.6623 Y1.5782  
G01 X-1.5339 Y1.4498  
G01 X-1.5313 Y1.4453  
G01 X-1.5299 Y1.4401  
G01 X-1.5299 Y1.3866  
G01 X-1.5099 Y1.3666  
G01 X-1.5099 Y1.3334  
G01 X-1.5334 Y1.3099  
G01 X-1.5617 Y1.3099  
G01 X-1.6799 Y1.1917  
G01 X-1.6799 Y1.1264  
G01 X-1.6789 Y1.1257  
G01 X-1.6743 Y1.1211  
G01 X-1.6707 Y1.1157  
G01 X-1.6682 Y1.1097  
G01 X-1.6680 Y1.1090  
G01 X-1.4792 Y0.9201  
G01 X-1.1767 Y0.9201  
G01 X-1.1637 Y0.9331  
G01 X-1.1363 Y0.9331  
G01 X-1.1233 Y0.9201  
G01 X-0.9916 Y0.9201  
G01 X-0.9882 Y0.9269  
G01 X-0.9834 Y0.9335  
G01 X-0.9777 Y0.9392  
G01 X-0.9712 Y0.9439  
G01 X-0.9640 Y0.9476  
G01 X-0.9563 Y0.9501  
G01 X-0.9483 Y0.9513  
G01 X-0.8517 Y0.9513  
G01 X-0.8437 Y0.9501  
G01 X-0.8360 Y0.9476  
G01 X-0.8288 Y0.9439  
G01 X-0.8223 Y0.9392  
G01 X-0.8166 Y0.9335  
G01 X-0.8118 Y0.9269  
G01 X-0.8082 Y0.9197  
G01 X-0.8057 Y0.9120  
G01 X-0.8044 Y0.9040  
G01 X-0.8044 Y0.8960  
G01 X-0.8057 Y0.8880  
G01 X-0.8082 Y0.8803  
G01 X-0.8118 Y0.8731  
G01 X-0.8166 Y0.8665  
G01 X-0.8223 Y0.8608  
G01 X-0.8288 Y0.8561  
G01 X-0.8360 Y0.8524  
G01 X-0.8437 Y0.8499  
G01 X-0.8517 Y0.8486  
G01 X-0.9483 Y0.8486  
G01 X-0.9563 Y0.8499  
G01 X-0.9640 Y0.8524  
G01 X-0.9712 Y0.8561  
G01 X-0.9777 Y0.8608  
G01 X-0.9834 Y0.8665  
G01 X-0.9882 Y0.8731  
G01 X-0.9916 Y0.8799  
G01 X-1.1233 Y0.8799  
G01 X-1.1363 Y0.8669  
G01 X-1.1637 Y0.8669  
G01 X-1.1767 Y0.8799  
G01 X-1.4901 Y0.8799  
G01 X-1.4953 Y0.8813  
G01 X-1.4998 Y0.8839  
G01 X-1.6859 Y1.0700  
G01 X-1.6903 Y1.0682  
G01 X-1.6967 Y1.0669  
G01 X-1.7033 Y1.0669  
G01 X-1.7097 Y1.0682  
G01 X-1.7157 Y1.0707  
G01 X-1.7211 Y1.0743  
G01 X-1.7257 Y1.0789  
G01 X-1.7293 Y1.0843  
G01 X-1.7318 Y1.0903  
G01 X-1.7331 Y1.0967  
G01 X-1.7331 Y1.1033  
G01 X-1.7318 Y1.1097  
G01 X-1.7293 Y1.1157  
G01 X-1.7257 Y1.1211  
G01 X-1.7211 Y1.1257  
G01 X-1.7201 Y1.1264  
G01 X-1.7201 Y1.2026  
G01 X-1.7187 Y1.2078  
G01 X-1.7161 Y1.2123  
G01 X-1.5901 Y1.3383  
G01 X-1.5901 Y1.3666  
G01 X-1.5701 Y1.3866  
G01 X-1.5701 Y1.4292  
G01 X-1.6988 Y1.5579  
G01 X-1.7174 Y1.5579  
G01 X-1.7421 Y1.5826  
G01 X-1.7421 Y1.6174  
G01 X-1.7174 Y1.6421  
G01 X-1.6863 Y1.6421  
G01 X-1.6201 Y1.7083  
G01 X-1.6201 Y1.8733  
G01 X-1.6331 Y1.8863  
G01 X-1.6331 Y1.9137  
G01 X-1.6314 Y1.9154  
G01 X-1.9577 Y2.2418  
G01 X-1.9597 Y2.2422  
G01 X-1.9657 Y2.2447  
G01 X-1.9711 Y2.2483  
G01 X-1.9757 Y2.2529  
G01 X-1.9793 Y2.2583  
G01 X-1.9818 Y2.2643  
G01 X-1.9831 Y2.2707  
G01 X-1.9831 Y2.3172  
G01 X-2.0333 Y2.3674  
G01 X-2.2667 Y2.3674  
G01 X-2.3169 Y2.3172  
G01 X-2.3169 Y2.2707  
G01 X-2.3182 Y2.2643  
G01 X-2.3207 Y2.2583  
G01 X-2.3243 Y2.2529  
G01 X-2.3289 Y2.2483  
G01 X-2.3343 Y2.2447  
G01 X-2.3403 Y2.2422  
G01 X-2.3467 Y2.2409  
G01 X-2.3533 Y2.2409  
G01 X-2.3597 Y2.2422  
G01 X-2.3657 Y2.2447  
G01 X-2.3677 Y2.2461  
G01 X-2.3688 Y2.2422  
G01 X-2.3714 Y2.2377  
G01 X-2.4714 Y2.1377  
G01 X-2.4752 Y2.1339  
G01 X-2.4797 Y2.1313  
G01 X-2.4849 Y2.1299  
G01 X-2.5733 Y2.1299  
G01 X-2.5863 Y2.1169  
G01 X-2.5922 Y2.1169  
G01 X-2.6424 Y2.0667  
G01 X-2.6424 Y1.6833  
G01 X-2.6167 Y1.6576  
G01 X-2.4201 Y1.6576  
G01 X-2.4201 Y1.8233  
G01 X-2.4331 Y1.8363  
G01 X-2.4331 Y1.8637  
G01 X-2.4137 Y1.8831  
G01 X-2.3863 Y1.8831  
G01 X-2.3669 Y1.8637  
G01 X-2.3669 Y1.8363  
G01 X-2.3799 Y1.8233  
G01 X-2.3799 Y1.6208  
G01 X-2.2922 Y1.5331  
G01 X-2.2863 Y1.5331  
G01 X-2.2669 Y1.5137  
G01 X-2.2669 Y1.4863  
G01 X-2.2863 Y1.4669  
G01 X-2.3047 Y1.4669  
G01 X-2.3424 Y1.4292  
G01 X-2.3424 Y1.0833  
G01 X-2.2792 Y1.0201  
G01 X-1.9267 Y1.0201  
G01 X-1.9137 Y1.0331  
G01 X-1.8863 Y1.0331  
G01 X-1.8669 Y1.0137  
G01 X-1.8669 Y0.9863  
G01 X-1.8674 Y0.9858  
G01 X-1.8674 Y0.9849  
G01 X-1.8688 Y0.9797  
G01 X-1.8714 Y0.9752  
G01 X-1.8964 Y0.9502  
G01 X-1.9002 Y0.9464  
G01 X-1.9047 Y0.9438  
G01 X-1.9099 Y0.9424  
G01 X-1.9167 Y0.9424  
G01 X-1.9424 Y0.9167  
G01 X-1.9424 Y0.8833  
G01 X-1.1542 Y0.0951  
G01 X-0.9208 Y0.0951  
G01 X-0.8891 Y0.1268  
G01 X-0.8941 Y0.1317  
G01 X-0.8941 Y0.1683  
G01 X-0.8683 Y0.1941  
G01 X-0.8317 Y0.1941  
G01 X-0.8077 Y0.1701  
G01 X-0.7923 Y0.1701  
G01 X-0.7683 Y0.1941  
G01 X-0.7317 Y0.1941  
G01 X-0.7077 Y0.1701  
G01 X-0.6923 Y0.1701  
G01 X-0.6701 Y0.1923  
G01 X-0.6701 Y0.2077  
G01 X-0.6923 Y0.2299  
G01 X-0.7077 Y0.2299  
G01 X-0.7317 Y0.2059  
G01 X-0.7683 Y0.2059  
G01 X-0.7923 Y0.2299  
G01 X-0.8077 Y0.2299  
G01 X-0.8317 Y0.2059  
G01 X-0.8683 Y0.2059  
G01 X-0.8941 Y0.2317  
G01 X-0.8941 Y0.2683  
G01 X-0.8683 Y0.2941  
G01 X-0.8317 Y0.2941  
G01 X-0.8077 Y0.2701  
G01 X-0.7923 Y0.2701  
G01 X-0.7701 Y0.2923  
G01 X-0.7701 Y0.4542  
G01 X-0.9161 Y0.6002  
G01 X-0.9187 Y0.6047  
G01 X-0.9201 Y0.6099  
G01 X-0.9201 Y0.6134  
G01 X-0.9401 Y0.6334  
G01 X-0.9401 Y0.6666  
G01 X-0.9166 Y0.6901  
G01 X-0.8834 Y0.6901  
G01 X-0.8599 Y0.6666  
G01 X-0.8599 Y0.6334  
G01 X-0.8762 Y0.6171  
G01 X-0.7377 Y0.4786  
G01 X-0.7339 Y0.4748  
G01 X-0.7313 Y0.4703  
G01 X-0.7312 Y0.4701  
G01 X-0.3916 Y0.4701  
G01 X-0.3882 Y0.4769  
G01 X-0.3834 Y0.4835  
G01 X-0.3777 Y0.4892  
G01 X-0.3712 Y0.4939  
G01 X-0.3640 Y0.4976  
G01 X-0.3563 Y0.5001  
G01 X-0.3483 Y0.5013  
G01 X-0.2517 Y0.5013  
G01 X-0.2437 Y0.5001  
G01 X-0.2360 Y0.4976  
G01 X-0.2288 Y0.4939  
G01 X-0.2223 Y0.4892  
G01 X-0.2166 Y0.4835  
G01 X-0.2118 Y0.4769  
G01 X-0.2082 Y0.4697  
G01 X-0.2057 Y0.4620  
G01 X-0.2044 Y0.4540  
G01 X-0.2044 Y0.4460  
G01 X-0.2057 Y0.4380  
G01 X-0.2082 Y0.4303  
G01 X-0.2118 Y0.4231  
G01 X-0.2166 Y0.4165  
G01 X-0.2223 Y0.4108  
G01 X-0.2288 Y0.4061  
G01 X-0.2360 Y0.4024  
G01 X-0.2437 Y0.3999  
G01 X-0.2517 Y0.3986  
G01 X-0.3483 Y0.3986  
G01 X-0.3563 Y0.3999  
G01 X-0.3640 Y0.4024  
G01 X-0.3712 Y0.4061  
G01 X-0.3777 Y0.4108  
G01 X-0.3834 Y0.4165  
G01 X-0.3882 Y0.4231  
G01 X-0.3916 Y0.4299  
G01 X-0.7299 Y0.4299  
G01 X-0.7299 Y0.2923  
G01 X-0.7077 Y0.2701  
G01 X-0.6923 Y0.2701  
G01 X-0.6683 Y0.2941  
G01 X-0.6317 Y0.2941  
G01 X-0.6059 Y0.2683  
G01 X-0.6059 Y0.2317  
G01 X-0.6299 Y0.2077  
G01 X-0.6299 Y0.1923  
G01 X-0.6059 Y0.1683  
G01 X-0.6059 Y0.1317  
G01 X-0.6109 Y0.1268  
G01 X-0.5792 Y0.0951  
G01 X-0.2333 Y0.0951  
G01 X-0.1451 Y0.1833  
G01 X-0.1451 Y0.8792  
G01 X-0.2661 Y1.0002  
G01 X-0.2687 Y1.0047  
G01 X-0.2701 Y1.0099  
G01 X-0.2701 Y1.0804  
G01 X-0.2788 Y1.0804  
G01 X-0.3196 Y1.1212  
G01 X-0.3196 Y1.1299  
G01 X-0.3804 Y1.1299  
G01 X-0.3804 Y1.1212  
G01 X-0.4212 Y1.0804  
G01 X-0.4788 Y1.0804  
G01 X-0.5196 Y1.1212  
G01 X-0.5196 Y1.1788  
G01 X-0.4788 Y1.2196  
G01 X-0.4212 Y1.2196  
G01 X-0.3804 Y1.1788  
G01 X-0.3804 Y1.1701  
G01 X-0.3196 Y1.1701  
G01 X-0.3196 Y1.1788  
G01 X-0.2788 Y1.2196  
G01 X-0.2213 Y1.2196  
G01 X-0.1576 Y1.2833  
G01 X-0.1576 Y2.6917  
G01 X-0.2833 Y2.8174  
G01 X-0.4167 Y2.8174  
G01 X-0.4566 Y2.7775  
G01 X-0.4500 Y2.7709  
G01 X-0.4208 Y2.8001  
G01 X-0.3792 Y2.8001  
G01 X-0.3500 Y2.7709  
G01 X-0.3208 Y2.8001  
G01 X-0.2792 Y2.8001  
G01 X-0.2499 Y2.7708  
G01 X-0.2499 Y2.7292  
G01 X-0.2504 Y2.7288  
G01 X-0.1839 Y2.6623  
G01 X-0.1813 Y2.6578  
G01 X-0.1799 Y2.6526  
G01 X-0.1799 Y2.6267  
G01 X-0.1669 Y2.6137  
G01 X-0.1669 Y2.5863  
G01 X-0.1863 Y2.5669  
G01 X-0.2137 Y2.5669  
G01 X-0.2331 Y2.5863  
G01 X-0.2331 Y2.6137  
G01 X-0.2201 Y2.6267  
G01 X-0.2201 Y2.6417  
G01 X-0.2788 Y2.7004  
G01 X-0.2792 Y2.6999  
G01 X-0.3208 Y2.6999  
G01 X-0.3500 Y2.7291  
G01 X-0.3792 Y2.6999  
G01 X-0.4092 Y2.6999  
G01 X-0.4674 Y2.6417  
G01 X-0.4674 Y2.2224  
G01 X-0.4688 Y2.2172  
G01 X-0.4714 Y2.2127  
G01 X-0.4752 Y2.2089  
G01 X-0.6424 Y2.0417  
G01 X-0.6424 Y1.7833  
G01 X-0.6339 Y1.7748  
G01 X-0.6313 Y1.7703  
G01 X-0.6299 Y1.7651  
G01 X-0.6299 Y1.5767  
G01 X-0.6169 Y1.5637  
G01 X-0.6169 Y1.5363  
G01 X-0.6363 Y1.5169  
G01 X-0.6637 Y1.5169  
G01 X-0.6831 Y1.5363  
G01 X-0.6831 Y1.5637  
G01 X-0.6701 Y1.5767  
G01 X-0.6701 Y1.7542  
G01 X-0.6748 Y1.7589  
G01 X-0.6786 Y1.7627  
G01 X-0.6812 Y1.7672  
G01 X-0.6826 Y1.7724  
G01 X-0.6826 Y2.0526  
G01 X-0.6812 Y2.0578  
G01 X-0.6786 Y2.0623  
G01 X-0.5076 Y2.2333  
G01 X-0.5076 Y2.6526  
G01 X-0.5062 Y2.6578  
G01 X-0.5036 Y2.6623  
G01 X-0.4434 Y2.7225  
G01 X-0.4500 Y2.7291  
G01 X-0.4792 Y2.6999  
G01 X-0.5208 Y2.6999  
G01 X-0.5501 Y2.7292  
G01 X-0.5501 Y2.7299  
G01 X-0.9792 Y2.7299  
G01 X-1.1809 Y2.5282  
G01 X-1.1809 Y2.4714  
G01 X-1.2214 Y2.4309  
G01 X-1.2786 Y2.4309  
G01 X-1.2846 Y2.4369  
G01 X-1.5252 Y2.1964  
G01 X-1.5297 Y2.1938  
G01 X-1.5349 Y2.1924  
G01 X-1.6776 Y2.1924  
G01 X-1.6828 Y2.1938  
G01 X-1.6873 Y2.1964  
G01 X-1.6911 Y2.2002  
G01 X-1.7286 Y2.2377  
G01 X-1.7312 Y2.2422  
G01 X-1.7323 Y2.2461  
G01 X-1.7343 Y2.2447  
G01 X-1.7403 Y2.2422  
G01 X-1.7467 Y2.2409  
G01 X-1.7533 Y2.2409  
G01 X-1.7597 Y2.2422  
G01 X-1.7657 Y2.2447  
G01 X-1.7711 Y2.2483  
G01 X-1.7757 Y2.2529  
G01 X-1.7793 Y2.2583  
G01 X-1.7818 Y2.2643  
G01 X-1.7831 Y2.2707  
G01 X-1.7831 Y2.3293  
G01 X-1.7818 Y2.3357  
G01 X-1.7793 Y2.3417  
G01 X-1.7757 Y2.3471  
G01 X-1.7711 Y2.3517  
G01 X-1.7657 Y2.3553  
G01 X-1.7597 Y2.3578  
G01 X-1.7533 Y2.3591  
G01 X-1.7467 Y2.3591  
G01 X-1.7403 Y2.3578  
G01 X-1.7343 Y2.3553  
G01 X-1.7289 Y2.3517  
G01 X-1.7243 Y2.3471  
G01 X-1.7207 Y2.3417  
G01 X-1.7182 Y2.3357  
G01 X-1.7169 Y2.3293  
G01 X-1.7169 Y2.2953  
G01 X-1.7002 Y2.2786  
G01 X-1.6964 Y2.2748  
G01 X-1.6938 Y2.2703  
G01 X-1.6924 Y2.2651  
G01 X-1.6924 Y2.2583  
G01 X-1.6667 Y2.2326  
G01 X-1.5458 Y2.2326  
G01 X-1.3131 Y2.4654  
G01 X-1.3191 Y2.4714  
G01 X-1.3191 Y2.5286  
G01 X-1.2786 Y2.5691  
G01 X-1.2214 Y2.5691  
G01 X-1.2091 Y2.5568  
G01 X-0.9998 Y2.7661  
G01 X-0.9953 Y2.7687  
G01 X-0.9901 Y2.7701  
G01 X-0.5501 Y2.7701  
G01 X-0.5501 Y2.7708  
G01 X-0.5208 Y2.8001  
G01 X-0.4908 Y2.8001  
G01 X-0.4411 Y2.8498  
G01 X-0.4373 Y2.8536  
G01 X-0.4328 Y2.8562  
G01 X-0.4276 Y2.8576  
G01 X-0.2724 Y2.8576  
G01 X-0.2672 Y2.8562  
G01 X-0.2627 Y2.8536  
G01 X-0.1252 Y2.7161  
G01 X-0.1214 Y2.7123  
G01 X-0.1188 Y2.7078  
G01 X-0.1174 Y2.7026  
G01 X-0.1174 Y1.2724  
G01 X-0.1188 Y1.2672  
G01 X-0.1214 Y1.2627  
G01 X-0.1928 Y1.1913  
G01 X-0.1804 Y1.1788  
G01 X-0.1804 Y1.1212  
G01 X-0.2212 Y1.0804  
G01 X-0.2299 Y1.0804  
G01 X-0.2299 Y1.0208  
G01 X-0.1127 Y0.9036  
G01 X-0.1089 Y0.8998  
G01 X-0.1063 Y0.8953  
G01 X-0.1049 Y0.8901  
G01 X-0.1049 Y0.1724  
G01 X-0.1063 Y0.1672  
G01 X-0.1089 Y0.1627  
G00 Z0.1000  
G00 X-0.2059 Y0.1683  
G01 Z-0.0020 F10    
G01 X-0.2059 Y0.1317  F20    
G01 X-0.2317 Y0.1059  
G01 X-0.2683 Y0.1059  
G01 X-0.2941 Y0.1317  
G01 X-0.2941 Y0.1683  
G01 X-0.2683 Y0.1941  
G01 X-0.2317 Y0.1941  
G01 X-0.2059 Y0.1683  
G00 Z0.1000  
G00 X-0.2059 Y0.2317  
G01 Z-0.0020 F10    
G01 X-0.2317 Y0.2059  F20    
G01 X-0.2683 Y0.2059  
G01 X-0.2941 Y0.2317  
G01 X-0.2941 Y0.2683  
G01 X-0.2683 Y0.2941  
G01 X-0.2317 Y0.2941  
G01 X-0.2059 Y0.2683  
G01 X-0.2059 Y0.2317  
G00 Z0.1000  
G00 X-0.3059 Y0.2317  
G01 Z-0.0020 F10    
G01 X-0.3317 Y0.2059  F20    
G01 X-0.3683 Y0.2059  
G01 X-0.3941 Y0.2317  
G01 X-0.3941 Y0.2683  
G01 X-0.3683 Y0.2941  
G01 X-0.3317 Y0.2941  
G01 X-0.3059 Y0.2683  
G01 X-0.3059 Y0.2317  
G00 Z0.1000  
G00 X-0.3317 Y0.1941  
G01 Z-0.0020 F10    
G01 X-0.3059 Y0.1683  F20    
G01 X-0.3059 Y0.1317  
G01 X-0.3317 Y0.1059  
G01 X-0.3683 Y0.1059  
G01 X-0.3941 Y0.1317  
G01 X-0.3941 Y0.1683  
G01 X-0.3683 Y0.1941  
G01 X-0.3317 Y0.1941  
G00 Z0.1000  
G00 X-0.4317 Y0.1941  
G01 Z-0.0020 F10    
G01 X-0.4059 Y0.1683  F20    
G01 X-0.4059 Y0.1317  
G01 X-0.4317 Y0.1059  
G01 X-0.4683 Y0.1059  
G01 X-0.4941 Y0.1317  
G01 X-0.4941 Y0.1683  
G01 X-0.4683 Y0.1941  
G01 X-0.4317 Y0.1941  
G00 Z0.1000  
G00 X-0.4317 Y0.2059  
G01 Z-0.0020 F10    
G01 X-0.4683 Y0.2059  F20    
G01 X-0.4941 Y0.2317  
G01 X-0.4941 Y0.2683  
G01 X-0.4683 Y0.2941  
G01 X-0.4317 Y0.2941  
G01 X-0.4059 Y0.2683  
G01 X-0.4059 Y0.2317  
G01 X-0.4317 Y0.2059  
G00 Z0.1000  
G00 X-0.5059 Y0.2317  
G01 Z-0.0020 F10    
G01 X-0.5299 Y0.2077  F20    
G01 X-0.5299 Y0.1923  
G01 X-0.5059 Y0.1683  
G01 X-0.5059 Y0.1317  
G01 X-0.5317 Y0.1059  
G01 X-0.5683 Y0.1059  
G01 X-0.5941 Y0.1317  
G01 X-0.5941 Y0.1683  
G01 X-0.5701 Y0.1923  
G01 X-0.5701 Y0.2077  
G01 X-0.5941 Y0.2317  
G01 X-0.5941 Y0.2683  
G01 X-0.5683 Y0.2941  
G01 X-0.5468 Y0.2941  
G01 X-0.4998 Y0.3411  
G01 X-0.4953 Y0.3437  
G01 X-0.4901 Y0.3451  
G01 X-0.2708 Y0.3451  
G01 X-0.1951 Y0.4208  
G01 X-0.1951 Y0.4792  
G01 X-0.3161 Y0.6002  
G01 X-0.3187 Y0.6047  
G01 X-0.3201 Y0.6099  
G01 X-0.3201 Y0.8486  
G01 X-0.3483 Y0.8486  
G01 X-0.3563 Y0.8499  
G01 X-0.3640 Y0.8524  
G01 X-0.3712 Y0.8561  
G01 X-0.3777 Y0.8608  
G01 X-0.3834 Y0.8665  
G01 X-0.3882 Y0.8731  
G01 X-0.3918 Y0.8803  
G01 X-0.3943 Y0.8880  
G01 X-0.3956 Y0.8960  
G01 X-0.3956 Y0.9040  
G01 X-0.3943 Y0.9120  
G01 X-0.3918 Y0.9197  
G01 X-0.3897 Y0.9238  
G01 X-0.5998 Y1.1339  
G01 X-0.6036 Y1.1377  
G01 X-0.6062 Y1.1422  
G01 X-0.6076 Y1.1474  
G01 X-0.6076 Y1.3917  
G01 X-0.8123 Y1.5964  
G01 X-0.8161 Y1.6002  
G01 X-0.8187 Y1.6047  
G01 X-0.8201 Y1.6099  
G01 X-0.8201 Y1.6292  
G01 X-0.8708 Y1.6799  
G01 X-1.2299 Y1.6799  
G01 X-1.2299 Y1.6662  
G01 X-1.2277 Y1.6656  
G01 X-1.2194 Y1.6621  
G01 X-1.2115 Y1.6576  
G01 X-1.2043 Y1.6521  
G01 X-1.1979 Y1.6457  
G01 X-1.1924 Y1.6385  
G01 X-1.1879 Y1.6306  
G01 X-1.1844 Y1.6223  
G01 X-1.1821 Y1.6135  
G01 X-1.1809 Y1.6045  
G01 X-1.1809 Y1.5955  
G01 X-1.1821 Y1.5865  
G01 X-1.1844 Y1.5777  
G01 X-1.1879 Y1.5694  
G01 X-1.1924 Y1.5615  
G01 X-1.1979 Y1.5543  
G01 X-1.2043 Y1.5479  
G01 X-1.2115 Y1.5424  
G01 X-1.2194 Y1.5379  
G01 X-1.2277 Y1.5344  
G01 X-1.2365 Y1.5321  
G01 X-1.2455 Y1.5309  
G01 X-1.2545 Y1.5309  
G01 X-1.2635 Y1.5321  
G01 X-1.2723 Y1.5344  
G01 X-1.2806 Y1.5379  
G01 X-1.2826 Y1.5390  
G01 X-1.3799 Y1.4417  
G01 X-1.3799 Y1.1264  
G01 X-1.3789 Y1.1257  
G01 X-1.3743 Y1.1211  
G01 X-1.3707 Y1.1157  
G01 X-1.3682 Y1.1097  
G01 X-1.3669 Y1.1033  
G01 X-1.3669 Y1.0967  
G01 X-1.3671 Y1.0956  
G01 X-1.2917 Y1.0201  
G01 X-1.1767 Y1.0201  
G01 X-1.1637 Y1.0331  
G01 X-1.1363 Y1.0331  
G01 X-1.1169 Y1.0137  
G01 X-1.1169 Y0.9863  
G01 X-1.1363 Y0.9669  
G01 X-1.1637 Y0.9669  
G01 X-1.1767 Y0.9799  
G01 X-1.3026 Y0.9799  
G01 X-1.3078 Y0.9813  
G01 X-1.3123 Y0.9839  
G01 X-1.3956 Y1.0671  
G01 X-1.3967 Y1.0669  
G01 X-1.4033 Y1.0669  
G01 X-1.4097 Y1.0682  
G01 X-1.4157 Y1.0707  
G01 X-1.4211 Y1.0743  
G01 X-1.4257 Y1.0789  
G01 X-1.4293 Y1.0843  
G01 X-1.4318 Y1.0903  
G01 X-1.4331 Y1.0967  
G01 X-1.4331 Y1.1033  
G01 X-1.4318 Y1.1097  
G01 X-1.4293 Y1.1157  
G01 X-1.4257 Y1.1211  
G01 X-1.4211 Y1.1257  
G01 X-1.4201 Y1.1264  
G01 X-1.4201 Y1.4526  
G01 X-1.4187 Y1.4578  
G01 X-1.4161 Y1.4623  
G01 X-1.3110 Y1.5674  
G01 X-1.3121 Y1.5694  
G01 X-1.3156 Y1.5777  
G01 X-1.3179 Y1.5865  
G01 X-1.3191 Y1.5955  
G01 X-1.3191 Y1.6045  
G01 X-1.3179 Y1.6135  
G01 X-1.3156 Y1.6223  
G01 X-1.3121 Y1.6306  
G01 X-1.3076 Y1.6385  
G01 X-1.3021 Y1.6457  
G01 X-1.2957 Y1.6521  
G01 X-1.2885 Y1.6576  
G01 X-1.2806 Y1.6621  
G01 X-1.2723 Y1.6656  
G01 X-1.2701 Y1.6662  
G01 X-1.2701 Y1.7292  
G01 X-1.6078 Y2.0669  
G01 X-1.6137 Y2.0669  
G01 X-1.6267 Y2.0799  
G01 X-1.6651 Y2.0799  
G01 X-1.6703 Y2.0813  
G01 X-1.6748 Y2.0839  
G01 X-1.8352 Y2.2443  
G01 X-1.8403 Y2.2422  
G01 X-1.8467 Y2.2409  
G01 X-1.8533 Y2.2409  
G01 X-1.8597 Y2.2422  
G01 X-1.8657 Y2.2447  
G01 X-1.8711 Y2.2483  
G01 X-1.8757 Y2.2529  
G01 X-1.8793 Y2.2583  
G01 X-1.8818 Y2.2643  
G01 X-1.8831 Y2.2707  
G01 X-1.8831 Y2.3172  
G01 X-1.9311 Y2.3652  
G01 X-1.9348 Y2.3689  
G01 X-1.9833 Y2.4174  
G01 X-2.3167 Y2.4174  
G01 X-2.3924 Y2.3417  
G01 X-2.3924 Y2.3349  
G01 X-2.3938 Y2.3297  
G01 X-2.3964 Y2.3252  
G01 X-2.4002 Y2.3214  
G01 X-2.4169 Y2.3047  
G01 X-2.4169 Y2.2707  
G01 X-2.4182 Y2.2643  
G01 X-2.4207 Y2.2583  
G01 X-2.4243 Y2.2529  
G01 X-2.4289 Y2.2483  
G01 X-2.4343 Y2.2447  
G01 X-2.4403 Y2.2422  
G01 X-2.4467 Y2.2409  
G01 X-2.4533 Y2.2409  
G01 X-2.4597 Y2.2422  
G01 X-2.4657 Y2.2447  
G01 X-2.4711 Y2.2483  
G01 X-2.4757 Y2.2529  
G01 X-2.4793 Y2.2583  
G01 X-2.4818 Y2.2643  
G01 X-2.4831 Y2.2707  
G01 X-2.4831 Y2.3293  
G01 X-2.4818 Y2.3357  
G01 X-2.4793 Y2.3417  
G01 X-2.4757 Y2.3471  
G01 X-2.4711 Y2.3517  
G01 X-2.4657 Y2.3553  
G01 X-2.4597 Y2.3578  
G01 X-2.4533 Y2.3591  
G01 X-2.4467 Y2.3591  
G01 X-2.4403 Y2.3578  
G01 X-2.4343 Y2.3553  
G01 X-2.4323 Y2.3539  
G01 X-2.4312 Y2.3578  
G01 X-2.4286 Y2.3623  
G01 X-2.3411 Y2.4498  
G01 X-2.3373 Y2.4536  
G01 X-2.3328 Y2.4562  
G01 X-2.3276 Y2.4576  
G01 X-1.9724 Y2.4576  
G01 X-1.9672 Y2.4562  
G01 X-1.9627 Y2.4536  
G01 X-1.9164 Y2.4073  
G01 X-1.9151 Y2.4076  
G01 X-1.6708 Y2.4076  
G01 X-1.0847 Y2.9937  
G01 X-1.1333 Y3.0424  
G01 X-1.3140 Y3.0424  
G01 X-1.3047 Y3.0331  
G01 X-1.2863 Y3.0331  
G01 X-1.2669 Y3.0137  
G01 X-1.2669 Y2.9863  
G01 X-1.2863 Y2.9669  
G01 X-1.3137 Y2.9669  
G01 X-1.3331 Y2.9863  
G01 X-1.3331 Y3.0047  
G01 X-1.3686 Y3.0402  
G01 X-1.3708 Y3.0424  
G01 X-1.4792 Y3.0424  
G01 X-1.5169 Y3.0047  
G01 X-1.5169 Y2.9863  
G01 X-1.5363 Y2.9669  
G01 X-1.5637 Y2.9669  
G01 X-1.5831 Y2.9863  
G01 X-1.5831 Y2.9922  
G01 X-1.6333 Y3.0424  
G01 X-1.8140 Y3.0424  
G01 X-1.8047 Y3.0331  
G01 X-1.7863 Y3.0331  
G01 X-1.7669 Y3.0137  
G01 X-1.7669 Y2.9863  
G01 X-1.7863 Y2.9669  
G01 X-1.8137 Y2.9669  
G01 X-1.8331 Y2.9863  
G01 X-1.8331 Y3.0047  
G01 X-1.8686 Y3.0402  
G01 X-1.8708 Y3.0424  
G01 X-1.9792 Y3.0424  
G01 X-2.0169 Y3.0047  
G01 X-2.0169 Y2.9863  
G01 X-2.0363 Y2.9669  
G01 X-2.0637 Y2.9669  
G01 X-2.0831 Y2.9863  
G01 X-2.0831 Y2.9922  
G01 X-2.1333 Y3.0424  
G01 X-2.3140 Y3.0424  
G01 X-2.3047 Y3.0331  
G01 X-2.2863 Y3.0331  
G01 X-2.2669 Y3.0137  
G01 X-2.2669 Y2.9863  
G01 X-2.2863 Y2.9669  
G01 X-2.3137 Y2.9669  
G01 X-2.3331 Y2.9863  
G01 X-2.3331 Y3.0047  
G01 X-2.3686 Y3.0402  
G01 X-2.3708 Y3.0424  
G01 X-2.4792 Y3.0424  
G01 X-2.5169 Y3.0047  
G01 X-2.5169 Y2.9863  
G01 X-2.5363 Y2.9669  
G01 X-2.5637 Y2.9669  
G01 X-2.5831 Y2.9863  
G01 X-2.5831 Y3.0137  
G01 X-2.5637 Y3.0331  
G01 X-2.5453 Y3.0331  
G01 X-2.5360 Y3.0424  
G01 X-2.6667 Y3.0424  
G01 X-2.7252 Y2.9839  
G01 X-2.7297 Y2.9813  
G01 X-2.7349 Y2.9799  
G01 X-2.7733 Y2.9799  
G01 X-2.7863 Y2.9669  
G01 X-2.8137 Y2.9669  
G01 X-2.8331 Y2.9863  
G01 X-2.8331 Y3.0047  
G01 X-2.8708 Y3.0424  
G01 X-2.9792 Y3.0424  
G01 X-3.0169 Y3.0047  
G01 X-3.0169 Y2.9863  
G01 X-3.0363 Y2.9669  
G01 X-3.0637 Y2.9669  
G01 X-3.0831 Y2.9863  
G01 X-3.0831 Y3.0137  
G01 X-3.0637 Y3.0331  
G01 X-3.0453 Y3.0331  
G01 X-2.9998 Y3.0786  
G01 X-2.9953 Y3.0812  
G01 X-2.9901 Y3.0826  
G01 X-2.8599 Y3.0826  
G01 X-2.8547 Y3.0812  
G01 X-2.8502 Y3.0786  
G01 X-2.8464 Y3.0748  
G01 X-2.8047 Y3.0331  
G01 X-2.7863 Y3.0331  
G01 X-2.7733 Y3.0201  
G01 X-2.7458 Y3.0201  
G01 X-2.6911 Y3.0748  
G01 X-2.6873 Y3.0786  
G01 X-2.6828 Y3.0812  
G01 X-2.6776 Y3.0826  
G01 X-2.3599 Y3.0826  
G01 X-2.3563 Y3.0816  
G01 X-2.3526 Y3.0826  
G01 X-2.1224 Y3.0826  
G01 X-2.1172 Y3.0812  
G01 X-2.1127 Y3.0786  
G01 X-2.1089 Y3.0748  
G01 X-2.0654 Y3.0314  
G01 X-2.0637 Y3.0331  
G01 X-2.0453 Y3.0331  
G01 X-1.9998 Y3.0786  
G01 X-1.9953 Y3.0812  
G01 X-1.9901 Y3.0826  
G01 X-1.8599 Y3.0826  
G01 X-1.8562 Y3.0816  
G01 X-1.8526 Y3.0826  
G01 X-1.6224 Y3.0826  
G01 X-1.6172 Y3.0812  
G01 X-1.6127 Y3.0786  
G01 X-1.6089 Y3.0748  
G01 X-1.5654 Y3.0314  
G01 X-1.5637 Y3.0331  
G01 X-1.5453 Y3.0331  
G01 X-1.4998 Y3.0786  
G01 X-1.4953 Y3.0812  
G01 X-1.4901 Y3.0826  
G01 X-1.3599 Y3.0826  
G01 X-1.3562 Y3.0816  
G01 X-1.3526 Y3.0826  
G01 X-1.1224 Y3.0826  
G01 X-1.1172 Y3.0812  
G01 X-1.1127 Y3.0786  
G01 X-1.1089 Y3.0748  
G01 X-1.0654 Y3.0314  
G01 X-1.0637 Y3.0331  
G01 X-1.0453 Y3.0331  
G01 X-0.9998 Y3.0786  
G01 X-0.9953 Y3.0812  
G01 X-0.9901 Y3.0826  
G01 X-0.8599 Y3.0826  
G01 X-0.8547 Y3.0812  
G01 X-0.8502 Y3.0786  
G01 X-0.8464 Y3.0748  
G01 X-0.8047 Y3.0331  
G01 X-0.7863 Y3.0331  
G01 X-0.7669 Y3.0137  
G01 X-0.7669 Y2.9863  
G01 X-0.7863 Y2.9669  
G01 X-0.8137 Y2.9669  
G01 X-0.8331 Y2.9863  
G01 X-0.8331 Y3.0047  
G01 X-0.8708 Y3.0424  
G01 X-0.9792 Y3.0424  
G01 X-1.0169 Y3.0047  
G01 X-1.0169 Y2.9863  
G01 X-1.0363 Y2.9669  
G01 X-1.0547 Y2.9669  
G01 X-1.6464 Y2.3752  
G01 X-1.6502 Y2.3714  
G01 X-1.6547 Y2.3688  
G01 X-1.6599 Y2.3674  
G01 X-1.8765 Y2.3674  
G01 X-1.8648 Y2.3557  
G01 X-1.8597 Y2.3578  
G01 X-1.8533 Y2.3591  
G01 X-1.8467 Y2.3591  
G01 X-1.8403 Y2.3578  
G01 X-1.8343 Y2.3553  
G01 X-1.8289 Y2.3517  
G01 X-1.8243 Y2.3471  
G01 X-1.8207 Y2.3417  
G01 X-1.8182 Y2.3357  
G01 X-1.8169 Y2.3293  
G01 X-1.8169 Y2.2828  
G01 X-1.6542 Y2.1201  
G01 X-1.6267 Y2.1201  
G01 X-1.6137 Y2.1331  
G01 X-1.5863 Y2.1331  
G01 X-1.5669 Y2.1137  
G01 X-1.5669 Y2.0863  
G01 X-1.5686 Y2.0846  
G01 X-1.2339 Y1.7498  
G01 X-1.2313 Y1.7453  
G01 X-1.2299 Y1.7401  
G01 X-1.2299 Y1.7201  
G01 X-0.8599 Y1.7201  
G01 X-0.8547 Y1.7187  
G01 X-0.8502 Y1.7161  
G01 X-0.8464 Y1.7123  
G01 X-0.7839 Y1.6498  
G01 X-0.7813 Y1.6453  
G01 X-0.7799 Y1.6401  
G01 X-0.7799 Y1.6208  
G01 X-0.5714 Y1.4123  
G01 X-0.5688 Y1.4078  
G01 X-0.5674 Y1.4026  
G01 X-0.5674 Y1.1583  
G01 X-0.3585 Y0.9494  
G01 X-0.3563 Y0.9501  
G01 X-0.3483 Y0.9513  
G01 X-0.2517 Y0.9513  
G01 X-0.2437 Y0.9501  
G01 X-0.2360 Y0.9476  
G01 X-0.2288 Y0.9439  
G01 X-0.2223 Y0.9392  
G01 X-0.2166 Y0.9335  
G01 X-0.2118 Y0.9269  
G01 X-0.2082 Y0.9197  
G01 X-0.2057 Y0.9120  
G01 X-0.2044 Y0.9040  
G01 X-0.2044 Y0.8960  
G01 X-0.2057 Y0.8880  
G01 X-0.2082 Y0.8803  
G01 X-0.2118 Y0.8731  
G01 X-0.2166 Y0.8665  
G01 X-0.2223 Y0.8608  
G01 X-0.2288 Y0.8561  
G01 X-0.2360 Y0.8524  
G01 X-0.2437 Y0.8499  
G01 X-0.2517 Y0.8486  
G01 X-0.2799 Y0.8486  
G01 X-0.2799 Y0.6208  
G01 X-0.1589 Y0.4998  
G01 X-0.1563 Y0.4953  
G01 X-0.1549 Y0.4901  
G01 X-0.1549 Y0.4099  
G01 X-0.1563 Y0.4047  
G01 X-0.1589 Y0.4002  
G01 X-0.2464 Y0.3127  
G01 X-0.2502 Y0.3089  
G01 X-0.2547 Y0.3063  
G01 X-0.2599 Y0.3049  
G01 X-0.4792 Y0.3049  
G01 X-0.5109 Y0.2732  
G01 X-0.5059 Y0.2683  
G01 X-0.5059 Y0.2317  
G00 Z0.1000  
G00 X-0.9059 Y0.2317  
G01 Z-0.0020 F10    
G01 X-0.9299 Y0.2077  F20    
G01 X-0.9299 Y0.1923  
G01 X-0.9059 Y0.1683  
G01 X-0.9059 Y0.1317  
G01 X-0.9317 Y0.1059  
G01 X-0.9683 Y0.1059  
G01 X-0.9941 Y0.1317  
G01 X-0.9941 Y0.1683  
G01 X-0.9701 Y0.1923  
G01 X-0.9701 Y0.2077  
G01 X-0.9941 Y0.2317  
G01 X-0.9941 Y0.2683  
G01 X-0.9683 Y0.2941  
G01 X-0.9468 Y0.2941  
G01 X-0.9201 Y0.3208  
G01 X-0.9201 Y0.3986  
G01 X-0.9483 Y0.3986  
G01 X-0.9563 Y0.3999  
G01 X-0.9640 Y0.4024  
G01 X-0.9712 Y0.4061  
G01 X-0.9777 Y0.4108  
G01 X-0.9834 Y0.4165  
G01 X-0.9882 Y0.4231  
G01 X-0.9916 Y0.4299  
G01 X-1.3401 Y0.4299  
G01 X-1.3453 Y0.4313  
G01 X-1.3498 Y0.4339  
G01 X-1.3536 Y0.4377  
G01 X-1.6859 Y0.7700  
G01 X-1.6903 Y0.7682  
G01 X-1.6967 Y0.7669  
G01 X-1.7033 Y0.7669  
G01 X-1.7097 Y0.7682  
G01 X-1.7157 Y0.7707  
G01 X-1.7211 Y0.7743  
G01 X-1.7257 Y0.7789  
G01 X-1.7264 Y0.7799  
G01 X-1.8026 Y0.7799  
G01 X-1.8078 Y0.7813  
G01 X-1.8123 Y0.7839  
G01 X-1.8953 Y0.8669  
G01 X-1.9137 Y0.8669  
G01 X-1.9331 Y0.8863  
G01 X-1.9331 Y0.9137  
G01 X-1.9137 Y0.9331  
G01 X-1.8863 Y0.9331  
G01 X-1.8669 Y0.9137  
G01 X-1.8669 Y0.8953  
G01 X-1.7917 Y0.8201  
G01 X-1.7264 Y0.8201  
G01 X-1.7257 Y0.8211  
G01 X-1.7211 Y0.8257  
G01 X-1.7157 Y0.8293  
G01 X-1.7097 Y0.8318  
G01 X-1.7033 Y0.8331  
G01 X-1.6967 Y0.8331  
G01 X-1.6903 Y0.8318  
G01 X-1.6843 Y0.8293  
G01 X-1.6789 Y0.8257  
G01 X-1.6743 Y0.8211  
G01 X-1.6707 Y0.8157  
G01 X-1.6682 Y0.8097  
G01 X-1.6680 Y0.8090  
G01 X-1.3292 Y0.4701  
G01 X-0.9916 Y0.4701  
G01 X-0.9882 Y0.4769  
G01 X-0.9834 Y0.4835  
G01 X-0.9777 Y0.4892  
G01 X-0.9712 Y0.4939  
G01 X-0.9640 Y0.4976  
G01 X-0.9563 Y0.5001  
G01 X-0.9483 Y0.5013  
G01 X-0.8517 Y0.5013  
G01 X-0.8437 Y0.5001  
G01 X-0.8360 Y0.4976  
G01 X-0.8288 Y0.4939  
G01 X-0.8223 Y0.4892  
G01 X-0.8166 Y0.4835  
G01 X-0.8118 Y0.4769  
G01 X-0.8082 Y0.4697  
G01 X-0.8057 Y0.4620  
G01 X-0.8044 Y0.4540  
G01 X-0.8044 Y0.4460  
G01 X-0.8057 Y0.4380  
G01 X-0.8082 Y0.4303  
G01 X-0.8118 Y0.4231  
G01 X-0.8166 Y0.4165  
G01 X-0.8223 Y0.4108  
G01 X-0.8288 Y0.4061  
G01 X-0.8360 Y0.4024  
G01 X-0.8437 Y0.3999  
G01 X-0.8517 Y0.3986  
G01 X-0.8799 Y0.3986  
G01 X-0.8799 Y0.3099  
G01 X-0.8813 Y0.3047  
G01 X-0.8839 Y0.3002  
G01 X-0.9109 Y0.2732  
G01 X-0.9059 Y0.2683  
G01 X-0.9059 Y0.2317  
G00 Z0.1000  
G00 X-0.8349 Y0.7799  
G01 Z-0.0020 F10    
G01 X-1.3736 Y0.7799  F20    
G01 X-1.3743 Y0.7789  
G01 X-1.3789 Y0.7743  
G01 X-1.3843 Y0.7707  
G01 X-1.3903 Y0.7682  
G01 X-1.3967 Y0.7669  
G01 X-1.4033 Y0.7669  
G01 X-1.4097 Y0.7682  
G01 X-1.4157 Y0.7707  
G01 X-1.4211 Y0.7743  
G01 X-1.4257 Y0.7789  
G01 X-1.4264 Y0.7799  
G01 X-1.4736 Y0.7799  
G01 X-1.4743 Y0.7789  
G01 X-1.4789 Y0.7743  
G01 X-1.4843 Y0.7707  
G01 X-1.4903 Y0.7682  
G01 X-1.4967 Y0.7669  
G01 X-1.5033 Y0.7669  
G01 X-1.5097 Y0.7682  
G01 X-1.5157 Y0.7707  
G01 X-1.5211 Y0.7743  
G01 X-1.5257 Y0.7789  
G01 X-1.5293 Y0.7843  
G01 X-1.5318 Y0.7903  
G01 X-1.5320 Y0.7910  
G01 X-2.2125 Y1.4716  
G01 X-2.2799 Y1.4042  
G01 X-2.2799 Y1.1267  
G01 X-2.2669 Y1.1137  
G01 X-2.2669 Y1.0863  
G01 X-2.2863 Y1.0669  
G01 X-2.3137 Y1.0669  
G01 X-2.3331 Y1.0863  
G01 X-2.3331 Y1.1137  
G01 X-2.3201 Y1.1267  
G01 X-2.3201 Y1.4151  
G01 X-2.3187 Y1.4203  
G01 X-2.3161 Y1.4248  
G01 X-2.2286 Y1.5123  
G01 X-2.2248 Y1.5161  
G01 X-2.2201 Y1.5208  
G01 X-2.2201 Y1.6733  
G01 X-2.2331 Y1.6863  
G01 X-2.2331 Y1.7137  
G01 X-2.2137 Y1.7331  
G01 X-2.1863 Y1.7331  
G01 X-2.1669 Y1.7137  
G01 X-2.1669 Y1.6863  
G01 X-2.1799 Y1.6733  
G01 X-2.1799 Y1.5099  
G01 X-2.1813 Y1.5047  
G01 X-2.1839 Y1.5002  
G01 X-2.1841 Y1.5000  
G01 X-1.5141 Y0.8300  
G01 X-1.5097 Y0.8318  
G01 X-1.5033 Y0.8331  
G01 X-1.4967 Y0.8331  
G01 X-1.4903 Y0.8318  
G01 X-1.4843 Y0.8293  
G01 X-1.4789 Y0.8257  
G01 X-1.4743 Y0.8211  
G01 X-1.4736 Y0.8201  
G01 X-1.4264 Y0.8201  
G01 X-1.4257 Y0.8211  
G01 X-1.4211 Y0.8257  
G01 X-1.4157 Y0.8293  
G01 X-1.4097 Y0.8318  
G01 X-1.4033 Y0.8331  
G01 X-1.3967 Y0.8331  
G01 X-1.3903 Y0.8318  
G01 X-1.3843 Y0.8293  
G01 X-1.3789 Y0.8257  
G01 X-1.3743 Y0.8211  
G01 X-1.3736 Y0.8201  
G01 X-0.8458 Y0.8201  
G01 X-0.7951 Y0.8708  
G01 X-0.7951 Y0.9292  
G01 X-0.9161 Y1.0502  
G01 X-0.9187 Y1.0547  
G01 X-0.9201 Y1.0599  
G01 X-0.9201 Y1.5338  
G01 X-0.9223 Y1.5344  
G01 X-0.9306 Y1.5379  
G01 X-0.9385 Y1.5424  
G01 X-0.9457 Y1.5479  
G01 X-0.9521 Y1.5543  
G01 X-0.9576 Y1.5615  
G01 X-0.9621 Y1.5694  
G01 X-0.9656 Y1.5777  
G01 X-0.9679 Y1.5865  
G01 X-0.9691 Y1.5955  
G01 X-0.9691 Y1.6045  
G01 X-0.9679 Y1.6135  
G01 X-0.9656 Y1.6223  
G01 X-0.9621 Y1.6306  
G01 X-0.9576 Y1.6385  
G01 X-0.9521 Y1.6457  
G01 X-0.9457 Y1.6521  
G01 X-0.9385 Y1.6576  
G01 X-0.9306 Y1.6621  
G01 X-0.9223 Y1.6656  
G01 X-0.9135 Y1.6679  
G01 X-0.9045 Y1.6691  
G01 X-0.8955 Y1.6691  
G01 X-0.8865 Y1.6679  
G01 X-0.8777 Y1.6656  
G01 X-0.8694 Y1.6621  
G01 X-0.8615 Y1.6576  
G01 X-0.8543 Y1.6521  
G01 X-0.8479 Y1.6457  
G01 X-0.8424 Y1.6385  
G01 X-0.8379 Y1.6306  
G01 X-0.8344 Y1.6223  
G01 X-0.8321 Y1.6135  
G01 X-0.8309 Y1.6045  
G01 X-0.8309 Y1.5955  
G01 X-0.8321 Y1.5865  
G01 X-0.8344 Y1.5777  
G01 X-0.8379 Y1.5694  
G01 X-0.8424 Y1.5615  
G01 X-0.8479 Y1.5543  
G01 X-0.8543 Y1.5479  
G01 X-0.8615 Y1.5424  
G01 X-0.8694 Y1.5379  
G01 X-0.8777 Y1.5344  
G01 X-0.8799 Y1.5338  
G01 X-0.8799 Y1.0708  
G01 X-0.7627 Y0.9536  
G01 X-0.7589 Y0.9498  
G01 X-0.7563 Y0.9453  
G01 X-0.7549 Y0.9401  
G01 X-0.7549 Y0.8599  
G01 X-0.7563 Y0.8547  
G01 X-0.7589 Y0.8502  
G01 X-0.8214 Y0.7877  
G01 X-0.8252 Y0.7839  
G01 X-0.8297 Y0.7813  
G01 X-0.8349 Y0.7799  
G00 Z0.1000  
G00 X-0.6724 Y0.7451  
G01 Z-0.0020 F10    
G01 X-0.6701 Y0.7445  F20    
G01 X-0.6701 Y1.1233  
G01 X-0.6831 Y1.1363  
G01 X-0.6831 Y1.1637  
G01 X-0.6637 Y1.1831  
G01 X-0.6363 Y1.1831  
G01 X-0.6169 Y1.1637  
G01 X-0.6169 Y1.1363  
G01 X-0.6299 Y1.1233  
G01 X-0.6299 Y0.7099  
G01 X-0.6302 Y0.7086  
G01 X-0.6117 Y0.6901  
G01 X-0.5834 Y0.6901  
G01 X-0.5599 Y0.6666  
G01 X-0.5599 Y0.6334  
G01 X-0.5834 Y0.6099  
G01 X-0.6166 Y0.6099  
G01 X-0.6401 Y0.6334  
G01 X-0.6401 Y0.6617  
G01 X-0.6686 Y0.6902  
G01 X-0.6723 Y0.6939  
G01 X-0.6833 Y0.7049  
G01 X-1.5276 Y0.7049  
G01 X-1.5328 Y0.7063  
G01 X-1.5373 Y0.7089  
G01 X-1.5411 Y0.7127  
G01 X-1.5956 Y0.7671  
G01 X-1.5967 Y0.7669  
G01 X-1.6033 Y0.7669  
G01 X-1.6097 Y0.7682  
G01 X-1.6157 Y0.7707  
G01 X-1.6211 Y0.7743  
G01 X-1.6257 Y0.7789  
G01 X-1.6293 Y0.7843  
G01 X-1.6318 Y0.7903  
G01 X-1.6331 Y0.7967  
G01 X-1.6331 Y0.8033  
G01 X-1.6318 Y0.8097  
G01 X-1.6293 Y0.8157  
G01 X-1.6257 Y0.8211  
G01 X-1.6211 Y0.8257  
G01 X-1.6157 Y0.8293  
G01 X-1.6097 Y0.8318  
G01 X-1.6033 Y0.8331  
G01 X-1.5967 Y0.8331  
G01 X-1.5903 Y0.8318  
G01 X-1.5843 Y0.8293  
G01 X-1.5789 Y0.8257  
G01 X-1.5743 Y0.8211  
G01 X-1.5707 Y0.8157  
G01 X-1.5682 Y0.8097  
G01 X-1.5669 Y0.8033  
G01 X-1.5669 Y0.7967  
G01 X-1.5671 Y0.7956  
G01 X-1.5167 Y0.7451  
G01 X-0.6724 Y0.7451  
G00 Z0.1000  
G00 X-0.4788 Y1.3804  
G01 Z-0.0020 F10    
G01 X-0.5196 Y1.4212  F20    
G01 X-0.5196 Y1.4788  
G01 X-0.5134 Y1.4850  
G01 X-0.6161 Y1.5877  
G01 X-0.6187 Y1.5922  
G01 X-0.6201 Y1.5974  
G01 X-0.6201 Y1.7733  
G01 X-0.6331 Y1.7863  
G01 X-0.6331 Y1.8137  
G01 X-0.6137 Y1.8331  
G01 X-0.5863 Y1.8331  
G01 X-0.5669 Y1.8137  
G01 X-0.5669 Y1.7863  
G01 X-0.5799 Y1.7733  
G01 X-0.5799 Y1.6083  
G01 X-0.4850 Y1.5134  
G01 X-0.4788 Y1.5196  
G01 X-0.4212 Y1.5196  
G01 X-0.3804 Y1.4788  
G01 X-0.3804 Y1.4212  
G01 X-0.4212 Y1.3804  
G01 X-0.4788 Y1.3804  
G00 Z0.1000  
G00 X-0.2788 Y1.3804  
G01 Z-0.0020 F10    
G01 X-0.3196 Y1.4212  F20    
G01 X-0.3196 Y1.4788  
G01 X-0.3134 Y1.4850  
G01 X-0.4161 Y1.5877  
G01 X-0.4187 Y1.5922  
G01 X-0.4201 Y1.5974  
G01 X-0.4201 Y1.6546  
G01 X-0.4260 Y1.6576  
G01 X-0.4323 Y1.6622  
G01 X-0.4378 Y1.6677  
G01 X-0.4424 Y1.6740  
G01 X-0.4460 Y1.6810  
G01 X-0.4484 Y1.6884  
G01 X-0.4496 Y1.6961  
G01 X-0.4496 Y1.7039  
G01 X-0.4484 Y1.7116  
G01 X-0.4460 Y1.7190  
G01 X-0.4424 Y1.7260  
G01 X-0.4378 Y1.7323  
G01 X-0.4323 Y1.7378  
G01 X-0.4260 Y1.7424  
G01 X-0.4190 Y1.7460  
G01 X-0.4116 Y1.7484  
G01 X-0.4039 Y1.7496  
G01 X-0.3961 Y1.7496  
G01 X-0.3884 Y1.7484  
G01 X-0.3810 Y1.7460  
G01 X-0.3740 Y1.7424  
G01 X-0.3677 Y1.7378  
G01 X-0.3622 Y1.7323  
G01 X-0.3576 Y1.7260  
G01 X-0.3540 Y1.7190  
G01 X-0.3516 Y1.7116  
G01 X-0.3504 Y1.7039  
G01 X-0.3504 Y1.6961  
G01 X-0.3516 Y1.6884  
G01 X-0.3540 Y1.6810  
G01 X-0.3576 Y1.6740  
G01 X-0.3622 Y1.6677  
G01 X-0.3677 Y1.6622  
G01 X-0.3740 Y1.6576  
G01 X-0.3799 Y1.6546  
G01 X-0.3799 Y1.6083  
G01 X-0.2850 Y1.5134  
G01 X-0.2788 Y1.5196  
G01 X-0.2212 Y1.5196  
G01 X-0.1804 Y1.4788  
G01 X-0.1804 Y1.4212  
G01 X-0.2212 Y1.3804  
G01 X-0.2788 Y1.3804  
G00 Z0.1000  
G00 X-0.3026 Y2.1799  
G01 Z-0.0020 F10    
G01 X-0.3078 Y2.1813  F20    
G01 X-0.3123 Y2.1839  
G01 X-0.3791 Y2.2507  
G01 X-0.3795 Y2.2504  
G01 X-0.4205 Y2.2504  
G01 X-0.4496 Y2.2795  
G01 X-0.4496 Y2.3205  
G01 X-0.4205 Y2.3496  
G01 X-0.3795 Y2.3496  
G01 X-0.3504 Y2.3205  
G01 X-0.3504 Y2.2795  
G01 X-0.3507 Y2.2791  
G01 X-0.2917 Y2.2201  
G01 X-0.2267 Y2.2201  
G01 X-0.2137 Y2.2331  
G01 X-0.1863 Y2.2331  
G01 X-0.1669 Y2.2137  
G01 X-0.1669 Y2.1863  
G01 X-0.1863 Y2.1669  
G01 X-0.2137 Y2.1669  
G01 X-0.2267 Y2.1799  
G01 X-0.3026 Y2.1799  
G00 Z0.1000  
G00 X-0.5669 Y2.1863  
G01 Z-0.0020 F10    
G01 X-0.5863 Y2.1669  F20    
G01 X-0.6137 Y2.1669  
G01 X-0.6331 Y2.1863  
G01 X-0.6331 Y2.2047  
G01 X-0.8654 Y2.4369  
G01 X-0.8714 Y2.4309  
G01 X-0.9286 Y2.4309  
G01 X-0.9691 Y2.4714  
G01 X-0.9691 Y2.5286  
G01 X-0.9286 Y2.5691  
G01 X-0.8714 Y2.5691  
G01 X-0.8309 Y2.5286  
G01 X-0.8309 Y2.4714  
G01 X-0.8369 Y2.4654  
G01 X-0.6047 Y2.2331  
G01 X-0.5863 Y2.2331  
G01 X-0.5669 Y2.2137  
G01 X-0.5669 Y2.1863  
G00 Z0.1000  
G00 X-0.8669 Y2.9863  
G01 Z-0.0020 F10    
G01 X-0.8863 Y2.9669  F20    
G01 X-0.9137 Y2.9669  
G01 X-0.9267 Y2.9799  
G01 X-0.9417 Y2.9799  
G01 X-1.6169 Y2.3047  
G01 X-1.6169 Y2.2707  
G01 X-1.6182 Y2.2643  
G01 X-1.6207 Y2.2583  
G01 X-1.6243 Y2.2529  
G01 X-1.6289 Y2.2483  
G01 X-1.6343 Y2.2447  
G01 X-1.6403 Y2.2422  
G01 X-1.6467 Y2.2409  
G01 X-1.6533 Y2.2409  
G01 X-1.6597 Y2.2422  
G01 X-1.6657 Y2.2447  
G01 X-1.6711 Y2.2483  
G01 X-1.6757 Y2.2529  
G01 X-1.6793 Y2.2583  
G01 X-1.6818 Y2.2643  
G01 X-1.6831 Y2.2707  
G01 X-1.6831 Y2.3293  
G01 X-1.6818 Y2.3357  
G01 X-1.6793 Y2.3417  
G01 X-1.6757 Y2.3471  
G01 X-1.6711 Y2.3517  
G01 X-1.6657 Y2.3553  
G01 X-1.6597 Y2.3578  
G01 X-1.6533 Y2.3591  
G01 X-1.6467 Y2.3591  
G01 X-1.6403 Y2.3578  
G01 X-1.6343 Y2.3553  
G01 X-1.6289 Y2.3517  
G01 X-1.6278 Y2.3506  
G01 X-0.9623 Y3.0161  
G01 X-0.9578 Y3.0187  
G01 X-0.9526 Y3.0201  
G01 X-0.9267 Y3.0201  
G01 X-0.9137 Y3.0331  
G01 X-0.8863 Y3.0331  
G01 X-0.8669 Y3.0137  
G01 X-0.8669 Y2.9863  
G00 Z0.1000  
G00 X-1.1169 Y2.9863  
G01 Z-0.0020 F10    
G01 X-1.1363 Y2.9669  F20    
G01 X-1.1637 Y2.9669  
G01 X-1.1767 Y2.9799  
G01 X-1.2042 Y2.9799  
G01 X-1.5964 Y2.5877  
G01 X-1.6002 Y2.5839  
G01 X-1.6047 Y2.5813  
G01 X-1.6099 Y2.5799  
G01 X-1.6169 Y2.5799  
G01 X-1.6169 Y2.5707  
G01 X-1.6182 Y2.5643  
G01 X-1.6207 Y2.5583  
G01 X-1.6243 Y2.5529  
G01 X-1.6289 Y2.5483  
G01 X-1.6343 Y2.5447  
G01 X-1.6403 Y2.5422  
G01 X-1.6467 Y2.5409  
G01 X-1.6533 Y2.5409  
G01 X-1.6597 Y2.5422  
G01 X-1.6657 Y2.5447  
G01 X-1.6711 Y2.5483  
G01 X-1.6757 Y2.5529  
G01 X-1.6793 Y2.5583  
G01 X-1.6818 Y2.5643  
G01 X-1.6831 Y2.5707  
G01 X-1.6831 Y2.6293  
G01 X-1.6818 Y2.6357  
G01 X-1.6793 Y2.6417  
G01 X-1.6757 Y2.6471  
G01 X-1.6711 Y2.6517  
G01 X-1.6657 Y2.6553  
G01 X-1.6597 Y2.6578  
G01 X-1.6533 Y2.6591  
G01 X-1.6467 Y2.6591  
G01 X-1.6403 Y2.6578  
G01 X-1.6343 Y2.6553  
G01 X-1.6289 Y2.6517  
G01 X-1.6243 Y2.6471  
G01 X-1.6207 Y2.6417  
G01 X-1.6182 Y2.6357  
G01 X-1.6169 Y2.6293  
G01 X-1.6169 Y2.6240  
G01 X-1.2248 Y3.0161  
G01 X-1.2203 Y3.0187  
G01 X-1.2151 Y3.0201  
G01 X-1.1767 Y3.0201  
G01 X-1.1637 Y3.0331  
G01 X-1.1363 Y3.0331  
G01 X-1.1169 Y3.0137  
G01 X-1.1169 Y2.9863  
G00 Z0.1000  
G00 X-1.3669 Y2.9863  
G01 Z-0.0020 F10    
G01 X-1.3863 Y2.9669  F20    
G01 X-1.4047 Y2.9669  
G01 X-1.7244 Y2.6472  
G01 X-1.7207 Y2.6417  
G01 X-1.7182 Y2.6357  
G01 X-1.7169 Y2.6293  
G01 X-1.7169 Y2.5707  
G01 X-1.7182 Y2.5643  
G01 X-1.7207 Y2.5583  
G01 X-1.7243 Y2.5529  
G01 X-1.7289 Y2.5483  
G01 X-1.7343 Y2.5447  
G01 X-1.7403 Y2.5422  
G01 X-1.7467 Y2.5409  
G01 X-1.7533 Y2.5409  
G01 X-1.7597 Y2.5422  
G01 X-1.7657 Y2.5447  
G01 X-1.7711 Y2.5483  
G01 X-1.7757 Y2.5529  
G01 X-1.7793 Y2.5583  
G01 X-1.7818 Y2.5643  
G01 X-1.7831 Y2.5707  
G01 X-1.7831 Y2.6293  
G01 X-1.7818 Y2.6357  
G01 X-1.7793 Y2.6417  
G01 X-1.7757 Y2.6471  
G01 X-1.7711 Y2.6517  
G01 X-1.7701 Y2.6524  
G01 X-1.7701 Y2.6526  
G01 X-1.7687 Y2.6578  
G01 X-1.7661 Y2.6623  
G01 X-1.4331 Y2.9953  
G01 X-1.4331 Y3.0137  
G01 X-1.4137 Y3.0331  
G01 X-1.3863 Y3.0331  
G01 X-1.3669 Y3.0137  
G01 X-1.3669 Y2.9863  
G00 Z0.1000  
G00 X-1.6169 Y2.9863  
G01 Z-0.0020 F10    
G01 X-1.6363 Y2.9669  F20    
G01 X-1.6547 Y2.9669  
G01 X-1.8299 Y2.7917  
G01 X-1.8299 Y2.6524  
G01 X-1.8289 Y2.6517  
G01 X-1.8243 Y2.6471  
G01 X-1.8207 Y2.6417  
G01 X-1.8182 Y2.6357  
G01 X-1.8169 Y2.6293  
G01 X-1.8169 Y2.5707  
G01 X-1.8182 Y2.5643  
G01 X-1.8207 Y2.5583  
G01 X-1.8243 Y2.5529  
G01 X-1.8289 Y2.5483  
G01 X-1.8343 Y2.5447  
G01 X-1.8403 Y2.5422  
G01 X-1.8467 Y2.5409  
G01 X-1.8533 Y2.5409  
G01 X-1.8597 Y2.5422  
G01 X-1.8657 Y2.5447  
G01 X-1.8711 Y2.5483  
G01 X-1.8757 Y2.5529  
G01 X-1.8793 Y2.5583  
G01 X-1.8818 Y2.5643  
G01 X-1.8831 Y2.5707  
G01 X-1.8831 Y2.6293  
G01 X-1.8818 Y2.6357  
G01 X-1.8793 Y2.6417  
G01 X-1.8757 Y2.6471  
G01 X-1.8711 Y2.6517  
G01 X-1.8701 Y2.6524  
G01 X-1.8701 Y2.8026  
G01 X-1.8687 Y2.8078  
G01 X-1.8661 Y2.8123  
G01 X-1.6831 Y2.9953  
G01 X-1.6831 Y3.0137  
G01 X-1.6637 Y3.0331  
G01 X-1.6363 Y3.0331  
G01 X-1.6169 Y3.0137  
G01 X-1.6169 Y2.9863  
G00 Z0.1000  
G00 X-1.8669 Y2.9863  
G01 Z-0.0020 F10    
G01 X-1.8863 Y2.9669  F20    
G01 X-1.9047 Y2.9669  
G01 X-1.9299 Y2.9417  
G01 X-1.9299 Y2.6524  
G01 X-1.9289 Y2.6517  
G01 X-1.9243 Y2.6471  
G01 X-1.9207 Y2.6417  
G01 X-1.9182 Y2.6357  
G01 X-1.9169 Y2.6293  
G01 X-1.9169 Y2.5707  
G01 X-1.9182 Y2.5643  
G01 X-1.9207 Y2.5583  
G01 X-1.9243 Y2.5529  
G01 X-1.9289 Y2.5483  
G01 X-1.9343 Y2.5447  
G01 X-1.9403 Y2.5422  
G01 X-1.9467 Y2.5409  
G01 X-1.9533 Y2.5409  
G01 X-1.9597 Y2.5422  
G01 X-1.9657 Y2.5447  
G01 X-1.9711 Y2.5483  
G01 X-1.9757 Y2.5529  
G01 X-1.9793 Y2.5583  
G01 X-1.9818 Y2.5643  
G01 X-1.9831 Y2.5707  
G01 X-1.9831 Y2.6293  
G01 X-1.9818 Y2.6357  
G01 X-1.9793 Y2.6417  
G01 X-1.9757 Y2.6471  
G01 X-1.9711 Y2.6517  
G01 X-1.9701 Y2.6524  
G01 X-1.9701 Y2.9526  
G01 X-1.9687 Y2.9578  
G01 X-1.9661 Y2.9623  
G01 X-1.9331 Y2.9953  
G01 X-1.9331 Y3.0137  
G01 X-1.9137 Y3.0331  
G01 X-1.8863 Y3.0331  
G01 X-1.8669 Y3.0137  
G01 X-1.8669 Y2.9863  
G00 Z0.1000  
G00 X-2.0339 Y2.9123  
G01 Z-0.0020 F10    
G01 X-2.0313 Y2.9078  F20    
G01 X-2.0299 Y2.9026  
G01 X-2.0299 Y2.6524  
G01 X-2.0289 Y2.6517  
G01 X-2.0243 Y2.6471  
G01 X-2.0207 Y2.6417  
G01 X-2.0182 Y2.6357  
G01 X-2.0169 Y2.6293  
G01 X-2.0169 Y2.5707  
G01 X-2.0182 Y2.5643  
G01 X-2.0207 Y2.5583  
G01 X-2.0243 Y2.5529  
G01 X-2.0289 Y2.5483  
G01 X-2.0343 Y2.5447  
G01 X-2.0403 Y2.5422  
G01 X-2.0467 Y2.5409  
G01 X-2.0533 Y2.5409  
G01 X-2.0597 Y2.5422  
G01 X-2.0657 Y2.5447  
G01 X-2.0711 Y2.5483  
G01 X-2.0757 Y2.5529  
G01 X-2.0793 Y2.5583  
G01 X-2.0818 Y2.5643  
G01 X-2.0831 Y2.5707  
G01 X-2.0831 Y2.6293  
G01 X-2.0818 Y2.6357  
G01 X-2.0793 Y2.6417  
G01 X-2.0757 Y2.6471  
G01 X-2.0711 Y2.6517  
G01 X-2.0701 Y2.6524  
G01 X-2.0701 Y2.8917  
G01 X-2.1453 Y2.9669  
G01 X-2.1637 Y2.9669  
G01 X-2.1831 Y2.9863  
G01 X-2.1831 Y3.0137  
G01 X-2.1637 Y3.0331  
G01 X-2.1363 Y3.0331  
G01 X-2.1169 Y3.0137  
G01 X-2.1169 Y2.9953  
G01 X-2.0339 Y2.9123  
G00 Z0.1000  
G00 X-2.1339 Y2.7623  
G01 Z-0.0020 F10    
G01 X-2.1313 Y2.7578  F20    
G01 X-2.1299 Y2.7526  
G01 X-2.1299 Y2.6524  
G01 X-2.1289 Y2.6517  
G01 X-2.1243 Y2.6471  
G01 X-2.1207 Y2.6417  
G01 X-2.1182 Y2.6357  
G01 X-2.1169 Y2.6293  
G01 X-2.1169 Y2.5707  
G01 X-2.1182 Y2.5643  
G01 X-2.1207 Y2.5583  
G01 X-2.1243 Y2.5529  
G01 X-2.1289 Y2.5483  
G01 X-2.1343 Y2.5447  
G01 X-2.1403 Y2.5422  
G01 X-2.1467 Y2.5409  
G01 X-2.1533 Y2.5409  
G01 X-2.1597 Y2.5422  
G01 X-2.1657 Y2.5447  
G01 X-2.1711 Y2.5483  
G01 X-2.1757 Y2.5529  
G01 X-2.1793 Y2.5583  
G01 X-2.1818 Y2.5643  
G01 X-2.1831 Y2.5707  
G01 X-2.1831 Y2.6293  
G01 X-2.1818 Y2.6357  
G01 X-2.1793 Y2.6417  
G01 X-2.1757 Y2.6471  
G01 X-2.1711 Y2.6517  
G01 X-2.1701 Y2.6524  
G01 X-2.1701 Y2.7417  
G01 X-2.3953 Y2.9669  
G01 X-2.4137 Y2.9669  
G01 X-2.4331 Y2.9863  
G01 X-2.4331 Y3.0137  
G01 X-2.4137 Y3.0331  
G01 X-2.3863 Y3.0331  
G01 X-2.3669 Y3.0137  
G01 X-2.3669 Y2.9953  
G01 X-2.1339 Y2.7623  
G00 Z0.1000  
G00 X-2.2289 Y2.6517  
G01 Z-0.0020 F10    
G01 X-2.2243 Y2.6471  F20    
G01 X-2.2207 Y2.6417  
G01 X-2.2182 Y2.6357  
G01 X-2.2169 Y2.6293  
G01 X-2.2169 Y2.5707  
G01 X-2.2182 Y2.5643  
G01 X-2.2207 Y2.5583  
G01 X-2.2243 Y2.5529  
G01 X-2.2289 Y2.5483  
G01 X-2.2343 Y2.5447  
G01 X-2.2403 Y2.5422  
G01 X-2.2467 Y2.5409  
G01 X-2.2533 Y2.5409  
G01 X-2.2597 Y2.5422  
G01 X-2.2657 Y2.5447  
G01 X-2.2711 Y2.5483  
G01 X-2.2757 Y2.5529  
G01 X-2.2793 Y2.5583  
G01 X-2.2818 Y2.5643  
G01 X-2.2831 Y2.5707  
G01 X-2.2831 Y2.6047  
G01 X-2.2998 Y2.6214  
G01 X-2.3036 Y2.6252  
G01 X-2.3062 Y2.6297  
G01 X-2.3076 Y2.6349  
G01 X-2.3076 Y2.6417  
G01 X-2.6346 Y2.9686  
G01 X-2.6363 Y2.9669  
G01 X-2.6637 Y2.9669  
G01 X-2.6831 Y2.9863  
G01 X-2.6831 Y3.0137  
G01 X-2.6637 Y3.0331  
G01 X-2.6363 Y3.0331  
G01 X-2.6169 Y3.0137  
G01 X-2.6169 Y3.0078  
G01 X-2.2714 Y2.6623  
G01 X-2.2688 Y2.6578  
G01 X-2.2677 Y2.6539  
G01 X-2.2657 Y2.6553  
G01 X-2.2597 Y2.6578  
G01 X-2.2533 Y2.6591  
G01 X-2.2467 Y2.6591  
G01 X-2.2403 Y2.6578  
G01 X-2.2343 Y2.6553  
G01 X-2.2289 Y2.6517  
G00 Z0.1000  
G00 X-2.3289 Y2.6517  
G01 Z-0.0020 F10    
G01 X-2.3243 Y2.6471  F20    
G01 X-2.3207 Y2.6417  
G01 X-2.3182 Y2.6357  
G01 X-2.3169 Y2.6293  
G01 X-2.3169 Y2.5707  
G01 X-2.3182 Y2.5643  
G01 X-2.3207 Y2.5583  
G01 X-2.3243 Y2.5529  
G01 X-2.3289 Y2.5483  
G01 X-2.3343 Y2.5447  
G01 X-2.3403 Y2.5422  
G01 X-2.3467 Y2.5409  
G01 X-2.3533 Y2.5409  
G01 X-2.3597 Y2.5422  
G01 X-2.3657 Y2.5447  
G01 X-2.3711 Y2.5483  
G01 X-2.3757 Y2.5529  
G01 X-2.3793 Y2.5583  
G01 X-2.3818 Y2.5643  
G01 X-2.3831 Y2.5707  
G01 X-2.3831 Y2.6047  
G01 X-2.3998 Y2.6214  
G01 X-2.4036 Y2.6252  
G01 X-2.4062 Y2.6297  
G01 X-2.4076 Y2.6349  
G01 X-2.4076 Y2.6417  
G01 X-2.6833 Y2.9174  
G01 X-2.8401 Y2.9174  
G01 X-2.8453 Y2.9188  
G01 X-2.8498 Y2.9214  
G01 X-2.8953 Y2.9669  
G01 X-2.9137 Y2.9669  
G01 X-2.9331 Y2.9863  
G01 X-2.9331 Y3.0137  
G01 X-2.9137 Y3.0331  
G01 X-2.8863 Y3.0331  
G01 X-2.8669 Y3.0137  
G01 X-2.8669 Y2.9953  
G01 X-2.8292 Y2.9576  
G01 X-2.6724 Y2.9576  
G01 X-2.6672 Y2.9562  
G01 X-2.6627 Y2.9536  
G01 X-2.6589 Y2.9498  
G01 X-2.3714 Y2.6623  
G01 X-2.3688 Y2.6578  
G01 X-2.3677 Y2.6539  
G01 X-2.3657 Y2.6553  
G01 X-2.3597 Y2.6578  
G01 X-2.3533 Y2.6591  
G01 X-2.3467 Y2.6591  
G01 X-2.3403 Y2.6578  
G01 X-2.3343 Y2.6553  
G01 X-2.3289 Y2.6517  
G00 Z0.1000  
G00 X-2.4289 Y2.6517  
G01 Z-0.0020 F10    
G01 X-2.4243 Y2.6471  F20    
G01 X-2.4207 Y2.6417  
G01 X-2.4182 Y2.6357  
G01 X-2.4169 Y2.6293  
G01 X-2.4169 Y2.5707  
G01 X-2.4182 Y2.5643  
G01 X-2.4207 Y2.5583  
G01 X-2.4243 Y2.5529  
G01 X-2.4289 Y2.5483  
G01 X-2.4343 Y2.5447  
G01 X-2.4403 Y2.5422  
G01 X-2.4467 Y2.5409  
G01 X-2.4533 Y2.5409  
G01 X-2.4597 Y2.5422  
G01 X-2.4657 Y2.5447  
G01 X-2.4711 Y2.5483  
G01 X-2.4757 Y2.5529  
G01 X-2.4793 Y2.5583  
G01 X-2.4818 Y2.5643  
G01 X-2.4831 Y2.5707  
G01 X-2.4831 Y2.5799  
G01 X-2.7526 Y2.5799  
G01 X-2.7578 Y2.5813  
G01 X-2.7623 Y2.5839  
G01 X-3.1453 Y2.9669  
G01 X-3.1637 Y2.9669  
G01 X-3.1831 Y2.9863  
G01 X-3.1831 Y3.0137  
G01 X-3.1637 Y3.0331  
G01 X-3.1363 Y3.0331  
G01 X-3.1169 Y3.0137  
G01 X-3.1169 Y2.9953  
G01 X-2.7417 Y2.6201  
G01 X-2.4831 Y2.6201  
G01 X-2.4831 Y2.6293  
G01 X-2.4818 Y2.6357  
G01 X-2.4793 Y2.6417  
G01 X-2.4757 Y2.6471  
G01 X-2.4711 Y2.6517  
G01 X-2.4657 Y2.6553  
G01 X-2.4597 Y2.6578  
G01 X-2.4533 Y2.6591  
G01 X-2.4467 Y2.6591  
G01 X-2.4403 Y2.6578  
G01 X-2.4343 Y2.6553  
G01 X-2.4289 Y2.6517  
G00 Z0.1000  
G00 X-2.2757 Y2.3471  
G01 Z-0.0020 F10    
G01 X-2.2711 Y2.3517  F20    
G01 X-2.2657 Y2.3553  
G01 X-2.2597 Y2.3578  
G01 X-2.2533 Y2.3591  
G01 X-2.2467 Y2.3591  
G01 X-2.2403 Y2.3578  
G01 X-2.2343 Y2.3553  
G01 X-2.2289 Y2.3517  
G01 X-2.2243 Y2.3471  
G01 X-2.2207 Y2.3417  
G01 X-2.2182 Y2.3357  
G01 X-2.2169 Y2.3293  
G01 X-2.2169 Y2.2953  
G01 X-2.2000 Y2.2784  
G01 X-2.1831 Y2.2953  
G01 X-2.1831 Y2.3293  
G01 X-2.1818 Y2.3357  
G01 X-2.1793 Y2.3417  
G01 X-2.1757 Y2.3471  
G01 X-2.1711 Y2.3517  
G01 X-2.1657 Y2.3553  
G01 X-2.1597 Y2.3578  
G01 X-2.1533 Y2.3591  
G01 X-2.1467 Y2.3591  
G01 X-2.1403 Y2.3578  
G01 X-2.1343 Y2.3553  
G01 X-2.1289 Y2.3517  
G01 X-2.1243 Y2.3471  
G01 X-2.1207 Y2.3417  
G01 X-2.1182 Y2.3357  
G01 X-2.1169 Y2.3293  
G01 X-2.1169 Y2.2707  
G01 X-2.1182 Y2.2643  
G01 X-2.1207 Y2.2583  
G01 X-2.1243 Y2.2529  
G01 X-2.1289 Y2.2483  
G01 X-2.1343 Y2.2447  
G01 X-2.1403 Y2.2422  
G01 X-2.1467 Y2.2409  
G01 X-2.1533 Y2.2409  
G01 X-2.1597 Y2.2422  
G01 X-2.1657 Y2.2447  
G01 X-2.1711 Y2.2483  
G01 X-2.1722 Y2.2494  
G01 X-2.1799 Y2.2417  
G01 X-2.1799 Y2.1767  
G01 X-2.1669 Y2.1637  
