(/Applications/pcbgcode.repo/pcb-gcode.ulp)
(Copyright 2005 - 2012 by John Johnson)
(See readme.txt for licensing terms.)
(This file generated from the board:)
(.../eagle/output_attenuator/zerod.brd)
(Current profile is .../pcbgcode.repo/profiles/mach.pp  )
(This file generated 10/20/14 9:36 AM)
(Settings from pcb-machine.h)
(spindle on time = 0.0000)
(  Tool Size)
(0.0062  )
(spindle speed = 30000.0000)
(tool change at 0.0000  0.0000  3.0000  )
(feed rate xy = F20    )
(feed rate z  = F10    )
(Z Axis Settings)
(  High     Up        Down     Drill)
(0.5000  	0.1000  	-0.0020 	-0.0630 )
(Settings from pcb-defaults.h)
(isolate min = 0.0010)
(isolate max = 0.0200)
(isolate step = 0.0050)
(Generated bottom outlines, bottom drill, )
(Unit of measure: inch)
(Inch Mode)
G20
(Absolute Coordinates)
G90
S30000
G00 Z0.5000  
G00 X0.0000  Y0.0000  
M03
G04 P0.000000
G00 Z0.1000  
G00 X-0.1113 Y0.1645  
G01 Z-0.0020 F10    
G01 X-0.2113 Y0.0645  F20    
G01 X-0.2145 Y0.0613  
G01 X-0.2184 Y0.0591  
G01 X-0.2227 Y0.0579  
G01 X-0.5898 Y0.0579  
G01 X-0.5941 Y0.0591  
G01 X-0.5980 Y0.0613  
G01 X-0.6456 Y0.1089  
G01 X-0.6670 Y0.1089  
G01 X-0.6910 Y0.1329  
G01 X-0.7090 Y0.1329  
G01 X-0.7330 Y0.1089  
G01 X-0.7670 Y0.1089  
G01 X-0.7910 Y0.1329  
G01 X-0.8090 Y0.1329  
G01 X-0.8330 Y0.1089  
G01 X-0.8544 Y0.1089  
G01 X-0.9020 Y0.0613  
G01 X-0.9059 Y0.0591  
G01 X-0.9102 Y0.0579  
G01 X-1.1648 Y0.0579  
G01 X-1.1691 Y0.0591  
G01 X-1.1730 Y0.0613  
G01 X-1.1762 Y0.0645  
G01 X-1.9762 Y0.8645  
G01 X-1.9784 Y0.8684  
G01 X-1.9796 Y0.8727  
G01 X-1.9796 Y0.9273  
G01 X-1.9784 Y0.9316  
G01 X-1.9762 Y0.9355  
G01 X-1.9730 Y0.9387  
G01 X-1.9355 Y0.9762  
G01 X-1.9316 Y0.9784  
G01 X-1.9273 Y0.9796  
G01 X-1.9222 Y0.9796  
G01 X-1.9255 Y0.9829  
G01 X-2.2898 Y0.9829  
G01 X-2.2941 Y0.9841  
G01 X-2.2980 Y0.9863  
G01 X-2.3730 Y1.0613  
G01 X-2.3762 Y1.0645  
G01 X-2.3784 Y1.0684  
G01 X-2.3796 Y1.0727  
G01 X-2.3796 Y1.4398  
G01 X-2.3784 Y1.4441  
G01 X-2.3762 Y1.4480  
G01 X-2.3301 Y1.4941  
G01 X-2.3301 Y1.5125  
G01 X-2.3271 Y1.5154  
G01 X-2.4137 Y1.6020  
G01 X-2.4159 Y1.6059  
G01 X-2.4171 Y1.6102  
G01 X-2.4171 Y1.6204  
G01 X-2.6273 Y1.6204  
G01 X-2.6316 Y1.6216  
G01 X-2.6355 Y1.6238  
G01 X-2.6730 Y1.6613  
G01 X-2.6762 Y1.6645  
G01 X-2.6784 Y1.6684  
G01 X-2.6796 Y1.6727  
G01 X-2.6796 Y2.0773  
G01 X-2.6784 Y2.0816  
G01 X-2.6762 Y2.0855  
G01 X-2.6271 Y2.1346  
G01 X-2.6301 Y2.1375  
G01 X-2.6301 Y2.1625  
G01 X-2.6125 Y2.1801  
G01 X-2.5875 Y2.1801  
G01 X-2.5745 Y2.1671  
G01 X-2.4946 Y2.1671  
G01 X-2.4046 Y2.2571  
G01 X-2.4046 Y2.2648  
G01 X-2.4034 Y2.2691  
G01 X-2.4012 Y2.2730  
G01 X-2.3980 Y2.2762  
G01 X-2.3801 Y2.2941  
G01 X-2.3801 Y2.3290  
G01 X-2.3789 Y2.3348  
G01 X-2.3767 Y2.3403  
G01 X-2.3734 Y2.3452  
G01 X-2.3692 Y2.3494  
G01 X-2.3643 Y2.3527  
G01 X-2.3588 Y2.3549  
G01 X-2.3530 Y2.3561  
G01 X-2.3470 Y2.3561  
G01 X-2.3412 Y2.3549  
G01 X-2.3357 Y2.3527  
G01 X-2.3347 Y2.3520  
G01 X-2.2887 Y2.3980  
G01 X-2.2855 Y2.4012  
G01 X-2.2816 Y2.4034  
G01 X-2.2773 Y2.4046  
G01 X-2.0227 Y2.4046  
G01 X-2.0184 Y2.4034  
G01 X-2.0145 Y2.4012  
G01 X-1.9653 Y2.3520  
G01 X-1.9643 Y2.3527  
G01 X-1.9588 Y2.3549  
G01 X-1.9530 Y2.3561  
G01 X-1.9470 Y2.3561  
G01 X-1.9412 Y2.3549  
G01 X-1.9357 Y2.3527  
G01 X-1.9308 Y2.3494  
G01 X-1.9266 Y2.3452  
G01 X-1.9233 Y2.3403  
G01 X-1.9211 Y2.3348  
G01 X-1.9199 Y2.3290  
G01 X-1.9199 Y2.2710  
G01 X-1.9211 Y2.2652  
G01 X-1.9232 Y2.2599  
G01 X-1.5934 Y1.9301  
G01 X-1.5875 Y1.9301  
G01 X-1.5699 Y1.9125  
G01 X-1.5699 Y1.8875  
G01 X-1.5829 Y1.8745  
G01 X-1.5829 Y1.6977  
G01 X-1.5841 Y1.6934  
G01 X-1.5863 Y1.6895  
G01 X-1.6609 Y1.6149  
G01 X-1.6609 Y1.5838  
G01 X-1.6665 Y1.5782  
G01 X-1.5363 Y1.4480  
G01 X-1.5341 Y1.4441  
G01 X-1.5329 Y1.4398  
G01 X-1.5329 Y1.3854  
G01 X-1.5129 Y1.3654  
G01 X-1.5129 Y1.3346  
G01 X-1.5346 Y1.3129  
G01 X-1.5629 Y1.3129  
G01 X-1.6829 Y1.1929  
G01 X-1.6829 Y1.1248  
G01 X-1.6808 Y1.1234  
G01 X-1.6766 Y1.1192  
G01 X-1.6733 Y1.1143  
G01 X-1.6711 Y1.1088  
G01 X-1.6708 Y1.1075  
G01 X-1.4804 Y0.9171  
G01 X-1.1755 Y0.9171  
G01 X-1.1625 Y0.9301  
G01 X-1.1375 Y0.9301  
G01 X-1.1245 Y0.9171  
G01 X-0.9895 Y0.9171  
G01 X-0.9891 Y0.9186  
G01 X-0.9856 Y0.9253  
G01 X-0.9811 Y0.9315  
G01 X-0.9757 Y0.9369  
G01 X-0.9696 Y0.9414  
G01 X-0.9628 Y0.9448  
G01 X-0.9556 Y0.9472  
G01 X-0.9481 Y0.9483  
G01 X-0.8519 Y0.9483  
G01 X-0.8444 Y0.9472  
G01 X-0.8372 Y0.9448  
G01 X-0.8304 Y0.9414  
G01 X-0.8243 Y0.9369  
G01 X-0.8189 Y0.9315  
G01 X-0.8144 Y0.9253  
G01 X-0.8109 Y0.9186  
G01 X-0.8086 Y0.9113  
G01 X-0.8074 Y0.9038  
G01 X-0.8074 Y0.8962  
G01 X-0.8086 Y0.8887  
G01 X-0.8109 Y0.8814  
G01 X-0.8144 Y0.8747  
G01 X-0.8189 Y0.8685  
G01 X-0.8243 Y0.8631  
G01 X-0.8304 Y0.8586  
G01 X-0.8372 Y0.8552  
G01 X-0.8444 Y0.8528  
G01 X-0.8519 Y0.8516  
G01 X-0.9481 Y0.8516  
G01 X-0.9556 Y0.8528  
G01 X-0.9628 Y0.8552  
G01 X-0.9696 Y0.8586  
G01 X-0.9757 Y0.8631  
G01 X-0.9811 Y0.8685  
G01 X-0.9856 Y0.8747  
G01 X-0.9891 Y0.8814  
G01 X-0.9895 Y0.8829  
G01 X-1.1245 Y0.8829  
G01 X-1.1375 Y0.8699  
G01 X-1.1625 Y0.8699  
G01 X-1.1755 Y0.8829  
G01 X-1.4898 Y0.8829  
G01 X-1.4941 Y0.8841  
G01 X-1.4980 Y0.8863  
G01 X-1.6853 Y1.0736  
G01 X-1.6857 Y1.0733  
G01 X-1.6912 Y1.0711  
G01 X-1.6970 Y1.0699  
G01 X-1.7030 Y1.0699  
G01 X-1.7088 Y1.0711  
G01 X-1.7143 Y1.0733  
G01 X-1.7192 Y1.0766  
G01 X-1.7234 Y1.0808  
G01 X-1.7267 Y1.0857  
G01 X-1.7289 Y1.0912  
G01 X-1.7301 Y1.0970  
G01 X-1.7301 Y1.1030  
G01 X-1.7289 Y1.1088  
G01 X-1.7267 Y1.1143  
G01 X-1.7234 Y1.1192  
G01 X-1.7192 Y1.1234  
G01 X-1.7171 Y1.1248  
G01 X-1.7171 Y1.2023  
G01 X-1.7159 Y1.2066  
G01 X-1.7137 Y1.2105  
G01 X-1.5871 Y1.3371  
G01 X-1.5871 Y1.3654  
G01 X-1.5671 Y1.3854  
G01 X-1.5671 Y1.4304  
G01 X-1.6976 Y1.5609  
G01 X-1.7162 Y1.5609  
G01 X-1.7391 Y1.5838  
G01 X-1.7391 Y1.6162  
G01 X-1.7162 Y1.6391  
G01 X-1.6851 Y1.6391  
G01 X-1.6171 Y1.7071  
G01 X-1.6171 Y1.8745  
G01 X-1.6301 Y1.8875  
G01 X-1.6301 Y1.9125  
G01 X-1.6271 Y1.9154  
G01 X-1.9562 Y2.2446  
G01 X-1.9588 Y2.2451  
G01 X-1.9643 Y2.2473  
G01 X-1.9692 Y2.2506  
G01 X-1.9734 Y2.2548  
G01 X-1.9767 Y2.2597  
G01 X-1.9789 Y2.2652  
G01 X-1.9801 Y2.2710  
G01 X-1.9801 Y2.3184  
G01 X-2.0321 Y2.3704  
G01 X-2.2679 Y2.3704  
G01 X-2.3199 Y2.3184  
G01 X-2.3199 Y2.2710  
G01 X-2.3211 Y2.2652  
G01 X-2.3233 Y2.2597  
G01 X-2.3266 Y2.2548  
G01 X-2.3308 Y2.2506  
G01 X-2.3357 Y2.2473  
G01 X-2.3412 Y2.2451  
G01 X-2.3470 Y2.2439  
G01 X-2.3530 Y2.2439  
G01 X-2.3588 Y2.2451  
G01 X-2.3643 Y2.2473  
G01 X-2.3692 Y2.2506  
G01 X-2.3704 Y2.2518  
G01 X-2.3704 Y2.2477  
G01 X-2.3716 Y2.2434  
G01 X-2.3738 Y2.2395  
G01 X-2.4738 Y2.1395  
G01 X-2.4770 Y2.1363  
G01 X-2.4809 Y2.1341  
G01 X-2.4852 Y2.1329  
G01 X-2.5745 Y2.1329  
G01 X-2.5875 Y2.1199  
G01 X-2.5934 Y2.1199  
G01 X-2.6454 Y2.0679  
G01 X-2.6454 Y1.6821  
G01 X-2.6179 Y1.6546  
G01 X-2.4171 Y1.6546  
G01 X-2.4171 Y1.8245  
G01 X-2.4301 Y1.8375  
G01 X-2.4301 Y1.8625  
G01 X-2.4125 Y1.8801  
G01 X-2.3875 Y1.8801  
G01 X-2.3699 Y1.8625  
G01 X-2.3699 Y1.8375  
G01 X-2.3829 Y1.8245  
G01 X-2.3829 Y1.6196  
G01 X-2.2934 Y1.5301  
G01 X-2.2875 Y1.5301  
G01 X-2.2699 Y1.5125  
G01 X-2.2699 Y1.4875  
G01 X-2.2875 Y1.4699  
G01 X-2.3059 Y1.4699  
G01 X-2.3454 Y1.4304  
G01 X-2.3454 Y1.0821  
G01 X-2.2804 Y1.0171  
G01 X-1.9255 Y1.0171  
G01 X-1.9125 Y1.0301  
G01 X-1.8875 Y1.0301  
G01 X-1.8699 Y1.0125  
G01 X-1.8699 Y0.9875  
G01 X-1.8704 Y0.9870  
G01 X-1.8704 Y0.9852  
G01 X-1.8716 Y0.9809  
G01 X-1.8738 Y0.9770  
G01 X-1.8988 Y0.9520  
G01 X-1.9020 Y0.9488  
G01 X-1.9059 Y0.9466  
G01 X-1.9102 Y0.9454  
G01 X-1.9179 Y0.9454  
G01 X-1.9454 Y0.9179  
G01 X-1.9454 Y0.8821  
G01 X-1.1554 Y0.0921  
G01 X-0.9196 Y0.0921  
G01 X-0.8849 Y0.1268  
G01 X-0.8911 Y0.1330  
G01 X-0.8911 Y0.1670  
G01 X-0.8670 Y0.1911  
G01 X-0.8330 Y0.1911  
G01 X-0.8090 Y0.1671  
G01 X-0.7910 Y0.1671  
G01 X-0.7670 Y0.1911  
G01 X-0.7330 Y0.1911  
G01 X-0.7090 Y0.1671  
G01 X-0.6910 Y0.1671  
G01 X-0.6671 Y0.1910  
G01 X-0.6671 Y0.2090  
G01 X-0.6910 Y0.2329  
G01 X-0.7090 Y0.2329  
G01 X-0.7330 Y0.2089  
G01 X-0.7670 Y0.2089  
G01 X-0.7910 Y0.2329  
G01 X-0.8090 Y0.2329  
G01 X-0.8330 Y0.2089  
G01 X-0.8670 Y0.2089  
G01 X-0.8911 Y0.2330  
G01 X-0.8911 Y0.2670  
G01 X-0.8670 Y0.2911  
G01 X-0.8330 Y0.2911  
G01 X-0.8090 Y0.2671  
G01 X-0.7910 Y0.2671  
G01 X-0.7671 Y0.2910  
G01 X-0.7671 Y0.4554  
G01 X-0.9137 Y0.6020  
G01 X-0.9159 Y0.6059  
G01 X-0.9171 Y0.6102  
G01 X-0.9171 Y0.6146  
G01 X-0.9371 Y0.6346  
G01 X-0.9371 Y0.6654  
G01 X-0.9154 Y0.6871  
G01 X-0.8846 Y0.6871  
G01 X-0.8629 Y0.6654  
G01 X-0.8629 Y0.6346  
G01 X-0.8804 Y0.6171  
G01 X-0.7395 Y0.4762  
G01 X-0.7363 Y0.4730  
G01 X-0.7341 Y0.4691  
G01 X-0.7335 Y0.4671  
G01 X-0.3895 Y0.4671  
G01 X-0.3891 Y0.4686  
G01 X-0.3856 Y0.4753  
G01 X-0.3811 Y0.4815  
G01 X-0.3757 Y0.4869  
G01 X-0.3696 Y0.4914  
G01 X-0.3628 Y0.4948  
G01 X-0.3556 Y0.4972  
G01 X-0.3481 Y0.4983  
G01 X-0.2519 Y0.4983  
G01 X-0.2444 Y0.4972  
G01 X-0.2372 Y0.4948  
G01 X-0.2304 Y0.4914  
G01 X-0.2243 Y0.4869  
G01 X-0.2189 Y0.4815  
G01 X-0.2144 Y0.4753  
G01 X-0.2109 Y0.4686  
G01 X-0.2086 Y0.4613  
G01 X-0.2074 Y0.4538  
G01 X-0.2074 Y0.4462  
G01 X-0.2086 Y0.4387  
G01 X-0.2109 Y0.4314  
G01 X-0.2144 Y0.4247  
G01 X-0.2189 Y0.4185  
G01 X-0.2243 Y0.4131  
G01 X-0.2304 Y0.4086  
G01 X-0.2372 Y0.4052  
G01 X-0.2444 Y0.4028  
G01 X-0.2519 Y0.4016  
G01 X-0.3481 Y0.4016  
G01 X-0.3556 Y0.4028  
G01 X-0.3628 Y0.4052  
G01 X-0.3696 Y0.4086  
G01 X-0.3757 Y0.4131  
G01 X-0.3811 Y0.4185  
G01 X-0.3856 Y0.4247  
G01 X-0.3891 Y0.4314  
G01 X-0.3895 Y0.4329  
G01 X-0.7329 Y0.4329  
G01 X-0.7329 Y0.2910  
G01 X-0.7090 Y0.2671  
G01 X-0.6910 Y0.2671  
G01 X-0.6670 Y0.2911  
G01 X-0.6330 Y0.2911  
G01 X-0.6089 Y0.2670  
G01 X-0.6089 Y0.2330  
G01 X-0.6329 Y0.2090  
G01 X-0.6329 Y0.1910  
G01 X-0.6089 Y0.1670  
G01 X-0.6089 Y0.1330  
G01 X-0.6151 Y0.1268  
G01 X-0.5804 Y0.0921  
G01 X-0.2321 Y0.0921  
G01 X-0.1421 Y0.1821  
G01 X-0.1421 Y0.8804  
G01 X-0.2637 Y1.0020  
G01 X-0.2659 Y1.0059  
G01 X-0.2671 Y1.0102  
G01 X-0.2671 Y1.0834  
G01 X-0.2776 Y1.0834  
G01 X-0.3166 Y1.1224  
G01 X-0.3166 Y1.1329  
G01 X-0.3834 Y1.1329  
G01 X-0.3834 Y1.1224  
G01 X-0.4224 Y1.0834  
G01 X-0.4776 Y1.0834  
G01 X-0.5166 Y1.1224  
G01 X-0.5166 Y1.1776  
G01 X-0.4776 Y1.2166  
G01 X-0.4224 Y1.2166  
G01 X-0.3834 Y1.1776  
G01 X-0.3834 Y1.1671  
G01 X-0.3166 Y1.1671  
G01 X-0.3166 Y1.1776  
G01 X-0.2776 Y1.2166  
G01 X-0.2224 Y1.2166  
G01 X-0.2212 Y1.2154  
G01 X-0.1546 Y1.2821  
G01 X-0.1546 Y2.6929  
G01 X-0.2696 Y2.8079  
G01 X-0.4304 Y2.8079  
G01 X-0.4609 Y2.7775  
G01 X-0.4529 Y2.7695  
G01 X-0.4529 Y2.7305  
G01 X-0.4805 Y2.7029  
G01 X-0.5195 Y2.7029  
G01 X-0.5471 Y2.7305  
G01 X-0.5471 Y2.7329  
G01 X-0.9804 Y2.7329  
G01 X-1.1849 Y2.5284  
G01 X-1.1839 Y2.5274  
G01 X-1.1839 Y2.4726  
G01 X-1.2226 Y2.4339  
G01 X-1.2774 Y2.4339  
G01 X-1.2846 Y2.4412  
G01 X-1.5270 Y2.1988  
G01 X-1.5309 Y2.1966  
G01 X-1.5352 Y2.1954  
G01 X-1.6773 Y2.1954  
G01 X-1.6816 Y2.1966  
G01 X-1.6855 Y2.1988  
G01 X-1.6887 Y2.2020  
G01 X-1.7262 Y2.2395  
G01 X-1.7284 Y2.2434  
G01 X-1.7296 Y2.2477  
G01 X-1.7296 Y2.2518  
G01 X-1.7308 Y2.2506  
G01 X-1.7357 Y2.2473  
G01 X-1.7412 Y2.2451  
G01 X-1.7470 Y2.2439  
G01 X-1.7530 Y2.2439  
G01 X-1.7588 Y2.2451  
G01 X-1.7643 Y2.2473  
G01 X-1.7692 Y2.2506  
G01 X-1.7734 Y2.2548  
G01 X-1.7767 Y2.2597  
G01 X-1.7789 Y2.2652  
G01 X-1.7801 Y2.2710  
G01 X-1.7801 Y2.3290  
G01 X-1.7789 Y2.3348  
G01 X-1.7767 Y2.3403  
G01 X-1.7734 Y2.3452  
G01 X-1.7692 Y2.3494  
G01 X-1.7643 Y2.3527  
G01 X-1.7588 Y2.3549  
G01 X-1.7530 Y2.3561  
G01 X-1.7470 Y2.3561  
G01 X-1.7412 Y2.3549  
G01 X-1.7357 Y2.3527  
G01 X-1.7308 Y2.3494  
G01 X-1.7266 Y2.3452  
G01 X-1.7233 Y2.3403  
G01 X-1.7211 Y2.3348  
G01 X-1.7199 Y2.3290  
G01 X-1.7199 Y2.2941  
G01 X-1.7020 Y2.2762  
G01 X-1.6988 Y2.2730  
G01 X-1.6966 Y2.2691  
G01 X-1.6954 Y2.2648  
G01 X-1.6954 Y2.2571  
G01 X-1.6679 Y2.2296  
G01 X-1.5446 Y2.2296  
G01 X-1.3088 Y2.4654  
G01 X-1.3161 Y2.4726  
G01 X-1.3161 Y2.5274  
G01 X-1.2774 Y2.5661  
G01 X-1.2226 Y2.5661  
G01 X-1.2091 Y2.5526  
G01 X-0.9980 Y2.7637  
G01 X-0.9941 Y2.7659  
G01 X-0.9898 Y2.7671  
G01 X-0.5471 Y2.7671  
G01 X-0.5471 Y2.7695  
G01 X-0.5195 Y2.7971  
G01 X-0.4896 Y2.7971  
G01 X-0.4512 Y2.8355  
G01 X-0.4480 Y2.8387  
G01 X-0.4441 Y2.8409  
G01 X-0.4398 Y2.8421  
G01 X-0.2602 Y2.8421  
G01 X-0.2559 Y2.8409  
G01 X-0.2520 Y2.8387  
G01 X-0.1270 Y2.7137  
G01 X-0.1238 Y2.7105  
G01 X-0.1216 Y2.7066  
G01 X-0.1204 Y2.7023  
G01 X-0.1204 Y1.2727  
G01 X-0.1216 Y1.2684  
G01 X-0.1238 Y1.2645  
G01 X-0.1971 Y1.1913  
G01 X-0.1834 Y1.1776  
G01 X-0.1834 Y1.1224  
G01 X-0.2224 Y1.0834  
G01 X-0.2329 Y1.0834  
G01 X-0.2329 Y1.0196  
G01 X-0.1145 Y0.9012  
G01 X-0.1113 Y0.8980  
G01 X-0.1091 Y0.8941  
G01 X-0.1079 Y0.8898  
G01 X-0.1079 Y0.1727  
G01 X-0.1091 Y0.1684  
G01 X-0.1113 Y0.1645  
G00 Z0.1000  
G00 X-0.2089 Y0.1670  
G01 Z-0.0020 F10    
G01 X-0.2089 Y0.1330  F20    
G01 X-0.2330 Y0.1089  
G01 X-0.2670 Y0.1089  
G01 X-0.2911 Y0.1330  
G01 X-0.2911 Y0.1670  
G01 X-0.2670 Y0.1911  
G01 X-0.2330 Y0.1911  
G01 X-0.2089 Y0.1670  
G00 Z0.1000  
G00 X-0.2089 Y0.2330  
G01 Z-0.0020 F10    
G01 X-0.2330 Y0.2089  F20    
G01 X-0.2670 Y0.2089  
G01 X-0.2911 Y0.2330  
G01 X-0.2911 Y0.2670  
G01 X-0.2670 Y0.2911  
G01 X-0.2330 Y0.2911  
G01 X-0.2089 Y0.2670  
G01 X-0.2089 Y0.2330  
G00 Z0.1000  
G00 X-0.3089 Y0.2330  
G01 Z-0.0020 F10    
G01 X-0.3330 Y0.2089  F20    
G01 X-0.3670 Y0.2089  
G01 X-0.3911 Y0.2330  
G01 X-0.3911 Y0.2670  
G01 X-0.3670 Y0.2911  
G01 X-0.3330 Y0.2911  
G01 X-0.3089 Y0.2670  
G01 X-0.3089 Y0.2330  
G00 Z0.1000  
G00 X-0.3330 Y0.1911  
G01 Z-0.0020 F10    
G01 X-0.3089 Y0.1670  F20    
G01 X-0.3089 Y0.1330  
G01 X-0.3330 Y0.1089  
G01 X-0.3670 Y0.1089  
G01 X-0.3911 Y0.1330  
G01 X-0.3911 Y0.1670  
G01 X-0.3670 Y0.1911  
G01 X-0.3330 Y0.1911  
G00 Z0.1000  
G00 X-0.4330 Y0.1911  
G01 Z-0.0020 F10    
G01 X-0.4089 Y0.1670  F20    
G01 X-0.4089 Y0.1330  
G01 X-0.4330 Y0.1089  
G01 X-0.4670 Y0.1089  
G01 X-0.4911 Y0.1330  
G01 X-0.4911 Y0.1670  
G01 X-0.4670 Y0.1911  
G01 X-0.4330 Y0.1911  
G00 Z0.1000  
G00 X-0.4330 Y0.2089  
G01 Z-0.0020 F10    
G01 X-0.4670 Y0.2089  F20    
G01 X-0.4911 Y0.2330  
G01 X-0.4911 Y0.2670  
G01 X-0.4670 Y0.2911  
G01 X-0.4330 Y0.2911  
G01 X-0.4089 Y0.2670  
G01 X-0.4089 Y0.2330  
G01 X-0.4330 Y0.2089  
G00 Z0.1000  
G00 X-0.5089 Y0.2330  
G01 Z-0.0020 F10    
G01 X-0.5329 Y0.2090  F20    
G01 X-0.5329 Y0.1910  
G01 X-0.5089 Y0.1670  
G01 X-0.5089 Y0.1330  
G01 X-0.5330 Y0.1089  
G01 X-0.5670 Y0.1089  
G01 X-0.5911 Y0.1330  
G01 X-0.5911 Y0.1670  
G01 X-0.5671 Y0.1910  
G01 X-0.5671 Y0.2090  
G01 X-0.5911 Y0.2330  
G01 X-0.5911 Y0.2670  
G01 X-0.5670 Y0.2911  
G01 X-0.5456 Y0.2911  
G01 X-0.4980 Y0.3387  
G01 X-0.4941 Y0.3409  
G01 X-0.4898 Y0.3421  
G01 X-0.2696 Y0.3421  
G01 X-0.1921 Y0.4196  
G01 X-0.1921 Y0.4804  
G01 X-0.3137 Y0.6020  
G01 X-0.3159 Y0.6059  
G01 X-0.3171 Y0.6102  
G01 X-0.3171 Y0.8516  
G01 X-0.3481 Y0.8516  
G01 X-0.3556 Y0.8528  
G01 X-0.3628 Y0.8552  
G01 X-0.3696 Y0.8586  
G01 X-0.3757 Y0.8631  
G01 X-0.3811 Y0.8685  
G01 X-0.3856 Y0.8747  
G01 X-0.3891 Y0.8814  
G01 X-0.3914 Y0.8887  
G01 X-0.3926 Y0.8962  
G01 X-0.3926 Y0.9038  
G01 X-0.3914 Y0.9113  
G01 X-0.3891 Y0.9186  
G01 X-0.3861 Y0.9244  
G01 X-0.5980 Y1.1363  
G01 X-0.6012 Y1.1395  
G01 X-0.6034 Y1.1434  
G01 X-0.6046 Y1.1477  
G01 X-0.6046 Y1.3929  
G01 X-0.8105 Y1.5988  
G01 X-0.8137 Y1.6020  
G01 X-0.8159 Y1.6059  
G01 X-0.8171 Y1.6102  
G01 X-0.8171 Y1.6304  
G01 X-0.8696 Y1.6829  
G01 X-1.2329 Y1.6829  
G01 X-1.2329 Y1.6638  
G01 X-1.2287 Y1.6627  
G01 X-1.2207 Y1.6594  
G01 X-1.2132 Y1.6551  
G01 X-1.2063 Y1.6498  
G01 X-1.2002 Y1.6437  
G01 X-1.1949 Y1.6368  
G01 X-1.1906 Y1.6293  
G01 X-1.1873 Y1.6213  
G01 X-1.1850 Y1.6129  
G01 X-1.1839 Y1.6043  
G01 X-1.1839 Y1.5957  
G01 X-1.1850 Y1.5871  
G01 X-1.1873 Y1.5787  
G01 X-1.1906 Y1.5707  
G01 X-1.1949 Y1.5632  
G01 X-1.2002 Y1.5563  
G01 X-1.2063 Y1.5502  
G01 X-1.2132 Y1.5449  
G01 X-1.2207 Y1.5406  
G01 X-1.2287 Y1.5373  
G01 X-1.2371 Y1.5350  
G01 X-1.2457 Y1.5339  
G01 X-1.2543 Y1.5339  
G01 X-1.2629 Y1.5350  
G01 X-1.2713 Y1.5373  
G01 X-1.2793 Y1.5406  
G01 X-1.2831 Y1.5428  
G01 X-1.3829 Y1.4429  
G01 X-1.3829 Y1.1248  
G01 X-1.3808 Y1.1234  
G01 X-1.3766 Y1.1192  
G01 X-1.3733 Y1.1143  
G01 X-1.3711 Y1.1088  
G01 X-1.3699 Y1.1030  
G01 X-1.3699 Y1.0970  
G01 X-1.3704 Y1.0946  
G01 X-1.2929 Y1.0171  
G01 X-1.1755 Y1.0171  
G01 X-1.1625 Y1.0301  
G01 X-1.1375 Y1.0301  
G01 X-1.1199 Y1.0125  
G01 X-1.1199 Y0.9875  
G01 X-1.1375 Y0.9699  
G01 X-1.1625 Y0.9699  
G01 X-1.1755 Y0.9829  
G01 X-1.3023 Y0.9829  
G01 X-1.3066 Y0.9841  
G01 X-1.3105 Y0.9863  
G01 X-1.3946 Y1.0704  
G01 X-1.3970 Y1.0699  
G01 X-1.4030 Y1.0699  
G01 X-1.4088 Y1.0711  
G01 X-1.4143 Y1.0733  
G01 X-1.4192 Y1.0766  
G01 X-1.4234 Y1.0808  
G01 X-1.4267 Y1.0857  
G01 X-1.4289 Y1.0912  
G01 X-1.4301 Y1.0970  
G01 X-1.4301 Y1.1030  
G01 X-1.4289 Y1.1088  
G01 X-1.4267 Y1.1143  
G01 X-1.4234 Y1.1192  
G01 X-1.4192 Y1.1234  
G01 X-1.4171 Y1.1248  
G01 X-1.4171 Y1.4523  
G01 X-1.4159 Y1.4566  
G01 X-1.4137 Y1.4605  
G01 X-1.3072 Y1.5669  
G01 X-1.3094 Y1.5707  
G01 X-1.3127 Y1.5787  
G01 X-1.3150 Y1.5871  
G01 X-1.3161 Y1.5957  
G01 X-1.3161 Y1.6043  
G01 X-1.3150 Y1.6129  
G01 X-1.3127 Y1.6213  
G01 X-1.3094 Y1.6293  
G01 X-1.3051 Y1.6368  
G01 X-1.2998 Y1.6437  
G01 X-1.2937 Y1.6498  
G01 X-1.2868 Y1.6551  
G01 X-1.2793 Y1.6594  
G01 X-1.2713 Y1.6627  
G01 X-1.2671 Y1.6638  
G01 X-1.2671 Y1.7304  
G01 X-1.6066 Y2.0699  
G01 X-1.6125 Y2.0699  
G01 X-1.6255 Y2.0829  
G01 X-1.6648 Y2.0829  
G01 X-1.6691 Y2.0841  
G01 X-1.6730 Y2.0863  
G01 X-1.8347 Y2.2480  
G01 X-1.8357 Y2.2473  
G01 X-1.8412 Y2.2451  
G01 X-1.8470 Y2.2439  
G01 X-1.8530 Y2.2439  
G01 X-1.8588 Y2.2451  
G01 X-1.8643 Y2.2473  
G01 X-1.8692 Y2.2506  
G01 X-1.8734 Y2.2548  
G01 X-1.8767 Y2.2597  
G01 X-1.8789 Y2.2652  
G01 X-1.8801 Y2.2710  
G01 X-1.8801 Y2.3184  
G01 X-1.9292 Y2.3676  
G01 X-1.9324 Y2.3708  
G01 X-1.9821 Y2.4204  
G01 X-2.3179 Y2.4204  
G01 X-2.3954 Y2.3429  
G01 X-2.3954 Y2.3352  
G01 X-2.3966 Y2.3309  
G01 X-2.3988 Y2.3270  
G01 X-2.4020 Y2.3238  
G01 X-2.4199 Y2.3059  
G01 X-2.4199 Y2.2710  
G01 X-2.4211 Y2.2652  
G01 X-2.4233 Y2.2597  
G01 X-2.4266 Y2.2548  
G01 X-2.4308 Y2.2506  
G01 X-2.4357 Y2.2473  
G01 X-2.4412 Y2.2451  
G01 X-2.4470 Y2.2439  
G01 X-2.4530 Y2.2439  
G01 X-2.4588 Y2.2451  
G01 X-2.4643 Y2.2473  
G01 X-2.4692 Y2.2506  
G01 X-2.4734 Y2.2548  
G01 X-2.4767 Y2.2597  
G01 X-2.4789 Y2.2652  
G01 X-2.4801 Y2.2710  
G01 X-2.4801 Y2.3290  
G01 X-2.4789 Y2.3348  
G01 X-2.4767 Y2.3403  
G01 X-2.4734 Y2.3452  
G01 X-2.4692 Y2.3494  
G01 X-2.4643 Y2.3527  
G01 X-2.4588 Y2.3549  
G01 X-2.4530 Y2.3561  
G01 X-2.4470 Y2.3561  
G01 X-2.4412 Y2.3549  
G01 X-2.4357 Y2.3527  
G01 X-2.4308 Y2.3494  
G01 X-2.4296 Y2.3482  
G01 X-2.4296 Y2.3523  
G01 X-2.4284 Y2.3566  
G01 X-2.4262 Y2.3605  
G01 X-2.3387 Y2.4480  
G01 X-2.3355 Y2.4512  
G01 X-2.3316 Y2.4534  
G01 X-2.3273 Y2.4546  
G01 X-1.9727 Y2.4546  
G01 X-1.9684 Y2.4534  
G01 X-1.9645 Y2.4512  
G01 X-1.9172 Y2.4039  
G01 X-1.9148 Y2.4046  
G01 X-1.6696 Y2.4046  
G01 X-1.0804 Y2.9937  
G01 X-1.1321 Y3.0454  
G01 X-1.3212 Y3.0454  
G01 X-1.3059 Y3.0301  
G01 X-1.2875 Y3.0301  
G01 X-1.2699 Y3.0125  
G01 X-1.2699 Y2.9875  
G01 X-1.2875 Y2.9699  
G01 X-1.3125 Y2.9699  
G01 X-1.3301 Y2.9875  
G01 X-1.3301 Y3.0059  
G01 X-1.3667 Y3.0426  
G01 X-1.3696 Y3.0454  
G01 X-1.4804 Y3.0454  
G01 X-1.5199 Y3.0059  
G01 X-1.5199 Y2.9875  
G01 X-1.5375 Y2.9699  
G01 X-1.5625 Y2.9699  
G01 X-1.5801 Y2.9875  
G01 X-1.5801 Y2.9934  
G01 X-1.6321 Y3.0454  
G01 X-1.8212 Y3.0454  
G01 X-1.8059 Y3.0301  
G01 X-1.7875 Y3.0301  
G01 X-1.7699 Y3.0125  
G01 X-1.7699 Y2.9875  
G01 X-1.7875 Y2.9699  
G01 X-1.8125 Y2.9699  
G01 X-1.8301 Y2.9875  
G01 X-1.8301 Y3.0059  
G01 X-1.8667 Y3.0426  
G01 X-1.8696 Y3.0454  
G01 X-1.9804 Y3.0454  
G01 X-2.0199 Y3.0059  
G01 X-2.0199 Y2.9875  
G01 X-2.0375 Y2.9699  
G01 X-2.0625 Y2.9699  
G01 X-2.0801 Y2.9875  
G01 X-2.0801 Y2.9934  
G01 X-2.1321 Y3.0454  
G01 X-2.3212 Y3.0454  
G01 X-2.3059 Y3.0301  
G01 X-2.2875 Y3.0301  
G01 X-2.2699 Y3.0125  
G01 X-2.2699 Y2.9875  
G01 X-2.2875 Y2.9699  
G01 X-2.3125 Y2.9699  
G01 X-2.3301 Y2.9875  
G01 X-2.3301 Y3.0059  
G01 X-2.3667 Y3.0426  
G01 X-2.3696 Y3.0454  
G01 X-2.4804 Y3.0454  
G01 X-2.5199 Y3.0059  
G01 X-2.5199 Y2.9875  
G01 X-2.5375 Y2.9699  
G01 X-2.5625 Y2.9699  
G01 X-2.5801 Y2.9875  
G01 X-2.5801 Y3.0125  
G01 X-2.5625 Y3.0301  
G01 X-2.5441 Y3.0301  
G01 X-2.5288 Y3.0454  
G01 X-2.6679 Y3.0454  
G01 X-2.7270 Y2.9863  
G01 X-2.7309 Y2.9841  
G01 X-2.7352 Y2.9829  
G01 X-2.7745 Y2.9829  
G01 X-2.7875 Y2.9699  
G01 X-2.8125 Y2.9699  
G01 X-2.8301 Y2.9875  
G01 X-2.8301 Y3.0059  
G01 X-2.8696 Y3.0454  
G01 X-2.9804 Y3.0454  
G01 X-3.0199 Y3.0059  
G01 X-3.0199 Y2.9875  
G01 X-3.0375 Y2.9699  
G01 X-3.0625 Y2.9699  
G01 X-3.0801 Y2.9875  
G01 X-3.0801 Y3.0125  
G01 X-3.0625 Y3.0301  
G01 X-3.0441 Y3.0301  
G01 X-2.9980 Y3.0762  
G01 X-2.9941 Y3.0784  
G01 X-2.9898 Y3.0796  
G01 X-2.8602 Y3.0796  
G01 X-2.8559 Y3.0784  
G01 X-2.8520 Y3.0762  
G01 X-2.8488 Y3.0730  
G01 X-2.8059 Y3.0301  
G01 X-2.7875 Y3.0301  
G01 X-2.7745 Y3.0171  
G01 X-2.7446 Y3.0171  
G01 X-2.6887 Y3.0730  
G01 X-2.6855 Y3.0762  
G01 X-2.6816 Y3.0784  
G01 X-2.6773 Y3.0796  
G01 X-2.3602 Y3.0796  
G01 X-2.3563 Y3.0785  
G01 X-2.3523 Y3.0796  
G01 X-2.1227 Y3.0796  
G01 X-2.1184 Y3.0784  
G01 X-2.1145 Y3.0762  
G01 X-2.1113 Y3.0730  
G01 X-2.0654 Y3.0271  
G01 X-2.0625 Y3.0301  
G01 X-2.0441 Y3.0301  
G01 X-1.9980 Y3.0762  
G01 X-1.9941 Y3.0784  
G01 X-1.9898 Y3.0796  
G01 X-1.8602 Y3.0796  
G01 X-1.8562 Y3.0785  
G01 X-1.8523 Y3.0796  
G01 X-1.6227 Y3.0796  
G01 X-1.6184 Y3.0784  
G01 X-1.6145 Y3.0762  
G01 X-1.6113 Y3.0730  
G01 X-1.5654 Y3.0271  
G01 X-1.5625 Y3.0301  
G01 X-1.5441 Y3.0301  
G01 X-1.4980 Y3.0762  
G01 X-1.4941 Y3.0784  
G01 X-1.4898 Y3.0796  
G01 X-1.3602 Y3.0796  
G01 X-1.3562 Y3.0785  
G01 X-1.3523 Y3.0796  
G01 X-1.1227 Y3.0796  
G01 X-1.1184 Y3.0784  
G01 X-1.1145 Y3.0762  
G01 X-1.1113 Y3.0730  
G01 X-1.0654 Y3.0271  
G01 X-1.0625 Y3.0301  
G01 X-1.0441 Y3.0301  
G01 X-0.9980 Y3.0762  
G01 X-0.9941 Y3.0784  
G01 X-0.9898 Y3.0796  
G01 X-0.8602 Y3.0796  
G01 X-0.8559 Y3.0784  
G01 X-0.8520 Y3.0762  
G01 X-0.8488 Y3.0730  
G01 X-0.8059 Y3.0301  
G01 X-0.7875 Y3.0301  
G01 X-0.7699 Y3.0125  
G01 X-0.7699 Y2.9875  
G01 X-0.7875 Y2.9699  
G01 X-0.8125 Y2.9699  
G01 X-0.8301 Y2.9875  
G01 X-0.8301 Y3.0059  
G01 X-0.8696 Y3.0454  
G01 X-0.9804 Y3.0454  
G01 X-1.0199 Y3.0059  
G01 X-1.0199 Y2.9875  
G01 X-1.0375 Y2.9699  
G01 X-1.0559 Y2.9699  
G01 X-1.6488 Y2.3770  
G01 X-1.6520 Y2.3738  
G01 X-1.6559 Y2.3716  
G01 X-1.6602 Y2.3704  
G01 X-1.8837 Y2.3704  
G01 X-1.8653 Y2.3520  
G01 X-1.8643 Y2.3527  
G01 X-1.8588 Y2.3549  
G01 X-1.8530 Y2.3561  
G01 X-1.8470 Y2.3561  
G01 X-1.8412 Y2.3549  
G01 X-1.8357 Y2.3527  
G01 X-1.8308 Y2.3494  
G01 X-1.8266 Y2.3452  
G01 X-1.8233 Y2.3403  
G01 X-1.8211 Y2.3348  
G01 X-1.8199 Y2.3290  
G01 X-1.8199 Y2.2816  
G01 X-1.6554 Y2.1171  
G01 X-1.6255 Y2.1171  
G01 X-1.6125 Y2.1301  
G01 X-1.5875 Y2.1301  
G01 X-1.5699 Y2.1125  
G01 X-1.5699 Y2.0875  
G01 X-1.5729 Y2.0846  
G01 X-1.2363 Y1.7480  
G01 X-1.2341 Y1.7441  
G01 X-1.2329 Y1.7398  
G01 X-1.2329 Y1.7171  
G01 X-0.8602 Y1.7171  
G01 X-0.8559 Y1.7159  
G01 X-0.8520 Y1.7137  
G01 X-0.8488 Y1.7105  
G01 X-0.7863 Y1.6480  
G01 X-0.7841 Y1.6441  
G01 X-0.7829 Y1.6398  
G01 X-0.7829 Y1.6196  
G01 X-0.5738 Y1.4105  
G01 X-0.5716 Y1.4066  
G01 X-0.5704 Y1.4023  
G01 X-0.5704 Y1.1571  
G01 X-0.3593 Y0.9460  
G01 X-0.3556 Y0.9472  
G01 X-0.3481 Y0.9483  
G01 X-0.2519 Y0.9483  
G01 X-0.2444 Y0.9472  
G01 X-0.2372 Y0.9448  
G01 X-0.2304 Y0.9414  
G01 X-0.2243 Y0.9369  
G01 X-0.2189 Y0.9315  
G01 X-0.2144 Y0.9253  
G01 X-0.2109 Y0.9186  
G01 X-0.2086 Y0.9113  
G01 X-0.2074 Y0.9038  
G01 X-0.2074 Y0.8962  
G01 X-0.2086 Y0.8887  
G01 X-0.2109 Y0.8814  
G01 X-0.2144 Y0.8747  
G01 X-0.2189 Y0.8685  
G01 X-0.2243 Y0.8631  
G01 X-0.2304 Y0.8586  
G01 X-0.2372 Y0.8552  
G01 X-0.2444 Y0.8528  
G01 X-0.2519 Y0.8516  
G01 X-0.2829 Y0.8516  
G01 X-0.2829 Y0.6196  
G01 X-0.1613 Y0.4980  
G01 X-0.1591 Y0.4941  
G01 X-0.1579 Y0.4898  
G01 X-0.1579 Y0.4102  
G01 X-0.1591 Y0.4059  
G01 X-0.1613 Y0.4020  
G01 X-0.2488 Y0.3145  
G01 X-0.2520 Y0.3113  
G01 X-0.2559 Y0.3091  
G01 X-0.2602 Y0.3079  
G01 X-0.4804 Y0.3079  
G01 X-0.5151 Y0.2732  
G01 X-0.5089 Y0.2670  
G01 X-0.5089 Y0.2330  
G00 Z0.1000  
G00 X-0.9089 Y0.2330  
G01 Z-0.0020 F10    
G01 X-0.9329 Y0.2090  F20    
G01 X-0.9329 Y0.1910  
G01 X-0.9089 Y0.1670  
G01 X-0.9089 Y0.1330  
G01 X-0.9330 Y0.1089  
G01 X-0.9670 Y0.1089  
G01 X-0.9911 Y0.1330  
G01 X-0.9911 Y0.1670  
G01 X-0.9671 Y0.1910  
G01 X-0.9671 Y0.2090  
G01 X-0.9911 Y0.2330  
G01 X-0.9911 Y0.2670  
G01 X-0.9670 Y0.2911  
G01 X-0.9456 Y0.2911  
G01 X-0.9171 Y0.3196  
G01 X-0.9171 Y0.4016  
G01 X-0.9481 Y0.4016  
G01 X-0.9556 Y0.4028  
G01 X-0.9628 Y0.4052  
G01 X-0.9696 Y0.4086  
G01 X-0.9757 Y0.4131  
G01 X-0.9811 Y0.4185  
G01 X-0.9856 Y0.4247  
G01 X-0.9891 Y0.4314  
G01 X-0.9895 Y0.4329  
G01 X-1.3398 Y0.4329  
G01 X-1.3441 Y0.4341  
G01 X-1.3480 Y0.4363  
G01 X-1.3512 Y0.4395  
G01 X-1.6853 Y0.7736  
G01 X-1.6857 Y0.7733  
G01 X-1.6912 Y0.7711  
G01 X-1.6970 Y0.7699  
G01 X-1.7030 Y0.7699  
G01 X-1.7088 Y0.7711  
G01 X-1.7143 Y0.7733  
G01 X-1.7192 Y0.7766  
G01 X-1.7234 Y0.7808  
G01 X-1.7248 Y0.7829  
G01 X-1.8023 Y0.7829  
G01 X-1.8066 Y0.7841  
G01 X-1.8105 Y0.7863  
G01 X-1.8941 Y0.8699  
G01 X-1.9125 Y0.8699  
G01 X-1.9301 Y0.8875  
G01 X-1.9301 Y0.9125  
G01 X-1.9125 Y0.9301  
G01 X-1.8875 Y0.9301  
G01 X-1.8699 Y0.9125  
G01 X-1.8699 Y0.8941  
G01 X-1.7929 Y0.8171  
G01 X-1.7248 Y0.8171  
G01 X-1.7234 Y0.8192  
G01 X-1.7192 Y0.8234  
G01 X-1.7143 Y0.8267  
G01 X-1.7088 Y0.8289  
G01 X-1.7030 Y0.8301  
G01 X-1.6970 Y0.8301  
G01 X-1.6912 Y0.8289  
G01 X-1.6857 Y0.8267  
G01 X-1.6808 Y0.8234  
G01 X-1.6766 Y0.8192  
G01 X-1.6733 Y0.8143  
G01 X-1.6711 Y0.8088  
G01 X-1.6708 Y0.8075  
G01 X-1.3304 Y0.4671  
G01 X-0.9895 Y0.4671  
G01 X-0.9891 Y0.4686  
G01 X-0.9856 Y0.4753  
G01 X-0.9811 Y0.4815  
G01 X-0.9757 Y0.4869  
G01 X-0.9696 Y0.4914  
G01 X-0.9628 Y0.4948  
G01 X-0.9556 Y0.4972  
G01 X-0.9481 Y0.4983  
G01 X-0.8519 Y0.4983  
G01 X-0.8444 Y0.4972  
G01 X-0.8372 Y0.4948  
G01 X-0.8304 Y0.4914  
G01 X-0.8243 Y0.4869  
G01 X-0.8189 Y0.4815  
G01 X-0.8144 Y0.4753  
G01 X-0.8109 Y0.4686  
G01 X-0.8086 Y0.4613  
G01 X-0.8074 Y0.4538  
G01 X-0.8074 Y0.4462  
G01 X-0.8086 Y0.4387  
G01 X-0.8109 Y0.4314  
G01 X-0.8144 Y0.4247  
G01 X-0.8189 Y0.4185  
G01 X-0.8243 Y0.4131  
G01 X-0.8304 Y0.4086  
G01 X-0.8372 Y0.4052  
G01 X-0.8444 Y0.4028  
G01 X-0.8519 Y0.4016  
G01 X-0.8829 Y0.4016  
G01 X-0.8829 Y0.3102  
G01 X-0.8841 Y0.3059  
G01 X-0.8863 Y0.3020  
G01 X-0.9151 Y0.2732  
G01 X-0.9089 Y0.2670  
G01 X-0.9089 Y0.2330  
G00 Z0.1000  
G00 X-0.8352 Y0.7829  
G01 Z-0.0020 F10    
G01 X-1.3752 Y0.7829  F20    
G01 X-1.3766 Y0.7808  
G01 X-1.3808 Y0.7766  
G01 X-1.3857 Y0.7733  
G01 X-1.3912 Y0.7711  
G01 X-1.3970 Y0.7699  
G01 X-1.4030 Y0.7699  
G01 X-1.4088 Y0.7711  
G01 X-1.4143 Y0.7733  
G01 X-1.4192 Y0.7766  
G01 X-1.4234 Y0.7808  
G01 X-1.4248 Y0.7829  
G01 X-1.4752 Y0.7829  
G01 X-1.4766 Y0.7808  
G01 X-1.4808 Y0.7766  
G01 X-1.4857 Y0.7733  
G01 X-1.4912 Y0.7711  
G01 X-1.4970 Y0.7699  
G01 X-1.5030 Y0.7699  
G01 X-1.5088 Y0.7711  
G01 X-1.5143 Y0.7733  
G01 X-1.5192 Y0.7766  
G01 X-1.5234 Y0.7808  
G01 X-1.5267 Y0.7857  
G01 X-1.5289 Y0.7912  
G01 X-1.5292 Y0.7925  
G01 X-2.2125 Y1.4758  
G01 X-2.2829 Y1.4054  
G01 X-2.2829 Y1.1255  
G01 X-2.2699 Y1.1125  
G01 X-2.2699 Y1.0875  
G01 X-2.2875 Y1.0699  
G01 X-2.3125 Y1.0699  
G01 X-2.3301 Y1.0875  
G01 X-2.3301 Y1.1125  
G01 X-2.3171 Y1.1255  
G01 X-2.3171 Y1.4148  
G01 X-2.3159 Y1.4191  
G01 X-2.3137 Y1.4230  
G01 X-2.2262 Y1.5105  
G01 X-2.2230 Y1.5137  
G01 X-2.2171 Y1.5196  
G01 X-2.2171 Y1.6745  
G01 X-2.2301 Y1.6875  
G01 X-2.2301 Y1.7125  
G01 X-2.2125 Y1.7301  
G01 X-2.1875 Y1.7301  
G01 X-2.1699 Y1.7125  
G01 X-2.1699 Y1.6875  
G01 X-2.1829 Y1.6745  
G01 X-2.1829 Y1.5102  
G01 X-2.1841 Y1.5059  
G01 X-2.1863 Y1.5020  
G01 X-2.1883 Y1.5000  
G01 X-1.5147 Y0.8264  
G01 X-1.5143 Y0.8267  
G01 X-1.5088 Y0.8289  
G01 X-1.5030 Y0.8301  
G01 X-1.4970 Y0.8301  
G01 X-1.4912 Y0.8289  
G01 X-1.4857 Y0.8267  
G01 X-1.4808 Y0.8234  
G01 X-1.4766 Y0.8192  
G01 X-1.4752 Y0.8171  
G01 X-1.4248 Y0.8171  
G01 X-1.4234 Y0.8192  
G01 X-1.4192 Y0.8234  
G01 X-1.4143 Y0.8267  
G01 X-1.4088 Y0.8289  
G01 X-1.4030 Y0.8301  
G01 X-1.3970 Y0.8301  
G01 X-1.3912 Y0.8289  
G01 X-1.3857 Y0.8267  
G01 X-1.3808 Y0.8234  
G01 X-1.3766 Y0.8192  
G01 X-1.3752 Y0.8171  
G01 X-0.8446 Y0.8171  
G01 X-0.7921 Y0.8696  
G01 X-0.7921 Y0.9304  
G01 X-0.9137 Y1.0520  
G01 X-0.9159 Y1.0559  
G01 X-0.9171 Y1.0602  
G01 X-0.9171 Y1.5362  
G01 X-0.9213 Y1.5373  
G01 X-0.9293 Y1.5406  
G01 X-0.9368 Y1.5449  
G01 X-0.9437 Y1.5502  
G01 X-0.9498 Y1.5563  
G01 X-0.9551 Y1.5632  
G01 X-0.9594 Y1.5707  
G01 X-0.9627 Y1.5787  
G01 X-0.9650 Y1.5871  
G01 X-0.9661 Y1.5957  
G01 X-0.9661 Y1.6043  
G01 X-0.9650 Y1.6129  
G01 X-0.9627 Y1.6213  
G01 X-0.9594 Y1.6293  
G01 X-0.9551 Y1.6368  
G01 X-0.9498 Y1.6437  
G01 X-0.9437 Y1.6498  
G01 X-0.9368 Y1.6551  
G01 X-0.9293 Y1.6594  
G01 X-0.9213 Y1.6627  
G01 X-0.9129 Y1.6650  
G01 X-0.9043 Y1.6661  
G01 X-0.8957 Y1.6661  
G01 X-0.8871 Y1.6650  
G01 X-0.8787 Y1.6627  
G01 X-0.8707 Y1.6594  
G01 X-0.8632 Y1.6551  
G01 X-0.8563 Y1.6498  
G01 X-0.8502 Y1.6437  
G01 X-0.8449 Y1.6368  
G01 X-0.8406 Y1.6293  
G01 X-0.8373 Y1.6213  
G01 X-0.8350 Y1.6129  
G01 X-0.8339 Y1.6043  
G01 X-0.8339 Y1.5957  
G01 X-0.8350 Y1.5871  
G01 X-0.8373 Y1.5787  
G01 X-0.8406 Y1.5707  
G01 X-0.8449 Y1.5632  
G01 X-0.8502 Y1.5563  
G01 X-0.8563 Y1.5502  
G01 X-0.8632 Y1.5449  
G01 X-0.8707 Y1.5406  
G01 X-0.8787 Y1.5373  
G01 X-0.8829 Y1.5362  
G01 X-0.8829 Y1.0696  
G01 X-0.7645 Y0.9512  
G01 X-0.7613 Y0.9480  
G01 X-0.7591 Y0.9441  
G01 X-0.7579 Y0.9398  
G01 X-0.7579 Y0.8602  
G01 X-0.7591 Y0.8559  
G01 X-0.7613 Y0.8520  
G01 X-0.8238 Y0.7895  
G01 X-0.8270 Y0.7863  
G01 X-0.8309 Y0.7841  
G01 X-0.8352 Y0.7829  
G00 Z0.1000  
G00 X-0.6727 Y0.7421  
G01 Z-0.0020 F10    
G01 X-0.6684 Y0.7409  F20    
G01 X-0.6671 Y0.7402  
G01 X-0.6671 Y1.1245  
G01 X-0.6801 Y1.1375  
G01 X-0.6801 Y1.1625  
G01 X-0.6625 Y1.1801  
G01 X-0.6375 Y1.1801  
G01 X-0.6199 Y1.1625  
G01 X-0.6199 Y1.1375  
G01 X-0.6329 Y1.1245  
G01 X-0.6329 Y0.7102  
G01 X-0.6336 Y0.7078  
G01 X-0.6129 Y0.6871  
G01 X-0.5846 Y0.6871  
G01 X-0.5629 Y0.6654  
G01 X-0.5629 Y0.6346  
G01 X-0.5846 Y0.6129  
G01 X-0.6154 Y0.6129  
G01 X-0.6371 Y0.6346  
G01 X-0.6371 Y0.6629  
G01 X-0.6667 Y0.6926  
G01 X-0.6699 Y0.6958  
G01 X-0.6821 Y0.7079  
G01 X-1.5273 Y0.7079  
G01 X-1.5316 Y0.7091  
G01 X-1.5355 Y0.7113  
G01 X-1.5387 Y0.7145  
G01 X-1.5946 Y0.7704  
G01 X-1.5970 Y0.7699  
G01 X-1.6030 Y0.7699  
G01 X-1.6088 Y0.7711  
G01 X-1.6143 Y0.7733  
G01 X-1.6192 Y0.7766  
G01 X-1.6234 Y0.7808  
G01 X-1.6267 Y0.7857  
G01 X-1.6289 Y0.7912  
G01 X-1.6301 Y0.7970  
G01 X-1.6301 Y0.8030  
G01 X-1.6289 Y0.8088  
G01 X-1.6267 Y0.8143  
G01 X-1.6234 Y0.8192  
G01 X-1.6192 Y0.8234  
G01 X-1.6143 Y0.8267  
G01 X-1.6088 Y0.8289  
G01 X-1.6030 Y0.8301  
G01 X-1.5970 Y0.8301  
G01 X-1.5912 Y0.8289  
G01 X-1.5857 Y0.8267  
G01 X-1.5808 Y0.8234  
G01 X-1.5766 Y0.8192  
G01 X-1.5733 Y0.8143  
G01 X-1.5711 Y0.8088  
G01 X-1.5699 Y0.8030  
G01 X-1.5699 Y0.7970  
G01 X-1.5704 Y0.7946  
G01 X-1.5179 Y0.7421  
G01 X-0.6727 Y0.7421  
G00 Z0.1000  
G00 X-0.6625 Y1.5199  
G01 Z-0.0020 F10    
G01 X-0.6801 Y1.5375  F20    
G01 X-0.6801 Y1.5625  
G01 X-0.6671 Y1.5755  
G01 X-0.6671 Y1.7554  
G01 X-0.6730 Y1.7613  
G01 X-0.6762 Y1.7645  
G01 X-0.6784 Y1.7684  
G01 X-0.6796 Y1.7727  
G01 X-0.6796 Y2.0523  
G01 X-0.6784 Y2.0566  
G01 X-0.6762 Y2.0605  
G01 X-0.4921 Y2.2446  
G01 X-0.4921 Y2.6648  
G01 X-0.4909 Y2.6691  
G01 X-0.4887 Y2.6730  
G01 X-0.4391 Y2.7225  
G01 X-0.4471 Y2.7305  
G01 X-0.4471 Y2.7695  
G01 X-0.4195 Y2.7971  
G01 X-0.3805 Y2.7971  
G01 X-0.3529 Y2.7695  
G01 X-0.3529 Y2.7305  
G01 X-0.3805 Y2.7029  
G01 X-0.4104 Y2.7029  
G01 X-0.4579 Y2.6554  
G01 X-0.4579 Y2.2352  
G01 X-0.4591 Y2.2309  
G01 X-0.4613 Y2.2270  
G01 X-0.4645 Y2.2238  
G01 X-0.6454 Y2.0429  
G01 X-0.6454 Y1.7821  
G01 X-0.6363 Y1.7730  
G01 X-0.6341 Y1.7691  
G01 X-0.6329 Y1.7648  
G01 X-0.6329 Y1.5755  
G01 X-0.6199 Y1.5625  
G01 X-0.6199 Y1.5375  
G01 X-0.6375 Y1.5199  
G01 X-0.6625 Y1.5199  
G00 Z0.1000  
G00 X-0.6137 Y1.5895  
G01 Z-0.0020 F10    
G01 X-0.6159 Y1.5934  F20    
G01 X-0.6171 Y1.5977  
G01 X-0.6171 Y1.7745  
G01 X-0.6301 Y1.7875  
G01 X-0.6301 Y1.8125  
G01 X-0.6125 Y1.8301  
G01 X-0.5875 Y1.8301  
G01 X-0.5699 Y1.8125  
G01 X-0.5699 Y1.7875  
G01 X-0.5829 Y1.7745  
G01 X-0.5829 Y1.6071  
G01 X-0.4850 Y1.5092  
G01 X-0.4776 Y1.5166  
G01 X-0.4224 Y1.5166  
G01 X-0.3834 Y1.4776  
G01 X-0.3834 Y1.4224  
G01 X-0.4224 Y1.3834  
G01 X-0.4776 Y1.3834  
G01 X-0.5166 Y1.4224  
G01 X-0.5166 Y1.4776  
G01 X-0.5092 Y1.4850  
G01 X-0.6137 Y1.5895  
G00 Z0.1000  
G00 X-0.4137 Y1.5895  
G01 Z-0.0020 F10    
G01 X-0.4159 Y1.5934  F20    
G01 X-0.4171 Y1.5977  
G01 X-0.4171 Y1.6566  
G01 X-0.4179 Y1.6568  
G01 X-0.4244 Y1.6601  
G01 X-0.4304 Y1.6645  
G01 X-0.4355 Y1.6696  
G01 X-0.4399 Y1.6756  
G01 X-0.4432 Y1.6821  
G01 X-0.4455 Y1.6891  
G01 X-0.4466 Y1.6963  
G01 X-0.4466 Y1.7037  
G01 X-0.4455 Y1.7109  
G01 X-0.4432 Y1.7179  
G01 X-0.4399 Y1.7244  
G01 X-0.4355 Y1.7304  
G01 X-0.4304 Y1.7355  
G01 X-0.4244 Y1.7399  
G01 X-0.4179 Y1.7432  
G01 X-0.4109 Y1.7455  
G01 X-0.4037 Y1.7466  
G01 X-0.3963 Y1.7466  
G01 X-0.3891 Y1.7455  
G01 X-0.3821 Y1.7432  
G01 X-0.3756 Y1.7399  
G01 X-0.3696 Y1.7355  
G01 X-0.3645 Y1.7304  
G01 X-0.3601 Y1.7244  
G01 X-0.3568 Y1.7179  
G01 X-0.3545 Y1.7109  
G01 X-0.3534 Y1.7037  
G01 X-0.3534 Y1.6963  
G01 X-0.3545 Y1.6891  
G01 X-0.3568 Y1.6821  
G01 X-0.3601 Y1.6756  
G01 X-0.3645 Y1.6696  
G01 X-0.3696 Y1.6645  
G01 X-0.3756 Y1.6601  
G01 X-0.3821 Y1.6568  
G01 X-0.3829 Y1.6566  
G01 X-0.3829 Y1.6071  
G01 X-0.2850 Y1.5092  
G01 X-0.2776 Y1.5166  
G01 X-0.2224 Y1.5166  
G01 X-0.1834 Y1.4776  
G01 X-0.1834 Y1.4224  
G01 X-0.2224 Y1.3834  
G01 X-0.2776 Y1.3834  
G01 X-0.3166 Y1.4224  
G01 X-0.3166 Y1.4776  
G01 X-0.3092 Y1.4850  
G01 X-0.4137 Y1.5895  
G00 Z0.1000  
G00 X-0.4193 Y2.2534  
G01 Z-0.0020 F10    
G01 X-0.4466 Y2.2807  F20    
G01 X-0.4466 Y2.3193  
G01 X-0.4193 Y2.3466  
G01 X-0.3807 Y2.3466  
G01 X-0.3534 Y2.3193  
G01 X-0.3534 Y2.2807  
G01 X-0.3550 Y2.2791  
G01 X-0.2929 Y2.2171  
G01 X-0.2255 Y2.2171  
G01 X-0.2125 Y2.2301  
G01 X-0.1875 Y2.2301  
G01 X-0.1699 Y2.2125  
G01 X-0.1699 Y2.1875  
G01 X-0.1875 Y2.1699  
G01 X-0.2125 Y2.1699  
G01 X-0.2255 Y2.1829  
G01 X-0.3023 Y2.1829  
G01 X-0.3066 Y2.1841  
G01 X-0.3105 Y2.1863  
G01 X-0.3791 Y2.2550  
G01 X-0.3807 Y2.2534  
G01 X-0.4193 Y2.2534  
G00 Z0.1000  
G00 X-0.5875 Y2.2301  
G01 Z-0.0020 F10    
G01 X-0.5699 Y2.2125  F20    
G01 X-0.5699 Y2.1875  
G01 X-0.5875 Y2.1699  
G01 X-0.6125 Y2.1699  
G01 X-0.6301 Y2.1875  
G01 X-0.6301 Y2.2059  
G01 X-0.8654 Y2.4412  
G01 X-0.8726 Y2.4339  
G01 X-0.9274 Y2.4339  
G01 X-0.9661 Y2.4726  
G01 X-0.9661 Y2.5274  
G01 X-0.9274 Y2.5661  
G01 X-0.8726 Y2.5661  
G01 X-0.8339 Y2.5274  
G01 X-0.8339 Y2.4726  
G01 X-0.8412 Y2.4654  
G01 X-0.6059 Y2.2301  
G01 X-0.5875 Y2.2301  
G00 Z0.1000  
G00 X-0.2125 Y2.5699  
G01 Z-0.0020 F10    
G01 X-0.2301 Y2.5875  F20    
G01 X-0.2301 Y2.6125  
G01 X-0.2171 Y2.6255  
G01 X-0.2171 Y2.6429  
G01 X-0.2788 Y2.7046  
G01 X-0.2805 Y2.7029  
G01 X-0.3195 Y2.7029  
G01 X-0.3471 Y2.7305  
G01 X-0.3471 Y2.7695  
G01 X-0.3195 Y2.7971  
G01 X-0.2805 Y2.7971  
G01 X-0.2529 Y2.7695  
G01 X-0.2529 Y2.7305  
G01 X-0.2546 Y2.7288  
G01 X-0.1863 Y2.6605  
G01 X-0.1841 Y2.6566  
G01 X-0.1829 Y2.6523  
G01 X-0.1829 Y2.6255  
G01 X-0.1699 Y2.6125  
G01 X-0.1699 Y2.5875  
G01 X-0.1875 Y2.5699  
G01 X-0.2125 Y2.5699  
G00 Z0.1000  
G00 X-0.8699 Y2.9875  
G01 Z-0.0020 F10    
G01 X-0.8875 Y2.9699  F20    
G01 X-0.9125 Y2.9699  
G01 X-0.9255 Y2.9829  
G01 X-0.9429 Y2.9829  
G01 X-1.6199 Y2.3059  
G01 X-1.6199 Y2.2710  
G01 X-1.6211 Y2.2652  
G01 X-1.6233 Y2.2597  
G01 X-1.6266 Y2.2548  
G01 X-1.6308 Y2.2506  
G01 X-1.6357 Y2.2473  
G01 X-1.6412 Y2.2451  
G01 X-1.6470 Y2.2439  
G01 X-1.6530 Y2.2439  
G01 X-1.6588 Y2.2451  
G01 X-1.6643 Y2.2473  
G01 X-1.6692 Y2.2506  
G01 X-1.6734 Y2.2548  
G01 X-1.6767 Y2.2597  
G01 X-1.6789 Y2.2652  
G01 X-1.6801 Y2.2710  
G01 X-1.6801 Y2.3290  
G01 X-1.6789 Y2.3348  
G01 X-1.6767 Y2.3403  
G01 X-1.6734 Y2.3452  
G01 X-1.6692 Y2.3494  
G01 X-1.6643 Y2.3527  
G01 X-1.6588 Y2.3549  
G01 X-1.6530 Y2.3561  
G01 X-1.6470 Y2.3561  
G01 X-1.6412 Y2.3549  
G01 X-1.6357 Y2.3527  
G01 X-1.6308 Y2.3494  
G01 X-1.6278 Y2.3464  
G01 X-0.9605 Y3.0137  
G01 X-0.9566 Y3.0159  
G01 X-0.9523 Y3.0171  
G01 X-0.9255 Y3.0171  
G01 X-0.9125 Y3.0301  
G01 X-0.8875 Y3.0301  
G01 X-0.8699 Y3.0125  
G01 X-0.8699 Y2.9875  
G00 Z0.1000  
G00 X-1.1199 Y2.9875  
G01 Z-0.0020 F10    
G01 X-1.1375 Y2.9699  F20    
G01 X-1.1625 Y2.9699  
G01 X-1.1755 Y2.9829  
G01 X-1.2054 Y2.9829  
G01 X-1.5988 Y2.5895  
G01 X-1.6020 Y2.5863  
G01 X-1.6059 Y2.5841  
G01 X-1.6102 Y2.5829  
G01 X-1.6199 Y2.5829  
G01 X-1.6199 Y2.5710  
G01 X-1.6211 Y2.5652  
G01 X-1.6233 Y2.5597  
G01 X-1.6266 Y2.5548  
G01 X-1.6308 Y2.5506  
G01 X-1.6357 Y2.5473  
G01 X-1.6412 Y2.5451  
G01 X-1.6470 Y2.5439  
G01 X-1.6530 Y2.5439  
G01 X-1.6588 Y2.5451  
G01 X-1.6643 Y2.5473  
G01 X-1.6692 Y2.5506  
G01 X-1.6734 Y2.5548  
G01 X-1.6767 Y2.5597  
G01 X-1.6789 Y2.5652  
G01 X-1.6801 Y2.5710  
G01 X-1.6801 Y2.6290  
G01 X-1.6789 Y2.6348  
G01 X-1.6767 Y2.6403  
G01 X-1.6734 Y2.6452  
G01 X-1.6692 Y2.6494  
G01 X-1.6643 Y2.6527  
G01 X-1.6588 Y2.6549  
G01 X-1.6530 Y2.6561  
G01 X-1.6470 Y2.6561  
G01 X-1.6412 Y2.6549  
G01 X-1.6357 Y2.6527  
G01 X-1.6308 Y2.6494  
G01 X-1.6266 Y2.6452  
G01 X-1.6233 Y2.6403  
G01 X-1.6211 Y2.6348  
G01 X-1.6199 Y2.6290  
G01 X-1.6199 Y2.6171  
G01 X-1.6196 Y2.6171  
G01 X-1.2230 Y3.0137  
G01 X-1.2191 Y3.0159  
G01 X-1.2148 Y3.0171  
G01 X-1.1755 Y3.0171  
G01 X-1.1625 Y3.0301  
G01 X-1.1375 Y3.0301  
G01 X-1.1199 Y3.0125  
G01 X-1.1199 Y2.9875  
G00 Z0.1000  
G00 X-1.3699 Y2.9875  
G01 Z-0.0020 F10    
G01 X-1.3875 Y2.9699  F20    
G01 X-1.4059 Y2.9699  
G01 X-1.7286 Y2.6472  
G01 X-1.7266 Y2.6452  
G01 X-1.7233 Y2.6403  
G01 X-1.7211 Y2.6348  
G01 X-1.7199 Y2.6290  
G01 X-1.7199 Y2.5710  
G01 X-1.7211 Y2.5652  
G01 X-1.7233 Y2.5597  
G01 X-1.7266 Y2.5548  
G01 X-1.7308 Y2.5506  
G01 X-1.7357 Y2.5473  
G01 X-1.7412 Y2.5451  
G01 X-1.7470 Y2.5439  
G01 X-1.7530 Y2.5439  
G01 X-1.7588 Y2.5451  
G01 X-1.7643 Y2.5473  
G01 X-1.7692 Y2.5506  
G01 X-1.7734 Y2.5548  
G01 X-1.7767 Y2.5597  
G01 X-1.7789 Y2.5652  
G01 X-1.7801 Y2.5710  
G01 X-1.7801 Y2.6290  
G01 X-1.7789 Y2.6348  
G01 X-1.7767 Y2.6403  
G01 X-1.7734 Y2.6452  
G01 X-1.7692 Y2.6494  
G01 X-1.7671 Y2.6508  
G01 X-1.7671 Y2.6523  
G01 X-1.7659 Y2.6566  
G01 X-1.7637 Y2.6605  
G01 X-1.4301 Y2.9941  
G01 X-1.4301 Y3.0125  
G01 X-1.4125 Y3.0301  
G01 X-1.3875 Y3.0301  
G01 X-1.3699 Y3.0125  
G01 X-1.3699 Y2.9875  
G00 Z0.1000  
G00 X-1.6199 Y2.9875  
G01 Z-0.0020 F10    
G01 X-1.6375 Y2.9699  F20    
G01 X-1.6559 Y2.9699  
G01 X-1.8329 Y2.7929  
G01 X-1.8329 Y2.6508  
G01 X-1.8308 Y2.6494  
G01 X-1.8266 Y2.6452  
G01 X-1.8233 Y2.6403  
G01 X-1.8211 Y2.6348  
G01 X-1.8199 Y2.6290  
G01 X-1.8199 Y2.5710  
G01 X-1.8211 Y2.5652  
G01 X-1.8233 Y2.5597  
G01 X-1.8266 Y2.5548  
G01 X-1.8308 Y2.5506  
G01 X-1.8357 Y2.5473  
G01 X-1.8412 Y2.5451  
G01 X-1.8470 Y2.5439  
G01 X-1.8530 Y2.5439  
G01 X-1.8588 Y2.5451  
G01 X-1.8643 Y2.5473  
G01 X-1.8692 Y2.5506  
G01 X-1.8734 Y2.5548  
G01 X-1.8767 Y2.5597  
G01 X-1.8789 Y2.5652  
G01 X-1.8801 Y2.5710  
G01 X-1.8801 Y2.6290  
G01 X-1.8789 Y2.6348  
G01 X-1.8767 Y2.6403  
G01 X-1.8734 Y2.6452  
G01 X-1.8692 Y2.6494  
G01 X-1.8671 Y2.6508  
G01 X-1.8671 Y2.8023  
G01 X-1.8659 Y2.8066  
G01 X-1.8637 Y2.8105  
G01 X-1.6801 Y2.9941  
G01 X-1.6801 Y3.0125  
G01 X-1.6625 Y3.0301  
G01 X-1.6375 Y3.0301  
G01 X-1.6199 Y3.0125  
G01 X-1.6199 Y2.9875  
G00 Z0.1000  
G00 X-1.8699 Y2.9875  
G01 Z-0.0020 F10    
G01 X-1.8875 Y2.9699  F20    
G01 X-1.9059 Y2.9699  
G01 X-1.9329 Y2.9429  
G01 X-1.9329 Y2.6508  
G01 X-1.9308 Y2.6494  
G01 X-1.9266 Y2.6452  
G01 X-1.9233 Y2.6403  
G01 X-1.9211 Y2.6348  
G01 X-1.9199 Y2.6290  
G01 X-1.9199 Y2.5710  
G01 X-1.9211 Y2.5652  
G01 X-1.9233 Y2.5597  
G01 X-1.9266 Y2.5548  
G01 X-1.9308 Y2.5506  
G01 X-1.9357 Y2.5473  
G01 X-1.9412 Y2.5451  
G01 X-1.9470 Y2.5439  
G01 X-1.9530 Y2.5439  
G01 X-1.9588 Y2.5451  
G01 X-1.9643 Y2.5473  
G01 X-1.9692 Y2.5506  
G01 X-1.9734 Y2.5548  
G01 X-1.9767 Y2.5597  
G01 X-1.9789 Y2.5652  
G01 X-1.9801 Y2.5710  
G01 X-1.9801 Y2.6290  
G01 X-1.9789 Y2.6348  
G01 X-1.9767 Y2.6403  
G01 X-1.9734 Y2.6452  
G01 X-1.9692 Y2.6494  
G01 X-1.9671 Y2.6508  
G01 X-1.9671 Y2.9523  
G01 X-1.9659 Y2.9566  
G01 X-1.9637 Y2.9605  
G01 X-1.9301 Y2.9941  
G01 X-1.9301 Y3.0125  
G01 X-1.9125 Y3.0301  
G01 X-1.8875 Y3.0301  
G01 X-1.8699 Y3.0125  
G01 X-1.8699 Y2.9875  
G00 Z0.1000  
G00 X-2.0363 Y2.9105  
G01 Z-0.0020 F10    
G01 X-2.0341 Y2.9066  F20    
G01 X-2.0329 Y2.9023  
G01 X-2.0329 Y2.6508  
G01 X-2.0308 Y2.6494  
G01 X-2.0266 Y2.6452  
G01 X-2.0233 Y2.6403  
G01 X-2.0211 Y2.6348  
G01 X-2.0199 Y2.6290  
G01 X-2.0199 Y2.5710  
G01 X-2.0211 Y2.5652  
G01 X-2.0233 Y2.5597  
G01 X-2.0266 Y2.5548  
G01 X-2.0308 Y2.5506  
G01 X-2.0357 Y2.5473  
G01 X-2.0412 Y2.5451  
G01 X-2.0470 Y2.5439  
G01 X-2.0530 Y2.5439  
G01 X-2.0588 Y2.5451  
G01 X-2.0643 Y2.5473  
G01 X-2.0692 Y2.5506  
G01 X-2.0734 Y2.5548  
G01 X-2.0767 Y2.5597  
G01 X-2.0789 Y2.5652  
G01 X-2.0801 Y2.5710  
G01 X-2.0801 Y2.6290  
G01 X-2.0789 Y2.6348  
G01 X-2.0767 Y2.6403  
G01 X-2.0734 Y2.6452  
G01 X-2.0692 Y2.6494  
G01 X-2.0671 Y2.6508  
G01 X-2.0671 Y2.8929  
G01 X-2.1441 Y2.9699  
G01 X-2.1625 Y2.9699  
G01 X-2.1801 Y2.9875  
G01 X-2.1801 Y3.0125  
G01 X-2.1625 Y3.0301  
G01 X-2.1375 Y3.0301  
G01 X-2.1199 Y3.0125  
G01 X-2.1199 Y2.9941  
G01 X-2.0363 Y2.9105  
G00 Z0.1000  
G00 X-2.1363 Y2.7605  
G01 Z-0.0020 F10    
G01 X-2.1341 Y2.7566  F20    
G01 X-2.1329 Y2.7523  
G01 X-2.1329 Y2.6508  
G01 X-2.1308 Y2.6494  
G01 X-2.1266 Y2.6452  
G01 X-2.1233 Y2.6403  
G01 X-2.1211 Y2.6348  
G01 X-2.1199 Y2.6290  
G01 X-2.1199 Y2.5710  
G01 X-2.1211 Y2.5652  
G01 X-2.1233 Y2.5597  
G01 X-2.1266 Y2.5548  
G01 X-2.1308 Y2.5506  
G01 X-2.1357 Y2.5473  
G01 X-2.1412 Y2.5451  
G01 X-2.1470 Y2.5439  
G01 X-2.1530 Y2.5439  
G01 X-2.1588 Y2.5451  
G01 X-2.1643 Y2.5473  
G01 X-2.1692 Y2.5506  
G01 X-2.1734 Y2.5548  
G01 X-2.1767 Y2.5597  
G01 X-2.1789 Y2.5652  
G01 X-2.1801 Y2.5710  
G01 X-2.1801 Y2.6290  
G01 X-2.1789 Y2.6348  
G01 X-2.1767 Y2.6403  
G01 X-2.1734 Y2.6452  
G01 X-2.1692 Y2.6494  
G01 X-2.1671 Y2.6508  
G01 X-2.1671 Y2.7429  
G01 X-2.3941 Y2.9699  
G01 X-2.4125 Y2.9699  
G01 X-2.4301 Y2.9875  
G01 X-2.4301 Y3.0125  
G01 X-2.4125 Y3.0301  
G01 X-2.3875 Y3.0301  
G01 X-2.3699 Y3.0125  
G01 X-2.3699 Y2.9941  
G01 X-2.1363 Y2.7605  
G00 Z0.1000  
G00 X-2.2308 Y2.6494  
G01 Z-0.0020 F10    
G01 X-2.2266 Y2.6452  F20    
G01 X-2.2233 Y2.6403  
G01 X-2.2211 Y2.6348  
G01 X-2.2199 Y2.6290  
G01 X-2.2199 Y2.5710  
G01 X-2.2211 Y2.5652  
G01 X-2.2233 Y2.5597  
G01 X-2.2266 Y2.5548  
G01 X-2.2308 Y2.5506  
G01 X-2.2357 Y2.5473  
G01 X-2.2412 Y2.5451  
G01 X-2.2470 Y2.5439  
G01 X-2.2530 Y2.5439  
G01 X-2.2588 Y2.5451  
G01 X-2.2643 Y2.5473  
G01 X-2.2692 Y2.5506  
G01 X-2.2734 Y2.5548  
G01 X-2.2767 Y2.5597  
G01 X-2.2789 Y2.5652  
G01 X-2.2801 Y2.5710  
G01 X-2.2801 Y2.6059  
G01 X-2.2980 Y2.6238  
G01 X-2.3012 Y2.6270  
G01 X-2.3034 Y2.6309  
G01 X-2.3046 Y2.6352  
G01 X-2.3046 Y2.6429  
G01 X-2.6346 Y2.9729  
G01 X-2.6375 Y2.9699  
G01 X-2.6625 Y2.9699  
G01 X-2.6801 Y2.9875  
G01 X-2.6801 Y3.0125  
G01 X-2.6625 Y3.0301  
G01 X-2.6375 Y3.0301  
G01 X-2.6199 Y3.0125  
G01 X-2.6199 Y3.0066  
G01 X-2.2738 Y2.6605  
G01 X-2.2716 Y2.6566  
G01 X-2.2704 Y2.6523  
G01 X-2.2704 Y2.6482  
G01 X-2.2692 Y2.6494  
G01 X-2.2643 Y2.6527  
G01 X-2.2588 Y2.6549  
G01 X-2.2530 Y2.6561  
G01 X-2.2470 Y2.6561  
G01 X-2.2412 Y2.6549  
G01 X-2.2357 Y2.6527  
G01 X-2.2308 Y2.6494  
G00 Z0.1000  
G00 X-2.3308 Y2.6494  
G01 Z-0.0020 F10    
G01 X-2.3266 Y2.6452  F20    
G01 X-2.3233 Y2.6403  
G01 X-2.3211 Y2.6348  
G01 X-2.3199 Y2.6290  
G01 X-2.3199 Y2.5710  
G01 X-2.3211 Y2.5652  
G01 X-2.3233 Y2.5597  
G01 X-2.3266 Y2.5548  
G01 X-2.3308 Y2.5506  
G01 X-2.3357 Y2.5473  
G01 X-2.3412 Y2.5451  
G01 X-2.3470 Y2.5439  
G01 X-2.3530 Y2.5439  
G01 X-2.3588 Y2.5451  
G01 X-2.3643 Y2.5473  
G01 X-2.3692 Y2.5506  
G01 X-2.3734 Y2.5548  
G01 X-2.3767 Y2.5597  
G01 X-2.3789 Y2.5652  
G01 X-2.3801 Y2.5710  
G01 X-2.3801 Y2.6059  
G01 X-2.3980 Y2.6238  
G01 X-2.4012 Y2.6270  
G01 X-2.4034 Y2.6309  
G01 X-2.4046 Y2.6352  
G01 X-2.4046 Y2.6429  
G01 X-2.6821 Y2.9204  
G01 X-2.8398 Y2.9204  
G01 X-2.8441 Y2.9216  
G01 X-2.8480 Y2.9238  
G01 X-2.8941 Y2.9699  
G01 X-2.9125 Y2.9699  
G01 X-2.9301 Y2.9875  
G01 X-2.9301 Y3.0125  
G01 X-2.9125 Y3.0301  
G01 X-2.8875 Y3.0301  
G01 X-2.8699 Y3.0125  
G01 X-2.8699 Y2.9941  
G01 X-2.8304 Y2.9546  
G01 X-2.6727 Y2.9546  
G01 X-2.6684 Y2.9534  
G01 X-2.6645 Y2.9512  
G01 X-2.6613 Y2.9480  
G01 X-2.3738 Y2.6605  
G01 X-2.3716 Y2.6566  
G01 X-2.3704 Y2.6523  
G01 X-2.3704 Y2.6482  
G01 X-2.3692 Y2.6494  
G01 X-2.3643 Y2.6527  
G01 X-2.3588 Y2.6549  
G01 X-2.3530 Y2.6561  
G01 X-2.3470 Y2.6561  
G01 X-2.3412 Y2.6549  
G01 X-2.3357 Y2.6527  
G01 X-2.3308 Y2.6494  
G00 Z0.1000  
G00 X-2.4308 Y2.6494  
G01 Z-0.0020 F10    
G01 X-2.4266 Y2.6452  F20    
G01 X-2.4233 Y2.6403  
G01 X-2.4211 Y2.6348  
G01 X-2.4199 Y2.6290  
G01 X-2.4199 Y2.5710  
G01 X-2.4211 Y2.5652  
G01 X-2.4233 Y2.5597  
G01 X-2.4266 Y2.5548  
G01 X-2.4308 Y2.5506  
G01 X-2.4357 Y2.5473  
G01 X-2.4412 Y2.5451  
G01 X-2.4470 Y2.5439  
G01 X-2.4530 Y2.5439  
G01 X-2.4588 Y2.5451  
G01 X-2.4643 Y2.5473  
G01 X-2.4692 Y2.5506  
G01 X-2.4734 Y2.5548  
G01 X-2.4767 Y2.5597  
G01 X-2.4789 Y2.5652  
G01 X-2.4801 Y2.5710  
G01 X-2.4801 Y2.5829  
G01 X-2.7523 Y2.5829  
G01 X-2.7566 Y2.5841  
G01 X-2.7605 Y2.5863  
G01 X-3.1441 Y2.9699  
G01 X-3.1625 Y2.9699  
G01 X-3.1801 Y2.9875  
G01 X-3.1801 Y3.0125  
G01 X-3.1625 Y3.0301  
G01 X-3.1375 Y3.0301  
G01 X-3.1199 Y3.0125  
G01 X-3.1199 Y2.9941  
G01 X-2.7429 Y2.6171  
G01 X-2.4801 Y2.6171  
G01 X-2.4801 Y2.6290  
G01 X-2.4789 Y2.6348  
G01 X-2.4767 Y2.6403  
G01 X-2.4734 Y2.6452  
G01 X-2.4692 Y2.6494  
G01 X-2.4643 Y2.6527  
G01 X-2.4588 Y2.6549  
G01 X-2.4530 Y2.6561  
G01 X-2.4470 Y2.6561  
G01 X-2.4412 Y2.6549  
G01 X-2.4357 Y2.6527  
G01 X-2.4308 Y2.6494  
G00 Z0.1000  
G00 X-2.2734 Y2.3452  
G01 Z-0.0020 F10    
G01 X-2.2692 Y2.3494  F20    
G01 X-2.2643 Y2.3527  
G01 X-2.2588 Y2.3549  
G01 X-2.2530 Y2.3561  
G01 X-2.2470 Y2.3561  
G01 X-2.2412 Y2.3549  
G01 X-2.2357 Y2.3527  
G01 X-2.2308 Y2.3494  
G01 X-2.2266 Y2.3452  
G01 X-2.2233 Y2.3403  
G01 X-2.2211 Y2.3348  
G01 X-2.2199 Y2.3290  
G01 X-2.2199 Y2.2941  
G01 X-2.2000 Y2.2742  
G01 X-2.1801 Y2.2941  
G01 X-2.1801 Y2.3290  
G01 X-2.1789 Y2.3348  
G01 X-2.1767 Y2.3403  
G01 X-2.1734 Y2.3452  
G01 X-2.1692 Y2.3494  
G01 X-2.1643 Y2.3527  
G01 X-2.1588 Y2.3549  
G01 X-2.1530 Y2.3561  
G01 X-2.1470 Y2.3561  
G01 X-2.1412 Y2.3549  
G01 X-2.1357 Y2.3527  
G01 X-2.1308 Y2.3494  
G01 X-2.1266 Y2.3452  
G01 X-2.1233 Y2.3403  
G01 X-2.1211 Y2.3348  
G01 X-2.1199 Y2.3290  
G01 X-2.1199 Y2.2710  
G01 X-2.1211 Y2.2652  
G01 X-2.1233 Y2.2597  
G01 X-2.1266 Y2.2548  
G01 X-2.1308 Y2.2506  
G01 X-2.1357 Y2.2473  
G01 X-2.1412 Y2.2451  
G01 X-2.1470 Y2.2439  
G01 X-2.1530 Y2.2439  
G01 X-2.1588 Y2.2451  
G01 X-2.1643 Y2.2473  
G01 X-2.1692 Y2.2506  
G01 X-2.1722 Y2.2536  
G01 X-2.1829 Y2.2429  
G01 X-2.1829 Y2.1755  
G01 X-2.1699 Y2.1625  
G01 X-2.1699 Y2.1375  
G01 X-2.1875 Y2.1199  
G01 X-2.2125 Y2.1199  
G01 X-2.2301 Y2.1375  
G01 X-2.2301 Y2.1625  
G01 X-2.2171 Y2.1755  
G01 X-2.2171 Y2.2429  
G01 X-2.2278 Y2.2536  
G01 X-2.2308 Y2.2506  
G01 X-2.2357 Y2.2473  
G01 X-2.2412 Y2.2451  
G01 X-2.2470 Y2.2439  
G01 X-2.2530 Y2.2439  
G01 X-2.2588 Y2.2451  
G01 X-2.2643 Y2.2473  
G01 X-2.2692 Y2.2506  
G01 X-2.2734 Y2.2548  
G01 X-2.2767 Y2.2597  
G01 X-2.2789 Y2.2652  
G01 X-2.2801 Y2.2710  
G01 X-2.2801 Y2.3290  
G01 X-2.2789 Y2.3348  
G01 X-2.2767 Y2.3403  
G01 X-2.2734 Y2.3452  
G00 Z0.1000  
G00 X-2.0734 Y2.3452  
G01 Z-0.0020 F10    
G01 X-2.0692 Y2.3494  F20    
G01 X-2.0643 Y2.3527  
G01 X-2.0588 Y2.3549  
G01 X-2.0530 Y2.3561  
G01 X-2.0470 Y2.3561  
G01 X-2.0412 Y2.3549  
G01 X-2.0357 Y2.3527  
G01 X-2.0308 Y2.3494  
G01 X-2.0266 Y2.3452  
G01 X-2.0233 Y2.3403  
G01 X-2.0211 Y2.3348  
G01 X-2.0199 Y2.3290  
G01 X-2.0199 Y2.2710  
G01 X-2.0211 Y2.2652  
G01 X-2.0233 Y2.2597  
G01 X-2.0266 Y2.2548  
G01 X-2.0308 Y2.2506  
G01 X-2.0329 Y2.2492  
G01 X-2.0329 Y2.2446  
G01 X-1.7895 Y2.0012  
G01 X-1.7863 Y1.9980  
G01 X-1.7841 Y1.9941  
G01 X-1.7829 Y1.9898  
G01 X-1.7829 Y1.7382  
G01 X-1.7609 Y1.7162  
G01 X-1.7609 Y1.6838  
G01 X-1.7838 Y1.6609  
G01 X-1.8162 Y1.6609  
G01 X-1.8391 Y1.6838  
G01 X-1.8391 Y1.7162  
G01 X-1.8171 Y1.7382  
G01 X-1.8171 Y1.9804  
G01 X-2.0637 Y2.2270  
G01 X-2.0659 Y2.2309  
G01 X-2.0671 Y2.2352  
G01 X-2.0671 Y2.2492  
G01 X-2.0692 Y2.2506  
G01 X-2.0734 Y2.2548  
G01 X-2.0767 Y2.2597  
G01 X-2.0789 Y2.2652  
G01 X-2.0801 Y2.2710  
G01 X-2.0801 Y2.3290  
G01 X-2.0789 Y2.3348  
G01 X-2.0767 Y2.3403  
G01 X-2.0734 Y2.3452  
G00 Z0.1000  
G00 X-2.0301 Y2.1125  
G01 Z-0.0020 F10    
G01 X-2.0125 Y2.1301  F20    
G01 X-1.9875 Y2.1301  
G01 X-1.9699 Y2.1125  
G01 X-1.9699 Y2.0875  
G01 X-1.9875 Y2.0699  
G01 X-2.0059 Y2.0699  
G01 X-2.0699 Y2.0059  
G01 X-2.0699 Y1.9710  
G01 X-2.0711 Y1.9652  
G01 X-2.0733 Y1.9597  
G01 X-2.0766 Y1.9548  
G01 X-2.0808 Y1.9506  
G01 X-2.0857 Y1.9473  
G01 X-2.0912 Y1.9451  
G01 X-2.0970 Y1.9439  
G01 X-2.1030 Y1.9439  
G01 X-2.1088 Y1.9451  
G01 X-2.1143 Y1.9473  
G01 X-2.1192 Y1.9506  
G01 X-2.1234 Y1.9548  
G01 X-2.1267 Y1.9597  
G01 X-2.1272 Y1.9611  
G01 X-2.1520 Y1.9363  
G01 X-2.1559 Y1.9341  
G01 X-2.1602 Y1.9329  
G01 X-2.3745 Y1.9329  
G01 X-2.3875 Y1.9199  
G01 X-2.4125 Y1.9199  
G01 X-2.4301 Y1.9375  
G01 X-2.4301 Y1.9625  
G01 X-2.4125 Y1.9801  
G01 X-2.3875 Y1.9801  
G01 X-2.3745 Y1.9671  
G01 X-2.1696 Y1.9671  
G01 X-2.1301 Y2.0066  
G01 X-2.1301 Y2.0290  
G01 X-2.1289 Y2.0348  
G01 X-2.1267 Y2.0403  
G01 X-2.1234 Y2.0452  
G01 X-2.1192 Y2.0494  
G01 X-2.1143 Y2.0527  
G01 X-2.1088 Y2.0549  
G01 X-2.1030 Y2.0561  
G01 X-2.0970 Y2.0561  
G01 X-2.0912 Y2.0549  
G01 X-2.0857 Y2.0527  
G01 X-2.0808 Y2.0494  
G01 X-2.0778 Y2.0464  
G01 X-2.0301 Y2.0941  
G01 X-2.0301 Y2.1125  
G00 Z0.1000  
G00 X-2.0301 Y1.9125  
G01 Z-0.0020 F10    
G01 X-2.0125 Y1.9301  F20    
G01 X-1.9875 Y1.9301  
G01 X-1.9699 Y1.9125  
G01 X-1.9699 Y1.8875  
G01 X-1.9829 Y1.8745  
G01 X-1.9829 Y1.7071  
G01 X-1.9149 Y1.6391  
G01 X-1.8838 Y1.6391  
G01 X-1.8609 Y1.6162  
G01 X-1.8609 Y1.5838  
G01 X-1.8665 Y1.5782  
G01 X-1.8363 Y1.5480  
G01 X-1.8341 Y1.5441  
G01 X-1.8329 Y1.5398  
G01 X-1.8329 Y1.3854  
G01 X-1.8129 Y1.3654  
G01 X-1.8129 Y1.3346  
G01 X-1.8346 Y1.3129  
G01 X-1.8654 Y1.3129  
G01 X-1.8871 Y1.3346  
G01 X-1.8871 Y1.3654  
G01 X-1.8671 Y1.3854  
G01 X-1.8671 Y1.5304  
G01 X-1.8976 Y1.5609  
G01 X-1.9162 Y1.5609  
G01 X-1.9391 Y1.5838  
G01 X-1.9391 Y1.6149  
G01 X-2.0071 Y1.6829  
G01 X-2.0699 Y1.6829  
G01 X-2.0699 Y1.6710  
G01 X-2.0711 Y1.6652  
G01 X-2.0733 Y1.6597  
G01 X-2.0766 Y1.6548  
G01 X-2.0808 Y1.6506  
G01 X-2.0857 Y1.6473  
G01 X-2.0912 Y1.6451  
G01 X-2.0970 Y1.6439  
G01 X-2.1030 Y1.6439  
G01 X-2.1088 Y1.6451  
G01 X-2.1143 Y1.6473  
G01 X-2.1192 Y1.6506  
G01 X-2.1234 Y1.6548  
G01 X-2.1267 Y1.6597  
G01 X-2.1289 Y1.6652  
G01 X-2.1301 Y1.6710  
G01 X-2.1301 Y1.7290  
G01 X-2.1289 Y1.7348  
G01 X-2.1267 Y1.7403  
G01 X-2.1234 Y1.7452  
G01 X-2.1192 Y1.7494  
G01 X-2.1143 Y1.7527  
G01 X-2.1088 Y1.7549  
G01 X-2.1030 Y1.7561  
G01 X-2.0970 Y1.7561  
G01 X-2.0912 Y1.7549  
G01 X-2.0857 Y1.7527  
G01 X-2.0808 Y1.7494  
G01 X-2.0766 Y1.7452  
G01 X-2.0733 Y1.7403  
G01 X-2.0711 Y1.7348  
G01 X-2.0699 Y1.7290  
G01 X-2.0699 Y1.7171  
G01 X-2.0171 Y1.7171  
G01 X-2.0171 Y1.8745  
G01 X-2.0301 Y1.8875  
G01 X-2.0301 Y1.9125  
G00 Z0.1000  
G00 X-2.4449 Y1.9125  
G01 Z-0.0020 F10    
G01 X-2.4449 Y1.8875  F20    
G01 X-2.4579 Y1.8745  
G01 X-2.4579 Y1.8227  
G01 X-2.4591 Y1.8184  
G01 X-2.4613 Y1.8145  
G01 X-2.5699 Y1.7059  
G01 X-2.5699 Y1.6875  
G01 X-2.5875 Y1.6699  
G01 X-2.6125 Y1.6699  
G01 X-2.6301 Y1.6875  
G01 X-2.6301 Y1.7125  
G01 X-2.6125 Y1.7301  
G01 X-2.5941 Y1.7301  
G01 X-2.4921 Y1.8321  
G01 X-2.4921 Y1.8745  
G01 X-2.5051 Y1.8875  
G01 X-2.5051 Y1.9125  
G01 X-2.4875 Y1.9301  
G01 X-2.4625 Y1.9301  
G01 X-2.4449 Y1.9125  
G00 Z0.1000  
G00 X-1.6234 Y1.1192  
G01 Z-0.0020 F10    
G01 X-1.6192 Y1.1234  F20    
G01 X-1.6143 Y1.1267  
G01 X-1.6088 Y1.1289  
G01 X-1.6030 Y1.1301  
G01 X-1.5970 Y1.1301  
G01 X-1.5912 Y1.1289  
G01 X-1.5857 Y1.1267  
G01 X-1.5808 Y1.1234  
G01 X-1.5766 Y1.1192  
G01 X-1.5752 Y1.1171  
G01 X-1.5248 Y1.1171  
G01 X-1.5234 Y1.1192  
G01 X-1.5192 Y1.1234  
G01 X-1.5143 Y1.1267  
G01 X-1.5088 Y1.1289  
G01 X-1.5030 Y1.1301  
G01 X-1.4970 Y1.1301  
G01 X-1.4912 Y1.1289  
G01 X-1.4857 Y1.1267  
G01 X-1.4808 Y1.1234  
G01 X-1.4766 Y1.1192  
G01 X-1.4733 Y1.1143  
G01 X-1.4711 Y1.1088  
G01 X-1.4699 Y1.1030  
G01 X-1.4699 Y1.0970  
G01 X-1.4711 Y1.0912  
G01 X-1.4733 Y1.0857  
G01 X-1.4766 Y1.0808  
G01 X-1.4808 Y1.0766  
G01 X-1.4857 Y1.0733  
G01 X-1.4912 Y1.0711  
G01 X-1.4970 Y1.0699  
G01 X-1.5030 Y1.0699  
G01 X-1.5088 Y1.0711  
G01 X-1.5143 Y1.0733  
G01 X-1.5192 Y1.0766  
G01 X-1.5234 Y1.0808  
G01 X-1.5248 Y1.0829  
G01 X-1.5752 Y1.0829  
G01 X-1.5766 Y1.0808  
G01 X-1.5808 Y1.0766  
G01 X-1.5857 Y1.0733  
G01 X-1.5912 Y1.0711  
G01 X-1.5970 Y1.0699  
G01 X-1.6030 Y1.0699  
G01 X-1.6088 Y1.0711  
G01 X-1.6143 Y1.0733  
G01 X-1.6192 Y1.0766  
G01 X-1.6234 Y1.0808  
G01 X-1.6267 Y1.0857  
G01 X-1.6289 Y1.0912  
G01 X-1.6301 Y1.0970  
G01 X-1.6301 Y1.1030  
G01 X-1.6289 Y1.1088  
G01 X-1.6267 Y1.1143  
G01 X-1.6234 Y1.1192  
G00 Z0.1000  
G00 X-0.1073 Y0.1614  
G01 Z-0.0020 F10    
G01 X-0.2073 Y0.0614  F20    
G01 X-0.2114 Y0.0573  
G01 X-0.2165 Y0.0544  
G01 X-0.2221 Y0.0529  
G01 X-0.5904 Y0.0529  
G01 X-0.5960 Y0.0544  
G01 X-0.6011 Y0.0573  
G01 X-0.6477 Y0.1039  
G01 X-0.6691 Y0.1039  
G01 X-0.6931 Y0.1279  
G01 X-0.7069 Y0.1279  
G01 X-0.7309 Y0.1039  
G01 X-0.7691 Y0.1039  
G01 X-0.7931 Y0.1279  
G01 X-0.8069 Y0.1279  
G01 X-0.8309 Y0.1039  
G01 X-0.8523 Y0.1039  
G01 X-0.8989 Y0.0573  
G01 X-0.9040 Y0.0544  
G01 X-0.9096 Y0.0529  
G01 X-1.1654 Y0.0529  
G01 X-1.1710 Y0.0544  
G01 X-1.1761 Y0.0573  
G01 X-1.1802 Y0.0614  
G01 X-1.9802 Y0.8614  
G01 X-1.9831 Y0.8665  
G01 X-1.9846 Y0.8721  
G01 X-1.9846 Y0.9279  
G01 X-1.9831 Y0.9335  
G01 X-1.9802 Y0.9386  
G01 X-1.9761 Y0.9427  
G01 X-1.9409 Y0.9779  
G01 X-2.2904 Y0.9779  
G01 X-2.2960 Y0.9794  
G01 X-2.3011 Y0.9823  
G01 X-2.3761 Y1.0573  
G01 X-2.3802 Y1.0614  
G01 X-2.3831 Y1.0665  
G01 X-2.3846 Y1.0721  
G01 X-2.3846 Y1.4404  
G01 X-2.3831 Y1.4460  
G01 X-2.3802 Y1.4511  
G01 X-2.3351 Y1.4962  
G01 X-2.3351 Y1.5145  
G01 X-2.3342 Y1.5154  
G01 X-2.4177 Y1.5989  
G01 X-2.4206 Y1.6040  
G01 X-2.4221 Y1.6096  
G01 X-2.4221 Y1.6154  
G01 X-2.6279 Y1.6154  
G01 X-2.6335 Y1.6169  
G01 X-2.6386 Y1.6198  
G01 X-2.6761 Y1.6573  
G01 X-2.6802 Y1.6614  
G01 X-2.6831 Y1.6665  
G01 X-2.6846 Y1.6721  
G01 X-2.6846 Y2.0779  
G01 X-2.6831 Y2.0835  
G01 X-2.6802 Y2.0886  
G01 X-2.6342 Y2.1346  
G01 X-2.6351 Y2.1355  
G01 X-2.6351 Y2.1645  
G01 X-2.6145 Y2.1851  
G01 X-2.5855 Y2.1851  
G01 X-2.5725 Y2.1721  
G01 X-2.4967 Y2.1721  
G01 X-2.4096 Y2.2592  
G01 X-2.4096 Y2.2654  
G01 X-2.4081 Y2.2710  
G01 X-2.4052 Y2.2761  
G01 X-2.4011 Y2.2802  
G01 X-2.3851 Y2.2962  
G01 X-2.3851 Y2.3295  
G01 X-2.3838 Y2.3362  
G01 X-2.3811 Y2.3426  
G01 X-2.3773 Y2.3484  
G01 X-2.3724 Y2.3533  
G01 X-2.3666 Y2.3571  
G01 X-2.3602 Y2.3598  
G01 X-2.3535 Y2.3611  
G01 X-2.3465 Y2.3611  
G01 X-2.3398 Y2.3598  
G01 X-2.3357 Y2.3581  
G01 X-2.2927 Y2.4011  
G01 X-2.2886 Y2.4052  
G01 X-2.2835 Y2.4081  
G01 X-2.2779 Y2.4096  
G01 X-2.0221 Y2.4096  
G01 X-2.0165 Y2.4081  
G01 X-2.0114 Y2.4052  
G01 X-1.9643 Y2.3581  
G01 X-1.9602 Y2.3598  
G01 X-1.9535 Y2.3611  
G01 X-1.9465 Y2.3611  
G01 X-1.9398 Y2.3598  
G01 X-1.9334 Y2.3571  
G01 X-1.9276 Y2.3533  
G01 X-1.9227 Y2.3484  
G01 X-1.9189 Y2.3426  
G01 X-1.9162 Y2.3362  
G01 X-1.9149 Y2.3295  
G01 X-1.9149 Y2.2705  
G01 X-1.9162 Y2.2638  
G01 X-1.9173 Y2.2611  
G01 X-1.5913 Y1.9351  
G01 X-1.5855 Y1.9351  
G01 X-1.5649 Y1.9145  
G01 X-1.5649 Y1.8855  
G01 X-1.5779 Y1.8725  
G01 X-1.5779 Y1.6971  
G01 X-1.5794 Y1.6915  
G01 X-1.5823 Y1.6864  
G01 X-1.6559 Y1.6128  
G01 X-1.6559 Y1.5817  
G01 X-1.6594 Y1.5782  
G01 X-1.5323 Y1.4511  
G01 X-1.5294 Y1.4460  
G01 X-1.5279 Y1.4404  
G01 X-1.5279 Y1.3874  
G01 X-1.5079 Y1.3674  
G01 X-1.5079 Y1.3326  
G01 X-1.5326 Y1.3079  
G01 X-1.5608 Y1.3079  
G01 X-1.6779 Y1.1908  
G01 X-1.6779 Y1.1274  
G01 X-1.6776 Y1.1273  
G01 X-1.6727 Y1.1224  
G01 X-1.6689 Y1.1166  
G01 X-1.6662 Y1.1102  
G01 X-1.6662 Y1.1099  
G01 X-1.4783 Y0.9221  
G01 X-1.1775 Y0.9221  
G01 X-1.1645 Y0.9351  
G01 X-1.1355 Y0.9351  
G01 X-1.1225 Y0.9221  
G01 X-0.9929 Y0.9221  
G01 X-0.9899 Y0.9280  
G01 X-0.9849 Y0.9348  
G01 X-0.9790 Y0.9407  
G01 X-0.9722 Y0.9456  
G01 X-0.9647 Y0.9494  
G01 X-0.9567 Y0.9520  
G01 X-0.9484 Y0.9533  
G01 X-0.8516 Y0.9533  
G01 X-0.8433 Y0.9520  
G01 X-0.8353 Y0.9494  
G01 X-0.8278 Y0.9456  
G01 X-0.8210 Y0.9407  
G01 X-0.8151 Y0.9348  
G01 X-0.8101 Y0.9280  
G01 X-0.8063 Y0.9205  
G01 X-0.8037 Y0.9125  
G01 X-0.8024 Y0.9042  
G01 X-0.8024 Y0.8958  
G01 X-0.8037 Y0.8875  
G01 X-0.8063 Y0.8795  
G01 X-0.8101 Y0.8720  
G01 X-0.8151 Y0.8652  
G01 X-0.8210 Y0.8593  
G01 X-0.8278 Y0.8544  
G01 X-0.8353 Y0.8506  
G01 X-0.8433 Y0.8480  
G01 X-0.8516 Y0.8466  
G01 X-0.9484 Y0.8466  
G01 X-0.9567 Y0.8480  
G01 X-0.9647 Y0.8506  
G01 X-0.9722 Y0.8544  
G01 X-0.9790 Y0.8593  
G01 X-0.9849 Y0.8652  
G01 X-0.9899 Y0.8720  
G01 X-0.9929 Y0.8779  
G01 X-1.1225 Y0.8779  
G01 X-1.1355 Y0.8649  
G01 X-1.1645 Y0.8649  
G01 X-1.1775 Y0.8779  
G01 X-1.4904 Y0.8779  
G01 X-1.4960 Y0.8794  
G01 X-1.5011 Y0.8823  
G01 X-1.6864 Y1.0676  
G01 X-1.6898 Y1.0662  
G01 X-1.6965 Y1.0649  
G01 X-1.7035 Y1.0649  
G01 X-1.7102 Y1.0662  
G01 X-1.7166 Y1.0689  
G01 X-1.7224 Y1.0727  
G01 X-1.7273 Y1.0776  
G01 X-1.7311 Y1.0834  
G01 X-1.7338 Y1.0898  
G01 X-1.7351 Y1.0965  
G01 X-1.7351 Y1.1035  
G01 X-1.7338 Y1.1102  
G01 X-1.7311 Y1.1166  
G01 X-1.7273 Y1.1224  
G01 X-1.7224 Y1.1273  
G01 X-1.7221 Y1.1274  
G01 X-1.7221 Y1.2029  
G01 X-1.7206 Y1.2085  
G01 X-1.7177 Y1.2136  
G01 X-1.5921 Y1.3392  
G01 X-1.5921 Y1.3674  
G01 X-1.5721 Y1.3874  
G01 X-1.5721 Y1.4283  
G01 X-1.6997 Y1.5559  
G01 X-1.7183 Y1.5559  
G01 X-1.7441 Y1.5817  
G01 X-1.7441 Y1.6183  
G01 X-1.7183 Y1.6441  
G01 X-1.6872 Y1.6441  
G01 X-1.6221 Y1.7092  
G01 X-1.6221 Y1.8725  
G01 X-1.6351 Y1.8855  
G01 X-1.6351 Y1.9145  
G01 X-1.6342 Y1.9154  
G01 X-1.9587 Y2.2399  
G01 X-1.9602 Y2.2402  
G01 X-1.9666 Y2.2429  
G01 X-1.9724 Y2.2467  
G01 X-1.9773 Y2.2516  
G01 X-1.9811 Y2.2574  
G01 X-1.9838 Y2.2638  
G01 X-1.9851 Y2.2705  
G01 X-1.9851 Y2.3163  
G01 X-2.0342 Y2.3654  
G01 X-2.2658 Y2.3654  
G01 X-2.3149 Y2.3163  
G01 X-2.3149 Y2.2705  
G01 X-2.3162 Y2.2638  
G01 X-2.3189 Y2.2574  
G01 X-2.3227 Y2.2516  
G01 X-2.3276 Y2.2467  
G01 X-2.3334 Y2.2429  
G01 X-2.3398 Y2.2402  
G01 X-2.3465 Y2.2389  
G01 X-2.3535 Y2.2389  
G01 X-2.3602 Y2.2402  
G01 X-2.3665 Y2.2429  
G01 X-2.3669 Y2.2415  
G01 X-2.3698 Y2.2364  
G01 X-2.4698 Y2.1364  
G01 X-2.4739 Y2.1323  
G01 X-2.4790 Y2.1294  
G01 X-2.4846 Y2.1279  
G01 X-2.5725 Y2.1279  
G01 X-2.5855 Y2.1149  
G01 X-2.5913 Y2.1149  
G01 X-2.6404 Y2.0658  
G01 X-2.6404 Y1.6842  
G01 X-2.6158 Y1.6596  
G01 X-2.4221 Y1.6596  
G01 X-2.4221 Y1.8225  
G01 X-2.4351 Y1.8355  
G01 X-2.4351 Y1.8645  
G01 X-2.4145 Y1.8851  
G01 X-2.3855 Y1.8851  
G01 X-2.3649 Y1.8645  
G01 X-2.3649 Y1.8355  
G01 X-2.3779 Y1.8225  
G01 X-2.3779 Y1.6217  
G01 X-2.2913 Y1.5351  
G01 X-2.2855 Y1.5351  
G01 X-2.2649 Y1.5145  
G01 X-2.2649 Y1.4855  
G01 X-2.2855 Y1.4649  
G01 X-2.3038 Y1.4649  
G01 X-2.3404 Y1.4283  
G01 X-2.3404 Y1.0842  
G01 X-2.2783 Y1.0221  
G01 X-1.9275 Y1.0221  
G01 X-1.9145 Y1.0351  
G01 X-1.8855 Y1.0351  
G01 X-1.8649 Y1.0145  
G01 X-1.8649 Y0.9855  
G01 X-1.8654 Y0.9850  
G01 X-1.8654 Y0.9846  
G01 X-1.8669 Y0.9790  
G01 X-1.8698 Y0.9739  
G01 X-1.8948 Y0.9489  
G01 X-1.8989 Y0.9448  
G01 X-1.9040 Y0.9419  
G01 X-1.9096 Y0.9404  
G01 X-1.9158 Y0.9404  
G01 X-1.9404 Y0.9158  
G01 X-1.9404 Y0.8842  
G01 X-1.1533 Y0.0971  
G01 X-0.9217 Y0.0971  
G01 X-0.8920 Y0.1268  
G01 X-0.8961 Y0.1309  
G01 X-0.8961 Y0.1691  
G01 X-0.8691 Y0.1961  
G01 X-0.8309 Y0.1961  
G01 X-0.8069 Y0.1721  
G01 X-0.7931 Y0.1721  
G01 X-0.7691 Y0.1961  
G01 X-0.7309 Y0.1961  
G01 X-0.7069 Y0.1721  
G01 X-0.6931 Y0.1721  
G01 X-0.6721 Y0.1931  
G01 X-0.6721 Y0.2069  
G01 X-0.6931 Y0.2279  
G01 X-0.7069 Y0.2279  
G01 X-0.7309 Y0.2039  
G01 X-0.7691 Y0.2039  
G01 X-0.7931 Y0.2279  
G01 X-0.8069 Y0.2279  
G01 X-0.8309 Y0.2039  
G01 X-0.8691 Y0.2039  
G01 X-0.8961 Y0.2309  
G01 X-0.8961 Y0.2691  
G01 X-0.8691 Y0.2961  
G01 X-0.8309 Y0.2961  
G01 X-0.8069 Y0.2721  
G01 X-0.7931 Y0.2721  
G01 X-0.7721 Y0.2931  
G01 X-0.7721 Y0.4533  
G01 X-0.9177 Y0.5989  
G01 X-0.9206 Y0.6040  
G01 X-0.9221 Y0.6096  
G01 X-0.9221 Y0.6126  
G01 X-0.9421 Y0.6326  
G01 X-0.9421 Y0.6674  
G01 X-0.9174 Y0.6921  
G01 X-0.8826 Y0.6921  
G01 X-0.8579 Y0.6674  
G01 X-0.8579 Y0.6326  
G01 X-0.8734 Y0.6171  
G01 X-0.7364 Y0.4802  
G01 X-0.7323 Y0.4761  
G01 X-0.7300 Y0.4721  
G01 X-0.3929 Y0.4721  
G01 X-0.3899 Y0.4780  
G01 X-0.3849 Y0.4848  
G01 X-0.3790 Y0.4907  
G01 X-0.3722 Y0.4956  
G01 X-0.3647 Y0.4994  
G01 X-0.3567 Y0.5020  
G01 X-0.3484 Y0.5033  
G01 X-0.2516 Y0.5033  
G01 X-0.2433 Y0.5020  
G01 X-0.2353 Y0.4994  
G01 X-0.2278 Y0.4956  
G01 X-0.2210 Y0.4907  
G01 X-0.2151 Y0.4848  
G01 X-0.2101 Y0.4780  
G01 X-0.2063 Y0.4705  
G01 X-0.2037 Y0.4625  
G01 X-0.2024 Y0.4542  
G01 X-0.2024 Y0.4458  
G01 X-0.2037 Y0.4375  
G01 X-0.2063 Y0.4295  
G01 X-0.2101 Y0.4220  
G01 X-0.2151 Y0.4152  
G01 X-0.2210 Y0.4093  
G01 X-0.2278 Y0.4044  
G01 X-0.2353 Y0.4006  
G01 X-0.2433 Y0.3980  
G01 X-0.2516 Y0.3966  
G01 X-0.3484 Y0.3966  
G01 X-0.3567 Y0.3980  
G01 X-0.3647 Y0.4006  
G01 X-0.3722 Y0.4044  
G01 X-0.3790 Y0.4093  
G01 X-0.3849 Y0.4152  
G01 X-0.3899 Y0.4220  
G01 X-0.3929 Y0.4279  
G01 X-0.7279 Y0.4279  
G01 X-0.7279 Y0.2931  
G01 X-0.7069 Y0.2721  
G01 X-0.6931 Y0.2721  
G01 X-0.6691 Y0.2961  
G01 X-0.6309 Y0.2961  
G01 X-0.6039 Y0.2691  
G01 X-0.6039 Y0.2309  
G01 X-0.6279 Y0.2069  
G01 X-0.6279 Y0.1931  
G01 X-0.6039 Y0.1691  
G01 X-0.6039 Y0.1309  
G01 X-0.6080 Y0.1268  
G01 X-0.5783 Y0.0971  
G01 X-0.2342 Y0.0971  
G01 X-0.1471 Y0.1842  
G01 X-0.1471 Y0.8783  
G01 X-0.2677 Y0.9989  
G01 X-0.2706 Y1.0040  
G01 X-0.2721 Y1.0096  
G01 X-0.2721 Y1.0784  
G01 X-0.2797 Y1.0784  
G01 X-0.3216 Y1.1203  
G01 X-0.3216 Y1.1279  
G01 X-0.3784 Y1.1279  
G01 X-0.3784 Y1.1203  
G01 X-0.4203 Y1.0784  
G01 X-0.4797 Y1.0784  
G01 X-0.5216 Y1.1203  
G01 X-0.5216 Y1.1797  
G01 X-0.4797 Y1.2216  
G01 X-0.4203 Y1.2216  
G01 X-0.3784 Y1.1797  
G01 X-0.3784 Y1.1721  
G01 X-0.3216 Y1.1721  
G01 X-0.3216 Y1.1797  
G01 X-0.2797 Y1.2216  
G01 X-0.2222 Y1.2216  
G01 X-0.1596 Y1.2842  
G01 X-0.1596 Y2.6908  
G01 X-0.2717 Y2.8029  
G01 X-0.4283 Y2.8029  
G01 X-0.4538 Y2.7775  
G01 X-0.4500 Y2.7737  
G01 X-0.4216 Y2.8021  
G01 X-0.3784 Y2.8021  
G01 X-0.3500 Y2.7737  
G01 X-0.3216 Y2.8021  
G01 X-0.2784 Y2.8021  
G01 X-0.2479 Y2.7716  
G01 X-0.2479 Y2.7292  
G01 X-0.1823 Y2.6636  
G01 X-0.1794 Y2.6585  
G01 X-0.1779 Y2.6529  
G01 X-0.1779 Y2.6275  
G01 X-0.1649 Y2.6145  
G01 X-0.1649 Y2.5855  
G01 X-0.1855 Y2.5649  
G01 X-0.2145 Y2.5649  
G01 X-0.2351 Y2.5855  
G01 X-0.2351 Y2.6145  
G01 X-0.2221 Y2.6275  
G01 X-0.2221 Y2.6408  
G01 X-0.2792 Y2.6979  
G01 X-0.3216 Y2.6979  
G01 X-0.3500 Y2.7263  
G01 X-0.3784 Y2.6979  
G01 X-0.4083 Y2.6979  
G01 X-0.4529 Y2.6533  
G01 X-0.4529 Y2.2346  
G01 X-0.4544 Y2.2290  
G01 X-0.4573 Y2.2239  
G01 X-0.4614 Y2.2198  
G01 X-0.6404 Y2.0408  
G01 X-0.6404 Y1.7842  
G01 X-0.6323 Y1.7761  
G01 X-0.6294 Y1.7710  
G01 X-0.6279 Y1.7654  
G01 X-0.6279 Y1.5775  
G01 X-0.6149 Y1.5645  
G01 X-0.6149 Y1.5355  
G01 X-0.6355 Y1.5149  
G01 X-0.6645 Y1.5149  
G01 X-0.6851 Y1.5355  
G01 X-0.6851 Y1.5645  
G01 X-0.6721 Y1.5775  
G01 X-0.6721 Y1.7533  
G01 X-0.6761 Y1.7573  
G01 X-0.6802 Y1.7614  
G01 X-0.6831 Y1.7665  
G01 X-0.6846 Y1.7721  
G01 X-0.6846 Y2.0529  
G01 X-0.6831 Y2.0585  
G01 X-0.6802 Y2.0636  
G01 X-0.4971 Y2.2467  
G01 X-0.4971 Y2.6654  
G01 X-0.4956 Y2.6710  
G01 X-0.4927 Y2.6761  
G01 X-0.4462 Y2.7225  
G01 X-0.4500 Y2.7263  
G01 X-0.4784 Y2.6979  
G01 X-0.5216 Y2.6979  
G01 X-0.5516 Y2.7279  
G01 X-0.9783 Y2.7279  
G01 X-1.1789 Y2.5273  
G01 X-1.1789 Y2.4705  
G01 X-1.2205 Y2.4289  
G01 X-1.2795 Y2.4289  
G01 X-1.2846 Y2.4341  
G01 X-1.5239 Y2.1948  
G01 X-1.5290 Y2.1919  
G01 X-1.5346 Y2.1904  
G01 X-1.6779 Y2.1904  
G01 X-1.6835 Y2.1919  
G01 X-1.6886 Y2.1948  
G01 X-1.6927 Y2.1989  
G01 X-1.7302 Y2.2364  
G01 X-1.7331 Y2.2415  
G01 X-1.7335 Y2.2429  
G01 X-1.7398 Y2.2402  
G01 X-1.7465 Y2.2389  
G01 X-1.7535 Y2.2389  
G01 X-1.7602 Y2.2402  
G01 X-1.7666 Y2.2429  
G01 X-1.7724 Y2.2467  
G01 X-1.7773 Y2.2516  
G01 X-1.7811 Y2.2574  
G01 X-1.7838 Y2.2638  
G01 X-1.7851 Y2.2705  
G01 X-1.7851 Y2.3295  
G01 X-1.7838 Y2.3362  
G01 X-1.7811 Y2.3426  
G01 X-1.7773 Y2.3484  
G01 X-1.7724 Y2.3533  
G01 X-1.7666 Y2.3571  
G01 X-1.7602 Y2.3598  
G01 X-1.7535 Y2.3611  
G01 X-1.7465 Y2.3611  
G01 X-1.7398 Y2.3598  
G01 X-1.7334 Y2.3571  
G01 X-1.7276 Y2.3533  
G01 X-1.7227 Y2.3484  
G01 X-1.7189 Y2.3426  
G01 X-1.7162 Y2.3362  
G01 X-1.7149 Y2.3295  
G01 X-1.7149 Y2.2962  
G01 X-1.6989 Y2.2802  
G01 X-1.6948 Y2.2761  
G01 X-1.6919 Y2.2710  
G01 X-1.6904 Y2.2654  
G01 X-1.6904 Y2.2592  
G01 X-1.6658 Y2.2346  
G01 X-1.5467 Y2.2346  
G01 X-1.3159 Y2.4654  
G01 X-1.3211 Y2.4705  
G01 X-1.3211 Y2.5295  
G01 X-1.2795 Y2.5711  
G01 X-1.2205 Y2.5711  
G01 X-1.2091 Y2.5597  
G01 X-1.0011 Y2.7677  
G01 X-0.9960 Y2.7706  
G01 X-0.9904 Y2.7721  
G01 X-0.5516 Y2.7721  
G01 X-0.5216 Y2.8021  
G01 X-0.4917 Y2.8021  
G01 X-0.4552 Y2.8386  
G01 X-0.4511 Y2.8427  
G01 X-0.4460 Y2.8456  
G01 X-0.4404 Y2.8471  
G01 X-0.2596 Y2.8471  
G01 X-0.2540 Y2.8456  
G01 X-0.2489 Y2.8427  
G01 X-0.1239 Y2.7177  
G01 X-0.1198 Y2.7136  
G01 X-0.1169 Y2.7085  
G01 X-0.1154 Y2.7029  
G01 X-0.1154 Y1.2721  
G01 X-0.1169 Y1.2665  
G01 X-0.1198 Y1.2614  
G01 X-0.1900 Y1.1913  
G01 X-0.1784 Y1.1797  
G01 X-0.1784 Y1.1203  
G01 X-0.2203 Y1.0784  
G01 X-0.2279 Y1.0784  
G01 X-0.2279 Y1.0217  
G01 X-0.1114 Y0.9052  
G01 X-0.1073 Y0.9011  
G01 X-0.1044 Y0.8960  
G01 X-0.1029 Y0.8904  
G01 X-0.1029 Y0.1721  
G01 X-0.1044 Y0.1665  
G01 X-0.1073 Y0.1614  
G00 Z0.1000  
G00 X-0.2039 Y0.1691  
G01 Z-0.0020 F10    
G01 X-0.2039 Y0.1309  F20    
G01 X-0.2309 Y0.1039  
G01 X-0.2691 Y0.1039  
G01 X-0.2961 Y0.1309  
G01 X-0.2961 Y0.1691  
G01 X-0.2691 Y0.1961  
G01 X-0.2309 Y0.1961  
G01 X-0.2039 Y0.1691  
G00 Z0.1000  
G00 X-0.2039 Y0.2309  
G01 Z-0.0020 F10    
G01 X-0.2309 Y0.2039  F20    
G01 X-0.2691 Y0.2039  
G01 X-0.2961 Y0.2309  
G01 X-0.2961 Y0.2691  
G01 X-0.2691 Y0.2961  
G01 X-0.2309 Y0.2961  
G01 X-0.2039 Y0.2691  
G01 X-0.2039 Y0.2309  
G00 Z0.1000  
G00 X-0.3039 Y0.2309  
G01 Z-0.0020 F10    
G01 X-0.3309 Y0.2039  F20    
G01 X-0.3691 Y0.2039  
G01 X-0.3961 Y0.2309  
G01 X-0.3961 Y0.2691  
G01 X-0.3691 Y0.2961  
G01 X-0.3309 Y0.2961  
G01 X-0.3039 Y0.2691  
G01 X-0.3039 Y0.2309  
G00 Z0.1000  
G00 X-0.3309 Y0.1961  
G01 Z-0.0020 F10    
G01 X-0.3039 Y0.1691  F20    
G01 X-0.3039 Y0.1309  
G01 X-0.3309 Y0.1039  
G01 X-0.3691 Y0.1039  
G01 X-0.3961 Y0.1309  
G01 X-0.3961 Y0.1691  
G01 X-0.3691 Y0.1961  
G01 X-0.3309 Y0.1961  
G00 Z0.1000  
G00 X-0.4309 Y0.1961  
G01 Z-0.0020 F10    
G01 X-0.4039 Y0.1691  F20    
G01 X-0.4039 Y0.1309  
G01 X-0.4309 Y0.1039  
G01 X-0.4691 Y0.1039  
G01 X-0.4961 Y0.1309  
G01 X-0.4961 Y0.1691  
G01 X-0.4691 Y0.1961  
G01 X-0.4309 Y0.1961  
G00 Z0.1000  
G00 X-0.4309 Y0.2039  
G01 Z-0.0020 F10    
G01 X-0.4691 Y0.2039  F20    
G01 X-0.4961 Y0.2309  
G01 X-0.4961 Y0.2691  
G01 X-0.4691 Y0.2961  
G01 X-0.4309 Y0.2961  
G01 X-0.4039 Y0.2691  
G01 X-0.4039 Y0.2309  
G01 X-0.4309 Y0.2039  
G00 Z0.1000  
G00 X-0.5039 Y0.2309  
G01 Z-0.0020 F10    
G01 X-0.5279 Y0.2069  F20    
G01 X-0.5279 Y0.1931  
G01 X-0.5039 Y0.1691  
G01 X-0.5039 Y0.1309  
G01 X-0.5309 Y0.1039  
G01 X-0.5691 Y0.1039  
G01 X-0.5961 Y0.1309  
G01 X-0.5961 Y0.1691  
G01 X-0.5721 Y0.1931  
G01 X-0.5721 Y0.2069  
G01 X-0.5961 Y0.2309  
G01 X-0.5961 Y0.2691  
G01 X-0.5691 Y0.2961  
G01 X-0.5477 Y0.2961  
G01 X-0.5011 Y0.3427  
G01 X-0.4960 Y0.3456  
G01 X-0.4904 Y0.3471  
G01 X-0.2717 Y0.3471  
G01 X-0.1971 Y0.4217  
G01 X-0.1971 Y0.4783  
G01 X-0.3177 Y0.5989  
G01 X-0.3206 Y0.6040  
G01 X-0.3221 Y0.6096  
G01 X-0.3221 Y0.8466  
G01 X-0.3484 Y0.8466  
G01 X-0.3567 Y0.8480  
G01 X-0.3647 Y0.8506  
G01 X-0.3722 Y0.8544  
G01 X-0.3790 Y0.8593  
G01 X-0.3849 Y0.8652  
G01 X-0.3899 Y0.8720  
G01 X-0.3937 Y0.8795  
G01 X-0.3963 Y0.8875  
G01 X-0.3976 Y0.8958  
G01 X-0.3976 Y0.9042  
G01 X-0.3963 Y0.9125  
G01 X-0.3937 Y0.9205  
G01 X-0.3922 Y0.9234  
G01 X-0.6011 Y1.1323  
G01 X-0.6052 Y1.1364  
G01 X-0.6081 Y1.1415  
G01 X-0.6096 Y1.1471  
G01 X-0.6096 Y1.3908  
G01 X-0.8136 Y1.5948  
G01 X-0.8177 Y1.5989  
G01 X-0.8206 Y1.6040  
G01 X-0.8221 Y1.6096  
G01 X-0.8221 Y1.6283  
G01 X-0.8717 Y1.6779  
G01 X-1.2279 Y1.6779  
G01 X-1.2279 Y1.6677  
G01 X-1.2271 Y1.6675  
G01 X-1.2185 Y1.6639  
G01 X-1.2104 Y1.6592  
G01 X-1.2030 Y1.6536  
G01 X-1.1964 Y1.6470  
G01 X-1.1908 Y1.6396  
G01 X-1.1861 Y1.6315  
G01 X-1.1825 Y1.6229  
G01 X-1.1801 Y1.6139  
G01 X-1.1789 Y1.6047  
G01 X-1.1789 Y1.5953  
G01 X-1.1801 Y1.5861  
G01 X-1.1825 Y1.5771  
G01 X-1.1861 Y1.5685  
G01 X-1.1908 Y1.5604  
G01 X-1.1964 Y1.5530  
G01 X-1.2030 Y1.5464  
G01 X-1.2104 Y1.5408  
G01 X-1.2185 Y1.5361  
G01 X-1.2271 Y1.5325  
G01 X-1.2361 Y1.5301  
G01 X-1.2453 Y1.5289  
G01 X-1.2547 Y1.5289  
G01 X-1.2639 Y1.5301  
G01 X-1.2729 Y1.5325  
G01 X-1.2815 Y1.5361  
G01 X-1.2822 Y1.5365  
G01 X-1.3779 Y1.4408  
G01 X-1.3779 Y1.1274  
G01 X-1.3776 Y1.1273  
G01 X-1.3727 Y1.1224  
G01 X-1.3689 Y1.1166  
G01 X-1.3662 Y1.1102  
G01 X-1.3649 Y1.1035  
G01 X-1.3649 Y1.0965  
G01 X-1.3650 Y1.0962  
G01 X-1.2908 Y1.0221  
G01 X-1.1775 Y1.0221  
G01 X-1.1645 Y1.0351  
G01 X-1.1355 Y1.0351  
G01 X-1.1149 Y1.0145  
G01 X-1.1149 Y0.9855  
G01 X-1.1355 Y0.9649  
G01 X-1.1645 Y0.9649  
G01 X-1.1775 Y0.9779  
G01 X-1.3029 Y0.9779  
G01 X-1.3085 Y0.9794  
G01 X-1.3136 Y0.9823  
G01 X-1.3962 Y1.0650  
G01 X-1.3965 Y1.0649  
G01 X-1.4035 Y1.0649  
G01 X-1.4102 Y1.0662  
G01 X-1.4166 Y1.0689  
G01 X-1.4224 Y1.0727  
G01 X-1.4273 Y1.0776  
G01 X-1.4311 Y1.0834  
G01 X-1.4338 Y1.0898  
G01 X-1.4351 Y1.0965  
G01 X-1.4351 Y1.1035  
G01 X-1.4338 Y1.1102  
G01 X-1.4311 Y1.1166  
G01 X-1.4273 Y1.1224  
G01 X-1.4224 Y1.1273  
G01 X-1.4221 Y1.1274  
G01 X-1.4221 Y1.4529  
G01 X-1.4206 Y1.4585  
G01 X-1.4177 Y1.4636  
G01 X-1.3135 Y1.5678  
G01 X-1.3139 Y1.5685  
G01 X-1.3175 Y1.5771  
G01 X-1.3199 Y1.5861  
G01 X-1.3211 Y1.5953  
G01 X-1.3211 Y1.6047  
G01 X-1.3199 Y1.6139  
G01 X-1.3175 Y1.6229  
G01 X-1.3139 Y1.6315  
G01 X-1.3092 Y1.6396  
G01 X-1.3036 Y1.6470  
G01 X-1.2970 Y1.6536  
G01 X-1.2896 Y1.6592  
G01 X-1.2815 Y1.6639  
G01 X-1.2729 Y1.6675  
G01 X-1.2721 Y1.6677  
G01 X-1.2721 Y1.7283  
G01 X-1.6087 Y2.0649  
G01 X-1.6145 Y2.0649  
G01 X-1.6275 Y2.0779  
G01 X-1.6654 Y2.0779  
G01 X-1.6710 Y2.0794  
G01 X-1.6761 Y2.0823  
G01 X-1.8357 Y2.2419  
G01 X-1.8398 Y2.2402  
G01 X-1.8465 Y2.2389  
G01 X-1.8535 Y2.2389  
G01 X-1.8602 Y2.2402  
G01 X-1.8666 Y2.2429  
G01 X-1.8724 Y2.2467  
G01 X-1.8773 Y2.2516  
G01 X-1.8811 Y2.2574  
G01 X-1.8838 Y2.2638  
G01 X-1.8851 Y2.2705  
G01 X-1.8851 Y2.3163  
G01 X-1.9323 Y2.3636  
G01 X-1.9364 Y2.3677  
G01 X-1.9842 Y2.4154  
G01 X-2.3158 Y2.4154  
G01 X-2.3904 Y2.3408  
G01 X-2.3904 Y2.3346  
G01 X-2.3919 Y2.3290  
G01 X-2.3948 Y2.3239  
G01 X-2.3989 Y2.3198  
G01 X-2.4149 Y2.3038  
G01 X-2.4149 Y2.2705  
G01 X-2.4162 Y2.2638  
G01 X-2.4189 Y2.2574  
G01 X-2.4227 Y2.2516  
G01 X-2.4276 Y2.2467  
G01 X-2.4334 Y2.2429  
G01 X-2.4398 Y2.2402  
G01 X-2.4465 Y2.2389  
G01 X-2.4535 Y2.2389  
G01 X-2.4602 Y2.2402  
G01 X-2.4666 Y2.2429  
G01 X-2.4724 Y2.2467  
G01 X-2.4773 Y2.2516  
G01 X-2.4811 Y2.2574  
G01 X-2.4838 Y2.2638  
G01 X-2.4851 Y2.2705  
G01 X-2.4851 Y2.3295  
G01 X-2.4838 Y2.3362  
G01 X-2.4811 Y2.3426  
G01 X-2.4773 Y2.3484  
G01 X-2.4724 Y2.3533  
G01 X-2.4666 Y2.3571  
G01 X-2.4602 Y2.3598  
G01 X-2.4535 Y2.3611  
G01 X-2.4465 Y2.3611  
G01 X-2.4398 Y2.3598  
G01 X-2.4335 Y2.3571  
G01 X-2.4331 Y2.3585  
G01 X-2.4302 Y2.3636  
G01 X-2.3427 Y2.4511  
G01 X-2.3386 Y2.4552  
G01 X-2.3335 Y2.4581  
G01 X-2.3279 Y2.4596  
G01 X-1.9721 Y2.4596  
G01 X-1.9665 Y2.4581  
G01 X-1.9614 Y2.4552  
G01 X-1.9158 Y2.4095  
G01 X-1.9154 Y2.4096  
G01 X-1.6717 Y2.4096  
G01 X-1.0875 Y2.9937  
G01 X-1.1342 Y3.0404  
G01 X-1.3091 Y3.0404  
G01 X-1.3038 Y3.0351  
G01 X-1.2855 Y3.0351  
G01 X-1.2649 Y3.0145  
G01 X-1.2649 Y2.9855  
G01 X-1.2855 Y2.9649  
G01 X-1.3145 Y2.9649  
G01 X-1.3351 Y2.9855  
G01 X-1.3351 Y3.0038  
G01 X-1.3698 Y3.0386  
G01 X-1.3717 Y3.0404  
G01 X-1.4783 Y3.0404  
G01 X-1.5149 Y3.0038  
G01 X-1.5149 Y2.9855  
G01 X-1.5355 Y2.9649  
G01 X-1.5645 Y2.9649  
G01 X-1.5851 Y2.9855  
G01 X-1.5851 Y2.9913  
G01 X-1.6342 Y3.0404  
G01 X-1.8091 Y3.0404  
G01 X-1.8038 Y3.0351  
G01 X-1.7855 Y3.0351  
G01 X-1.7649 Y3.0145  
G01 X-1.7649 Y2.9855  
G01 X-1.7855 Y2.9649  
G01 X-1.8145 Y2.9649  
G01 X-1.8351 Y2.9855  
G01 X-1.8351 Y3.0038  
G01 X-1.8698 Y3.0386  
G01 X-1.8717 Y3.0404  
G01 X-1.9783 Y3.0404  
G01 X-2.0149 Y3.0038  
G01 X-2.0149 Y2.9855  
G01 X-2.0355 Y2.9649  
G01 X-2.0645 Y2.9649  
G01 X-2.0851 Y2.9855  
G01 X-2.0851 Y2.9913  
G01 X-2.1342 Y3.0404  
G01 X-2.3091 Y3.0404  
G01 X-2.3038 Y3.0351  
G01 X-2.2855 Y3.0351  
G01 X-2.2649 Y3.0145  
G01 X-2.2649 Y2.9855  
G01 X-2.2855 Y2.9649  
G01 X-2.3145 Y2.9649  
G01 X-2.3351 Y2.9855  
G01 X-2.3351 Y3.0038  
G01 X-2.3698 Y3.0386  
G01 X-2.3717 Y3.0404  
G01 X-2.4783 Y3.0404  
G01 X-2.5149 Y3.0038  
G01 X-2.5149 Y2.9855  
G01 X-2.5355 Y2.9649  
G01 X-2.5645 Y2.9649  
G01 X-2.5851 Y2.9855  
G01 X-2.5851 Y3.0145  
G01 X-2.5645 Y3.0351  
G01 X-2.5462 Y3.0351  
G01 X-2.5409 Y3.0404  
G01 X-2.6658 Y3.0404  
G01 X-2.7239 Y2.9823  
G01 X-2.7290 Y2.9794  
G01 X-2.7346 Y2.9779  
G01 X-2.7725 Y2.9779  
G01 X-2.7855 Y2.9649  
G01 X-2.8145 Y2.9649  
G01 X-2.8351 Y2.9855  
G01 X-2.8351 Y3.0038  
G01 X-2.8717 Y3.0404  
G01 X-2.9783 Y3.0404  
G01 X-3.0149 Y3.0038  
G01 X-3.0149 Y2.9855  
G01 X-3.0355 Y2.9649  
G01 X-3.0645 Y2.9649  
G01 X-3.0851 Y2.9855  
G01 X-3.0851 Y3.0145  
G01 X-3.0645 Y3.0351  
G01 X-3.0462 Y3.0351  
G01 X-3.0011 Y3.0802  
G01 X-2.9960 Y3.0831  
G01 X-2.9904 Y3.0846  
G01 X-2.8596 Y3.0846  
G01 X-2.8540 Y3.0831  
G01 X-2.8489 Y3.0802  
G01 X-2.8448 Y3.0761  
G01 X-2.8038 Y3.0351  
G01 X-2.7855 Y3.0351  
G01 X-2.7725 Y3.0221  
G01 X-2.7467 Y3.0221  
G01 X-2.6927 Y3.0761  
G01 X-2.6886 Y3.0802  
G01 X-2.6835 Y3.0831  
G01 X-2.6779 Y3.0846  
G01 X-2.3596 Y3.0846  
G01 X-2.3563 Y3.0837  
G01 X-2.3529 Y3.0846  
G01 X-2.1221 Y3.0846  
G01 X-2.1165 Y3.0831  
G01 X-2.1114 Y3.0802  
G01 X-2.1073 Y3.0761  
G01 X-2.0654 Y3.0342  
G01 X-2.0645 Y3.0351  
G01 X-2.0462 Y3.0351  
G01 X-2.0011 Y3.0802  
G01 X-1.9960 Y3.0831  
G01 X-1.9904 Y3.0846  
G01 X-1.8596 Y3.0846  
G01 X-1.8562 Y3.0837  
G01 X-1.8529 Y3.0846  
G01 X-1.6221 Y3.0846  
G01 X-1.6165 Y3.0831  
G01 X-1.6114 Y3.0802  
G01 X-1.6073 Y3.0761  
G01 X-1.5654 Y3.0342  
G01 X-1.5645 Y3.0351  
G01 X-1.5462 Y3.0351  
G01 X-1.5011 Y3.0802  
G01 X-1.4960 Y3.0831  
G01 X-1.4904 Y3.0846  
G01 X-1.3596 Y3.0846  
G01 X-1.3562 Y3.0837  
G01 X-1.3529 Y3.0846  
G01 X-1.1221 Y3.0846  
G01 X-1.1165 Y3.0831  
G01 X-1.1114 Y3.0802  
G01 X-1.1073 Y3.0761  
G01 X-1.0654 Y3.0342  
G01 X-1.0645 Y3.0351  
G01 X-1.0462 Y3.0351  
G01 X-1.0011 Y3.0802  
G01 X-0.9960 Y3.0831  
G01 X-0.9904 Y3.0846  
G01 X-0.8596 Y3.0846  
G01 X-0.8540 Y3.0831  
G01 X-0.8489 Y3.0802  
G01 X-0.8448 Y3.0761  
G01 X-0.8038 Y3.0351  
G01 X-0.7855 Y3.0351  
G01 X-0.7649 Y3.0145  
G01 X-0.7649 Y2.9855  
G01 X-0.7855 Y2.9649  
G01 X-0.8145 Y2.9649  
G01 X-0.8351 Y2.9855  
G01 X-0.8351 Y3.0038  
G01 X-0.8717 Y3.0404  
G01 X-0.9783 Y3.0404  
G01 X-1.0149 Y3.0038  
G01 X-1.0149 Y2.9855  
G01 X-1.0355 Y2.9649  
G01 X-1.0538 Y2.9649  
G01 X-1.6448 Y2.3739  
G01 X-1.6489 Y2.3698  
G01 X-1.6540 Y2.3669  
G01 X-1.6596 Y2.3654  
G01 X-1.8716 Y2.3654  
G01 X-1.8643 Y2.3581  
G01 X-1.8602 Y2.3598  
G01 X-1.8535 Y2.3611  
G01 X-1.8465 Y2.3611  
G01 X-1.8398 Y2.3598  
G01 X-1.8334 Y2.3571  
G01 X-1.8276 Y2.3533  
G01 X-1.8227 Y2.3484  
G01 X-1.8189 Y2.3426  
G01 X-1.8162 Y2.3362  
G01 X-1.8149 Y2.3295  
G01 X-1.8149 Y2.2837  
G01 X-1.6533 Y2.1221  
G01 X-1.6275 Y2.1221  
G01 X-1.6145 Y2.1351  
G01 X-1.5855 Y2.1351  
G01 X-1.5649 Y2.1145  
G01 X-1.5649 Y2.0855  
G01 X-1.5658 Y2.0846  
G01 X-1.2323 Y1.7511  
G01 X-1.2294 Y1.7460  
G01 X-1.2279 Y1.7404  
G01 X-1.2279 Y1.7221  
G01 X-0.8596 Y1.7221  
G01 X-0.8540 Y1.7206  
G01 X-0.8489 Y1.7177  
G01 X-0.8448 Y1.7136  
G01 X-0.7823 Y1.6511  
G01 X-0.7794 Y1.6460  
G01 X-0.7779 Y1.6404  
G01 X-0.7779 Y1.6217  
G01 X-0.5698 Y1.4136  
G01 X-0.5669 Y1.4085  
G01 X-0.5654 Y1.4029  
G01 X-0.5654 Y1.1592  
G01 X-0.3579 Y0.9517  
G01 X-0.3567 Y0.9520  
G01 X-0.3484 Y0.9533  
G01 X-0.2516 Y0.9533  
G01 X-0.2433 Y0.9520  
G01 X-0.2353 Y0.9494  
G01 X-0.2278 Y0.9456  
G01 X-0.2210 Y0.9407  
G01 X-0.2151 Y0.9348  
G01 X-0.2101 Y0.9280  
G01 X-0.2063 Y0.9205  
G01 X-0.2037 Y0.9125  
G01 X-0.2024 Y0.9042  
G01 X-0.2024 Y0.8958  
G01 X-0.2037 Y0.8875  
G01 X-0.2063 Y0.8795  
G01 X-0.2101 Y0.8720  
G01 X-0.2151 Y0.8652  
G01 X-0.2210 Y0.8593  
G01 X-0.2278 Y0.8544  
G01 X-0.2353 Y0.8506  
G01 X-0.2433 Y0.8480  
G01 X-0.2516 Y0.8466  
G01 X-0.2779 Y0.8466  
G01 X-0.2779 Y0.6217  
G01 X-0.1573 Y0.5011  
G01 X-0.1544 Y0.4960  
G01 X-0.1529 Y0.4904  
G01 X-0.1529 Y0.4096  
G01 X-0.1544 Y0.4040  
G01 X-0.1573 Y0.3989  
G01 X-0.2448 Y0.3114  
G01 X-0.2489 Y0.3073  
G01 X-0.2540 Y0.3044  
G01 X-0.2596 Y0.3029  
G01 X-0.4783 Y0.3029  
G01 X-0.5080 Y0.2732  
G01 X-0.5039 Y0.2691  
G01 X-0.5039 Y0.2309  
G00 Z0.1000  
G00 X-0.9039 Y0.2309  
G01 Z-0.0020 F10    
G01 X-0.9279 Y0.2069  F20    
G01 X-0.9279 Y0.1931  
G01 X-0.9039 Y0.1691  
G01 X-0.9039 Y0.1309  
G01 X-0.9309 Y0.1039  
G01 X-0.9691 Y0.1039  
G01 X-0.9961 Y0.1309  
G01 X-0.9961 Y0.1691  
G01 X-0.9721 Y0.1931  
G01 X-0.9721 Y0.2069  
G01 X-0.9961 Y0.2309  
G01 X-0.9961 Y0.2691  
G01 X-0.9691 Y0.2961  
G01 X-0.9477 Y0.2961  
G01 X-0.9221 Y0.3217  
G01 X-0.9221 Y0.3966  
G01 X-0.9484 Y0.3966  
G01 X-0.9567 Y0.3980  
G01 X-0.9647 Y0.4006  
G01 X-0.9722 Y0.4044  
G01 X-0.9790 Y0.4093  
G01 X-0.9849 Y0.4152  
G01 X-0.9899 Y0.4220  
G01 X-0.9929 Y0.4279  
G01 X-1.3404 Y0.4279  
G01 X-1.3460 Y0.4294  
G01 X-1.3511 Y0.4323  
G01 X-1.3552 Y0.4364  
G01 X-1.6864 Y0.7676  
G01 X-1.6898 Y0.7662  
G01 X-1.6965 Y0.7649  
G01 X-1.7035 Y0.7649  
G01 X-1.7102 Y0.7662  
G01 X-1.7166 Y0.7689  
G01 X-1.7224 Y0.7727  
G01 X-1.7273 Y0.7776  
G01 X-1.7274 Y0.7779  
G01 X-1.8029 Y0.7779  
G01 X-1.8085 Y0.7794  
G01 X-1.8136 Y0.7823  
G01 X-1.8962 Y0.8649  
G01 X-1.9145 Y0.8649  
G01 X-1.9351 Y0.8855  
G01 X-1.9351 Y0.9145  
G01 X-1.9145 Y0.9351  
G01 X-1.8855 Y0.9351  
G01 X-1.8649 Y0.9145  
G01 X-1.8649 Y0.8962  
G01 X-1.7908 Y0.8221  
G01 X-1.7274 Y0.8221  
G01 X-1.7273 Y0.8224  
G01 X-1.7224 Y0.8273  
G01 X-1.7166 Y0.8311  
G01 X-1.7102 Y0.8338  
G01 X-1.7035 Y0.8351  
G01 X-1.6965 Y0.8351  
G01 X-1.6898 Y0.8338  
G01 X-1.6834 Y0.8311  
G01 X-1.6776 Y0.8273  
G01 X-1.6727 Y0.8224  
G01 X-1.6689 Y0.8166  
G01 X-1.6662 Y0.8102  
G01 X-1.6662 Y0.8099  
G01 X-1.3283 Y0.4721  
G01 X-0.9929 Y0.4721  
G01 X-0.9899 Y0.4780  
G01 X-0.9849 Y0.4848  
G01 X-0.9790 Y0.4907  
G01 X-0.9722 Y0.4956  
G01 X-0.9647 Y0.4994  
G01 X-0.9567 Y0.5020  
G01 X-0.9484 Y0.5033  
G01 X-0.8516 Y0.5033  
G01 X-0.8433 Y0.5020  
G01 X-0.8353 Y0.4994  
G01 X-0.8278 Y0.4956  
G01 X-0.8210 Y0.4907  
G01 X-0.8151 Y0.4848  
G01 X-0.8101 Y0.4780  
G01 X-0.8063 Y0.4705  
G01 X-0.8037 Y0.4625  
G01 X-0.8024 Y0.4542  
G01 X-0.8024 Y0.4458  
G01 X-0.8037 Y0.4375  
G01 X-0.8063 Y0.4295  
G01 X-0.8101 Y0.4220  
G01 X-0.8151 Y0.4152  
G01 X-0.8210 Y0.4093  
G01 X-0.8278 Y0.4044  
G01 X-0.8353 Y0.4006  
G01 X-0.8433 Y0.3980  
G01 X-0.8516 Y0.3966  
G01 X-0.8779 Y0.3966  
G01 X-0.8779 Y0.3096  
G01 X-0.8794 Y0.3040  
G01 X-0.8823 Y0.2989  
G01 X-0.9080 Y0.2732  
G01 X-0.9039 Y0.2691  
G01 X-0.9039 Y0.2309  
G00 Z0.1000  
G00 X-0.8346 Y0.7779  
G01 Z-0.0020 F10    
G01 X-1.3726 Y0.7779  F20    
G01 X-1.3727 Y0.7776  
G01 X-1.3776 Y0.7727  
G01 X-1.3834 Y0.7689  
G01 X-1.3898 Y0.7662  
G01 X-1.3965 Y0.7649  
G01 X-1.4035 Y0.7649  
G01 X-1.4102 Y0.7662  
G01 X-1.4166 Y0.7689  
G01 X-1.4224 Y0.7727  
G01 X-1.4273 Y0.7776  
G01 X-1.4274 Y0.7779  
G01 X-1.4726 Y0.7779  
G01 X-1.4727 Y0.7776  
G01 X-1.4776 Y0.7727  
G01 X-1.4834 Y0.7689  
G01 X-1.4898 Y0.7662  
G01 X-1.4965 Y0.7649  
G01 X-1.5035 Y0.7649  
G01 X-1.5102 Y0.7662  
G01 X-1.5166 Y0.7689  
G01 X-1.5224 Y0.7727  
G01 X-1.5273 Y0.7776  
G01 X-1.5311 Y0.7834  
G01 X-1.5338 Y0.7898  
G01 X-1.5338 Y0.7901  
G01 X-2.2125 Y1.4687  
G01 X-2.2779 Y1.4033  
G01 X-2.2779 Y1.1275  
G01 X-2.2649 Y1.1145  
G01 X-2.2649 Y1.0855  
G01 X-2.2855 Y1.0649  
G01 X-2.3145 Y1.0649  
G01 X-2.3351 Y1.0855  
G01 X-2.3351 Y1.1145  
G01 X-2.3221 Y1.1275  
G01 X-2.3221 Y1.4154  
G01 X-2.3206 Y1.4210  
G01 X-2.3177 Y1.4261  
G01 X-2.2302 Y1.5136  
G01 X-2.2261 Y1.5177  
G01 X-2.2221 Y1.5217  
G01 X-2.2221 Y1.6725  
G01 X-2.2351 Y1.6855  
G01 X-2.2351 Y1.7145  
G01 X-2.2145 Y1.7351  
G01 X-2.1855 Y1.7351  
G01 X-2.1649 Y1.7145  
G01 X-2.1649 Y1.6855  
G01 X-2.1779 Y1.6725  
G01 X-2.1779 Y1.5096  
G01 X-2.1794 Y1.5040  
G01 X-2.1815 Y1.5003  
G01 X-1.5136 Y0.8324  
G01 X-1.5102 Y0.8338  
G01 X-1.5035 Y0.8351  
G01 X-1.4965 Y0.8351  
G01 X-1.4898 Y0.8338  
G01 X-1.4834 Y0.8311  
G01 X-1.4776 Y0.8273  
G01 X-1.4727 Y0.8224  
G01 X-1.4726 Y0.8221  
G01 X-1.4274 Y0.8221  
G01 X-1.4273 Y0.8224  
G01 X-1.4224 Y0.8273  
G01 X-1.4166 Y0.8311  
G01 X-1.4102 Y0.8338  
G01 X-1.4035 Y0.8351  
G01 X-1.3965 Y0.8351  
G01 X-1.3898 Y0.8338  
G01 X-1.3834 Y0.8311  
G01 X-1.3776 Y0.8273  
G01 X-1.3727 Y0.8224  
G01 X-1.3726 Y0.8221  
G01 X-0.8467 Y0.8221  
G01 X-0.7971 Y0.8717  
G01 X-0.7971 Y0.9283  
G01 X-0.9177 Y1.0489  
G01 X-0.9206 Y1.0540  
G01 X-0.9221 Y1.0596  
G01 X-0.9221 Y1.5323  
G01 X-0.9229 Y1.5325  
G01 X-0.9315 Y1.5361  
G01 X-0.9396 Y1.5408  
G01 X-0.9470 Y1.5464  
G01 X-0.9536 Y1.5530  
G01 X-0.9592 Y1.5604  
G01 X-0.9639 Y1.5685  
G01 X-0.9675 Y1.5771  
G01 X-0.9699 Y1.5861  
G01 X-0.9711 Y1.5953  
G01 X-0.9711 Y1.6047  
G01 X-0.9699 Y1.6139  
G01 X-0.9675 Y1.6229  
G01 X-0.9639 Y1.6315  
G01 X-0.9592 Y1.6396  
G01 X-0.9536 Y1.6470  
G01 X-0.9470 Y1.6536  
G01 X-0.9396 Y1.6592  
G01 X-0.9315 Y1.6639  
G01 X-0.9229 Y1.6675  
G01 X-0.9139 Y1.6699  
G01 X-0.9047 Y1.6711  
G01 X-0.8953 Y1.6711  
G01 X-0.8861 Y1.6699  
G01 X-0.8771 Y1.6675  
G01 X-0.8685 Y1.6639  
G01 X-0.8604 Y1.6592  
G01 X-0.8530 Y1.6536  
G01 X-0.8464 Y1.6470  
G01 X-0.8408 Y1.6396  
G01 X-0.8361 Y1.6315  
G01 X-0.8325 Y1.6229  
G01 X-0.8301 Y1.6139  
G01 X-0.8289 Y1.6047  
G01 X-0.8289 Y1.5953  
G01 X-0.8301 Y1.5861  
G01 X-0.8325 Y1.5771  
G01 X-0.8361 Y1.5685  
G01 X-0.8408 Y1.5604  
G01 X-0.8464 Y1.5530  
G01 X-0.8530 Y1.5464  
G01 X-0.8604 Y1.5408  
G01 X-0.8685 Y1.5361  
G01 X-0.8771 Y1.5325  
G01 X-0.8779 Y1.5323  
G01 X-0.8779 Y1.0717  
G01 X-0.7614 Y0.9552  
G01 X-0.7573 Y0.9511  
G01 X-0.7544 Y0.9460  
G01 X-0.7529 Y0.9404  
G01 X-0.7529 Y0.8596  
G01 X-0.7544 Y0.8540  
G01 X-0.7573 Y0.8489  
G01 X-0.8198 Y0.7864  
G01 X-0.8239 Y0.7823  
G01 X-0.8290 Y0.7794  
G01 X-0.8346 Y0.7779  
G00 Z0.1000  
G00 X-0.6721 Y0.7471  
G01 Z-0.0020 F10    
G01 X-0.6721 Y1.1225  F20    
G01 X-0.6851 Y1.1355  
G01 X-0.6851 Y1.1645  
G01 X-0.6645 Y1.1851  
G01 X-0.6355 Y1.1851  
G01 X-0.6149 Y1.1645  
G01 X-0.6149 Y1.1355  
G01 X-0.6279 Y1.1225  
G01 X-0.6279 Y0.7096  
G01 X-0.6280 Y0.7092  
G01 X-0.6108 Y0.6921  
G01 X-0.5826 Y0.6921  
G01 X-0.5579 Y0.6674  
G01 X-0.5579 Y0.6326  
G01 X-0.5826 Y0.6079  
G01 X-0.6174 Y0.6079  
G01 X-0.6421 Y0.6326  
G01 X-0.6421 Y0.6608  
G01 X-0.6698 Y0.6886  
G01 X-0.6739 Y0.6927  
G01 X-0.6842 Y0.7029  
G01 X-1.5279 Y0.7029  
G01 X-1.5335 Y0.7044  
G01 X-1.5386 Y0.7073  
G01 X-1.5427 Y0.7114  
G01 X-1.5962 Y0.7650  
G01 X-1.5965 Y0.7649  
G01 X-1.6035 Y0.7649  
G01 X-1.6102 Y0.7662  
G01 X-1.6166 Y0.7689  
G01 X-1.6224 Y0.7727  
G01 X-1.6273 Y0.7776  
G01 X-1.6311 Y0.7834  
G01 X-1.6338 Y0.7898  
G01 X-1.6351 Y0.7965  
G01 X-1.6351 Y0.8035  
G01 X-1.6338 Y0.8102  
G01 X-1.6311 Y0.8166  
G01 X-1.6273 Y0.8224  
G01 X-1.6224 Y0.8273  
G01 X-1.6166 Y0.8311  
G01 X-1.6102 Y0.8338  
G01 X-1.6035 Y0.8351  
G01 X-1.5965 Y0.8351  
G01 X-1.5898 Y0.8338  
G01 X-1.5834 Y0.8311  
G01 X-1.5776 Y0.8273  
G01 X-1.5727 Y0.8224  
G01 X-1.5689 Y0.8166  
G01 X-1.5662 Y0.8102  
G01 X-1.5649 Y0.8035  
G01 X-1.5649 Y0.7965  
G01 X-1.5650 Y0.7962  
G01 X-1.5158 Y0.7471  
G01 X-0.6721 Y0.7471  
G00 Z0.1000  
G00 X-0.5216 Y1.4203  
G01 Z-0.0020 F10    
G01 X-0.5216 Y1.4797  F20    
G01 X-0.5163 Y1.4850  
G01 X-0.6177 Y1.5864  
G01 X-0.6206 Y1.5915  
G01 X-0.6221 Y1.5971  
G01 X-0.6221 Y1.7725  
G01 X-0.6351 Y1.7855  
G01 X-0.6351 Y1.8145  
G01 X-0.6145 Y1.8351  
G01 X-0.5855 Y1.8351  
G01 X-0.5649 Y1.8145  
G01 X-0.5649 Y1.7855  
G01 X-0.5779 Y1.7725  
G01 X-0.5779 Y1.6092  
G01 X-0.4850 Y1.5163  
G01 X-0.4797 Y1.5216  
G01 X-0.4203 Y1.5216  
G01 X-0.3784 Y1.4797  
G01 X-0.3784 Y1.4203  
G01 X-0.4203 Y1.3784  
G01 X-0.4797 Y1.3784  
G01 X-0.5216 Y1.4203  
G00 Z0.1000  
G00 X-0.3216 Y1.4203  
G01 Z-0.0020 F10    
G01 X-0.3216 Y1.4797  F20    
G01 X-0.3163 Y1.4850  
G01 X-0.4177 Y1.5864  
G01 X-0.4206 Y1.5915  
G01 X-0.4221 Y1.5971  
G01 X-0.4221 Y1.6533  
G01 X-0.4270 Y1.6559  
G01 X-0.4336 Y1.6606  
G01 X-0.4394 Y1.6664  
G01 X-0.4441 Y1.6730  
G01 X-0.4478 Y1.6802  
G01 X-0.4503 Y1.6879  
G01 X-0.4516 Y1.6959  
G01 X-0.4516 Y1.7041  
G01 X-0.4503 Y1.7121  
G01 X-0.4478 Y1.7198  
G01 X-0.4441 Y1.7270  
G01 X-0.4394 Y1.7336  
G01 X-0.4336 Y1.7394  
G01 X-0.4270 Y1.7441  
G01 X-0.4198 Y1.7478  
G01 X-0.4121 Y1.7503  
G01 X-0.4041 Y1.7516  
G01 X-0.3959 Y1.7516  
G01 X-0.3879 Y1.7503  
G01 X-0.3802 Y1.7478  
G01 X-0.3730 Y1.7441  
G01 X-0.3664 Y1.7394  
G01 X-0.3606 Y1.7336  
G01 X-0.3559 Y1.7270  
G01 X-0.3522 Y1.7198  
G01 X-0.3497 Y1.7121  
G01 X-0.3484 Y1.7041  
G01 X-0.3484 Y1.6959  
G01 X-0.3497 Y1.6879  
G01 X-0.3522 Y1.6802  
G01 X-0.3559 Y1.6730  
G01 X-0.3606 Y1.6664  
G01 X-0.3664 Y1.6606  
G01 X-0.3730 Y1.6559  
G01 X-0.3779 Y1.6533  
G01 X-0.3779 Y1.6092  
G01 X-0.2850 Y1.5163  
G01 X-0.2797 Y1.5216  
G01 X-0.2203 Y1.5216  
G01 X-0.1784 Y1.4797  
G01 X-0.1784 Y1.4203  
G01 X-0.2203 Y1.3784  
G01 X-0.2797 Y1.3784  
G01 X-0.3216 Y1.4203  
G00 Z0.1000  
G00 X-0.3136 Y2.1823  
G01 Z-0.0020 F10    
G01 X-0.3797 Y2.2484  F20    
G01 X-0.4214 Y2.2484  
G01 X-0.4516 Y2.2786  
G01 X-0.4516 Y2.3214  
G01 X-0.4214 Y2.3516  
G01 X-0.3786 Y2.3516  
G01 X-0.3484 Y2.3214  
G01 X-0.3484 Y2.2797  
G01 X-0.2908 Y2.2221  
G01 X-0.2275 Y2.2221  
G01 X-0.2145 Y2.2351  
G01 X-0.1855 Y2.2351  
G01 X-0.1649 Y2.2145  
G01 X-0.1649 Y2.1855  
G01 X-0.1855 Y2.1649  
G01 X-0.2145 Y2.1649  
G01 X-0.2275 Y2.1779  
G01 X-0.3029 Y2.1779  
G01 X-0.3085 Y2.1794  
G01 X-0.3136 Y2.1823  
G00 Z0.1000  
G00 X-0.5649 Y2.1855  
G01 Z-0.0020 F10    
G01 X-0.5855 Y2.1649  F20    
G01 X-0.6145 Y2.1649  
G01 X-0.6351 Y2.1855  
G01 X-0.6351 Y2.2038  
G01 X-0.8654 Y2.4341  
G01 X-0.8705 Y2.4289  
G01 X-0.9295 Y2.4289  
G01 X-0.9711 Y2.4705  
G01 X-0.9711 Y2.5295  
G01 X-0.9295 Y2.5711  
G01 X-0.8705 Y2.5711  
G01 X-0.8289 Y2.5295  
G01 X-0.8289 Y2.4705  
G01 X-0.8341 Y2.4654  
G01 X-0.6038 Y2.2351  
G01 X-0.5855 Y2.2351  
G01 X-0.5649 Y2.2145  
G01 X-0.5649 Y2.1855  
G00 Z0.1000  
G00 X-0.8649 Y2.9855  
G01 Z-0.0020 F10    
G01 X-0.8855 Y2.9649  F20    
G01 X-0.9145 Y2.9649  
G01 X-0.9275 Y2.9779  
G01 X-0.9408 Y2.9779  
G01 X-1.6149 Y2.3038  
G01 X-1.6149 Y2.2705  
G01 X-1.6162 Y2.2638  
G01 X-1.6189 Y2.2574  
G01 X-1.6227 Y2.2516  
G01 X-1.6276 Y2.2467  
G01 X-1.6334 Y2.2429  
G01 X-1.6398 Y2.2402  
G01 X-1.6465 Y2.2389  
G01 X-1.6535 Y2.2389  
G01 X-1.6602 Y2.2402  
G01 X-1.6666 Y2.2429  
G01 X-1.6724 Y2.2467  
G01 X-1.6773 Y2.2516  
G01 X-1.6811 Y2.2574  
G01 X-1.6838 Y2.2638  
G01 X-1.6851 Y2.2705  
G01 X-1.6851 Y2.3295  
G01 X-1.6838 Y2.3362  
G01 X-1.6811 Y2.3426  
G01 X-1.6773 Y2.3484  
G01 X-1.6724 Y2.3533  
G01 X-1.6666 Y2.3571  
G01 X-1.6602 Y2.3598  
G01 X-1.6535 Y2.3611  
G01 X-1.6465 Y2.3611  
G01 X-1.6398 Y2.3598  
G01 X-1.6334 Y2.3571  
G01 X-1.6278 Y2.3534  
G01 X-0.9636 Y3.0177  
G01 X-0.9585 Y3.0206  
G01 X-0.9529 Y3.0221  
G01 X-0.9275 Y3.0221  
G01 X-0.9145 Y3.0351  
G01 X-0.8855 Y3.0351  
G01 X-0.8649 Y3.0145  
G01 X-0.8649 Y2.9855  
G00 Z0.1000  
G00 X-1.1149 Y2.9855  
G01 Z-0.0020 F10    
G01 X-1.1355 Y2.9649  F20    
G01 X-1.1645 Y2.9649  
G01 X-1.1775 Y2.9779  
G01 X-1.2033 Y2.9779  
G01 X-1.5948 Y2.5864  
G01 X-1.5989 Y2.5823  
G01 X-1.6040 Y2.5794  
G01 X-1.6096 Y2.5779  
G01 X-1.6149 Y2.5779  
G01 X-1.6149 Y2.5705  
G01 X-1.6162 Y2.5638  
G01 X-1.6189 Y2.5574  
G01 X-1.6227 Y2.5516  
G01 X-1.6276 Y2.5467  
G01 X-1.6334 Y2.5429  
G01 X-1.6398 Y2.5402  
G01 X-1.6465 Y2.5389  
G01 X-1.6535 Y2.5389  
G01 X-1.6602 Y2.5402  
G01 X-1.6666 Y2.5429  
G01 X-1.6724 Y2.5467  
G01 X-1.6773 Y2.5516  
G01 X-1.6811 Y2.5574  
G01 X-1.6838 Y2.5638  
G01 X-1.6851 Y2.5705  
G01 X-1.6851 Y2.6295  
G01 X-1.6838 Y2.6362  
G01 X-1.6811 Y2.6426  
G01 X-1.6773 Y2.6484  
G01 X-1.6724 Y2.6533  
G01 X-1.6666 Y2.6571  
G01 X-1.6602 Y2.6598  
G01 X-1.6535 Y2.6611  
G01 X-1.6465 Y2.6611  
G01 X-1.6398 Y2.6598  
G01 X-1.6334 Y2.6571  
G01 X-1.6276 Y2.6533  
G01 X-1.6227 Y2.6484  
G01 X-1.6189 Y2.6426  
G01 X-1.6162 Y2.6362  
G01 X-1.6149 Y2.6295  
G01 X-1.6149 Y2.6289  
G01 X-1.2261 Y3.0177  
G01 X-1.2210 Y3.0206  
G01 X-1.2154 Y3.0221  
G01 X-1.1775 Y3.0221  
G01 X-1.1645 Y3.0351  
G01 X-1.1355 Y3.0351  
G01 X-1.1149 Y3.0145  
G01 X-1.1149 Y2.9855  
G00 Z0.1000  
G00 X-1.3649 Y2.9855  
G01 Z-0.0020 F10    
G01 X-1.3855 Y2.9649  F20    
G01 X-1.4038 Y2.9649  
G01 X-1.7218 Y2.6470  
G01 X-1.7189 Y2.6426  
G01 X-1.7162 Y2.6362  
G01 X-1.7149 Y2.6295  
G01 X-1.7149 Y2.5705  
G01 X-1.7162 Y2.5638  
G01 X-1.7189 Y2.5574  
G01 X-1.7227 Y2.5516  
G01 X-1.7276 Y2.5467  
G01 X-1.7334 Y2.5429  
G01 X-1.7398 Y2.5402  
G01 X-1.7465 Y2.5389  
G01 X-1.7535 Y2.5389  
G01 X-1.7602 Y2.5402  
G01 X-1.7666 Y2.5429  
G01 X-1.7724 Y2.5467  
G01 X-1.7773 Y2.5516  
G01 X-1.7811 Y2.5574  
G01 X-1.7838 Y2.5638  
G01 X-1.7851 Y2.5705  
G01 X-1.7851 Y2.6295  
G01 X-1.7838 Y2.6362  
G01 X-1.7811 Y2.6426  
G01 X-1.7773 Y2.6484  
G01 X-1.7724 Y2.6533  
G01 X-1.7719 Y2.6536  
G01 X-1.7706 Y2.6585  
G01 X-1.7677 Y2.6636  
G01 X-1.4351 Y2.9962  
G01 X-1.4351 Y3.0145  
G01 X-1.4145 Y3.0351  
G01 X-1.3855 Y3.0351  
G01 X-1.3649 Y3.0145  
G01 X-1.3649 Y2.9855  
G00 Z0.1000  
G00 X-1.6149 Y2.9855  
G01 Z-0.0020 F10    
G01 X-1.6355 Y2.9649  F20    
G01 X-1.6538 Y2.9649  
G01 X-1.8279 Y2.7908  
G01 X-1.8279 Y2.6534  
G01 X-1.8276 Y2.6533  
G01 X-1.8227 Y2.6484  
G01 X-1.8189 Y2.6426  
G01 X-1.8162 Y2.6362  
G01 X-1.8149 Y2.6295  
G01 X-1.8149 Y2.5705  
G01 X-1.8162 Y2.5638  
G01 X-1.8189 Y2.5574  
G01 X-1.8227 Y2.5516  
G01 X-1.8276 Y2.5467  
G01 X-1.8334 Y2.5429  
G01 X-1.8398 Y2.5402  
G01 X-1.8465 Y2.5389  
G01 X-1.8535 Y2.5389  
G01 X-1.8602 Y2.5402  
G01 X-1.8666 Y2.5429  
G01 X-1.8724 Y2.5467  
G01 X-1.8773 Y2.5516  
G01 X-1.8811 Y2.5574  
G01 X-1.8838 Y2.5638  
G01 X-1.8851 Y2.5705  
G01 X-1.8851 Y2.6295  
G01 X-1.8838 Y2.6362  
G01 X-1.8811 Y2.6426  
G01 X-1.8773 Y2.6484  
G01 X-1.8724 Y2.6533  
G01 X-1.8721 Y2.6534  
G01 X-1.8721 Y2.8029  
G01 X-1.8706 Y2.8085  
G01 X-1.8677 Y2.8136  
G01 X-1.6851 Y2.9962  
G01 X-1.6851 Y3.0145  
G01 X-1.6645 Y3.0351  
G01 X-1.6355 Y3.0351  
G01 X-1.6149 Y3.0145  
G01 X-1.6149 Y2.9855  
G00 Z0.1000  
G00 X-1.8649 Y2.9855  
G01 Z-0.0020 F10    
G01 X-1.8855 Y2.9649  F20    
G01 X-1.9038 Y2.9649  
G01 X-1.9279 Y2.9408  
G01 X-1.9279 Y2.6534  
G01 X-1.9276 Y2.6533  
G01 X-1.9227 Y2.6484  
G01 X-1.9189 Y2.6426  
G01 X-1.9162 Y2.6362  
G01 X-1.9149 Y2.6295  
G01 X-1.9149 Y2.5705  
G01 X-1.9162 Y2.5638  
G01 X-1.9189 Y2.5574  
G01 X-1.9227 Y2.5516  
G01 X-1.9276 Y2.5467  
G01 X-1.9334 Y2.5429  
G01 X-1.9398 Y2.5402  
G01 X-1.9465 Y2.5389  
G01 X-1.9535 Y2.5389  
G01 X-1.9602 Y2.5402  
G01 X-1.9666 Y2.5429  
G01 X-1.9724 Y2.5467  
G01 X-1.9773 Y2.5516  
G01 X-1.9811 Y2.5574  
G01 X-1.9838 Y2.5638  
G01 X-1.9851 Y2.5705  
G01 X-1.9851 Y2.6295  
G01 X-1.9838 Y2.6362  
G01 X-1.9811 Y2.6426  
G01 X-1.9773 Y2.6484  
G01 X-1.9724 Y2.6533  
G01 X-1.9721 Y2.6534  
G01 X-1.9721 Y2.9529  
G01 X-1.9706 Y2.9585  
G01 X-1.9677 Y2.9636  
G01 X-1.9351 Y2.9962  
G01 X-1.9351 Y3.0145  
G01 X-1.9145 Y3.0351  
G01 X-1.8855 Y3.0351  
G01 X-1.8649 Y3.0145  
G01 X-1.8649 Y2.9855  
G00 Z0.1000  
G00 X-2.0323 Y2.9136  
G01 Z-0.0020 F10    
G01 X-2.0294 Y2.9085  F20    
G01 X-2.0279 Y2.9029  
G01 X-2.0279 Y2.6534  
G01 X-2.0276 Y2.6533  
G01 X-2.0227 Y2.6484  
G01 X-2.0189 Y2.6426  
G01 X-2.0162 Y2.6362  
G01 X-2.0149 Y2.6295  
G01 X-2.0149 Y2.5705  
G01 X-2.0162 Y2.5638  
G01 X-2.0189 Y2.5574  
G01 X-2.0227 Y2.5516  
G01 X-2.0276 Y2.5467  
G01 X-2.0334 Y2.5429  
G01 X-2.0398 Y2.5402  
G01 X-2.0465 Y2.5389  
G01 X-2.0535 Y2.5389  
G01 X-2.0602 Y2.5402  
G01 X-2.0666 Y2.5429  
G01 X-2.0724 Y2.5467  
G01 X-2.0773 Y2.5516  
G01 X-2.0811 Y2.5574  
G01 X-2.0838 Y2.5638  
G01 X-2.0851 Y2.5705  
G01 X-2.0851 Y2.6295  
G01 X-2.0838 Y2.6362  
G01 X-2.0811 Y2.6426  
G01 X-2.0773 Y2.6484  
G01 X-2.0724 Y2.6533  
G01 X-2.0721 Y2.6534  
G01 X-2.0721 Y2.8908  
G01 X-2.1462 Y2.9649  
G01 X-2.1645 Y2.9649  
G01 X-2.1851 Y2.9855  
G01 X-2.1851 Y3.0145  
G01 X-2.1645 Y3.0351  
G01 X-2.1355 Y3.0351  
G01 X-2.1149 Y3.0145  
G01 X-2.1149 Y2.9962  
G01 X-2.0323 Y2.9136  
G00 Z0.1000  
G00 X-2.1323 Y2.7636  
G01 Z-0.0020 F10    
G01 X-2.1294 Y2.7585  F20    
G01 X-2.1279 Y2.7529  
G01 X-2.1279 Y2.6534  
G01 X-2.1276 Y2.6533  
G01 X-2.1227 Y2.6484  
G01 X-2.1189 Y2.6426  
G01 X-2.1162 Y2.6362  
G01 X-2.1149 Y2.6295  
G01 X-2.1149 Y2.5705  
G01 X-2.1162 Y2.5638  
G01 X-2.1189 Y2.5574  
G01 X-2.1227 Y2.5516  
G01 X-2.1276 Y2.5467  
G01 X-2.1334 Y2.5429  
G01 X-2.1398 Y2.5402  
G01 X-2.1465 Y2.5389  
G01 X-2.1535 Y2.5389  
G01 X-2.1602 Y2.5402  
G01 X-2.1666 Y2.5429  
G01 X-2.1724 Y2.5467  
G01 X-2.1773 Y2.5516  
G01 X-2.1811 Y2.5574  
G01 X-2.1838 Y2.5638  
G01 X-2.1851 Y2.5705  
G01 X-2.1851 Y2.6295  
G01 X-2.1838 Y2.6362  
G01 X-2.1811 Y2.6426  
G01 X-2.1773 Y2.6484  
G01 X-2.1724 Y2.6533  
G01 X-2.1721 Y2.6534  
G01 X-2.1721 Y2.7408  
G01 X-2.3962 Y2.9649  
G01 X-2.4145 Y2.9649  
G01 X-2.4351 Y2.9855  
G01 X-2.4351 Y3.0145  
G01 X-2.4145 Y3.0351  
G01 X-2.3855 Y3.0351  
G01 X-2.3649 Y3.0145  
G01 X-2.3649 Y2.9962  
G01 X-2.1323 Y2.7636  
G00 Z0.1000  
G00 X-2.2276 Y2.6533  
G01 Z-0.0020 F10    
G01 X-2.2227 Y2.6484  F20    
G01 X-2.2189 Y2.6426  
G01 X-2.2162 Y2.6362  
G01 X-2.2149 Y2.6295  
G01 X-2.2149 Y2.5705  
G01 X-2.2162 Y2.5638  
G01 X-2.2189 Y2.5574  
G01 X-2.2227 Y2.5516  
G01 X-2.2276 Y2.5467  
G01 X-2.2334 Y2.5429  
G01 X-2.2398 Y2.5402  
G01 X-2.2465 Y2.5389  
G01 X-2.2535 Y2.5389  
G01 X-2.2602 Y2.5402  
G01 X-2.2666 Y2.5429  
G01 X-2.2724 Y2.5467  
G01 X-2.2773 Y2.5516  
G01 X-2.2811 Y2.5574  
G01 X-2.2838 Y2.5638  
G01 X-2.2851 Y2.5705  
G01 X-2.2851 Y2.6038  
G01 X-2.3011 Y2.6198  
G01 X-2.3052 Y2.6239  
G01 X-2.3081 Y2.6290  
G01 X-2.3096 Y2.6346  
G01 X-2.3096 Y2.6408  
G01 X-2.6346 Y2.9658  
G01 X-2.6355 Y2.9649  
G01 X-2.6645 Y2.9649  
G01 X-2.6851 Y2.9855  
G01 X-2.6851 Y3.0145  
G01 X-2.6645 Y3.0351  
G01 X-2.6355 Y3.0351  
G01 X-2.6149 Y3.0145  
G01 X-2.6149 Y3.0087  
G01 X-2.2698 Y2.6636  
G01 X-2.2669 Y2.6585  
G01 X-2.2665 Y2.6571  
G01 X-2.2602 Y2.6598  
G01 X-2.2535 Y2.6611  
G01 X-2.2465 Y2.6611  
G01 X-2.2398 Y2.6598  
G01 X-2.2334 Y2.6571  
G01 X-2.2276 Y2.6533  
G00 Z0.1000  
G00 X-2.3276 Y2.6533  
G01 Z-0.0020 F10    
G01 X-2.3227 Y2.6484  F20    
G01 X-2.3189 Y2.6426  
G01 X-2.3162 Y2.6362  
G01 X-2.3149 Y2.6295  
G01 X-2.3149 Y2.5705  
G01 X-2.3162 Y2.5638  
G01 X-2.3189 Y2.5574  
G01 X-2.3227 Y2.5516  
G01 X-2.3276 Y2.5467  
G01 X-2.3334 Y2.5429  
G01 X-2.3398 Y2.5402  
G01 X-2.3465 Y2.5389  
G01 X-2.3535 Y2.5389  
G01 X-2.3602 Y2.5402  
G01 X-2.3666 Y2.5429  
G01 X-2.3724 Y2.5467  
G01 X-2.3773 Y2.5516  
G01 X-2.3811 Y2.5574  
G01 X-2.3838 Y2.5638  
G01 X-2.3851 Y2.5705  
G01 X-2.3851 Y2.6038  
G01 X-2.4011 Y2.6198  
G01 X-2.4052 Y2.6239  
G01 X-2.4081 Y2.6290  
G01 X-2.4096 Y2.6346  
G01 X-2.4096 Y2.6408  
G01 X-2.6842 Y2.9154  
G01 X-2.8404 Y2.9154  
G01 X-2.8460 Y2.9169  
G01 X-2.8511 Y2.9198  
G01 X-2.8962 Y2.9649  
G01 X-2.9145 Y2.9649  
G01 X-2.9351 Y2.9855  
G01 X-2.9351 Y3.0145  
G01 X-2.9145 Y3.0351  
G01 X-2.8855 Y3.0351  
G01 X-2.8649 Y3.0145  
G01 X-2.8649 Y2.9962  
G01 X-2.8283 Y2.9596  
G01 X-2.6721 Y2.9596  
G01 X-2.6665 Y2.9581  
G01 X-2.6614 Y2.9552  
G01 X-2.6573 Y2.9511  
G01 X-2.3698 Y2.6636  
G01 X-2.3669 Y2.6585  
G01 X-2.3665 Y2.6571  
G01 X-2.3602 Y2.6598  
G01 X-2.3535 Y2.6611  
G01 X-2.3465 Y2.6611  
G01 X-2.3398 Y2.6598  
G01 X-2.3334 Y2.6571  
G01 X-2.3276 Y2.6533  
G00 Z0.1000  
G00 X-2.4276 Y2.6533  
G01 Z-0.0020 F10    
G01 X-2.4227 Y2.6484  F20    
G01 X-2.4189 Y2.6426  
G01 X-2.4162 Y2.6362  
G01 X-2.4149 Y2.6295  
G01 X-2.4149 Y2.5705  
G01 X-2.4162 Y2.5638  
G01 X-2.4189 Y2.5574  
G01 X-2.4227 Y2.5516  
G01 X-2.4276 Y2.5467  
G01 X-2.4334 Y2.5429  
G01 X-2.4398 Y2.5402  
G01 X-2.4465 Y2.5389  
G01 X-2.4535 Y2.5389  
G01 X-2.4602 Y2.5402  
G01 X-2.4666 Y2.5429  
G01 X-2.4724 Y2.5467  
G01 X-2.4773 Y2.5516  
G01 X-2.4811 Y2.5574  
G01 X-2.4838 Y2.5638  
G01 X-2.4851 Y2.5705  
G01 X-2.4851 Y2.5779  
G01 X-2.7529 Y2.5779  
G01 X-2.7585 Y2.5794  
G01 X-2.7636 Y2.5823  
G01 X-3.1462 Y2.9649  
G01 X-3.1645 Y2.9649  
G01 X-3.1851 Y2.9855  
G01 X-3.1851 Y3.0145  
G01 X-3.1645 Y3.0351  
G01 X-3.1355 Y3.0351  
G01 X-3.1149 Y3.0145  
G01 X-3.1149 Y2.9962  
G01 X-2.7408 Y2.6221  
G01 X-2.4851 Y2.6221  
G01 X-2.4851 Y2.6295  
G01 X-2.4838 Y2.6362  
G01 X-2.4811 Y2.6426  
G01 X-2.4773 Y2.6484  
G01 X-2.4724 Y2.6533  
G01 X-2.4666 Y2.6571  
G01 X-2.4602 Y2.6598  
G01 X-2.4535 Y2.6611  
G01 X-2.4465 Y2.6611  
G01 X-2.4398 Y2.6598  
G01 X-2.4334 Y2.6571  
G01 X-2.4276 Y2.6533  
G00 Z0.1000  
G00 X-2.2773 Y2.3484  
G01 Z-0.0020 F10    
G01 X-2.2724 Y2.3533  F20    
G01 X-2.2666 Y2.3571  
G01 X-2.2602 Y2.3598  
G01 X-2.2535 Y2.3611  
G01 X-2.2465 Y2.3611  
G01 X-2.2398 Y2.3598  
G01 X-2.2334 Y2.3571  
G01 X-2.2276 Y2.3533  
G01 X-2.2227 Y2.3484  
G01 X-2.2189 Y2.3426  
G01 X-2.2162 Y2.3362  
G01 X-2.2149 Y2.3295  
G01 X-2.2149 Y2.2962  
G01 X-2.2000 Y2.2813  
G01 X-2.1851 Y2.2962  
G01 X-2.1851 Y2.3295  
G01 X-2.1838 Y2.3362  
G01 X-2.1811 Y2.3426  
G01 X-2.1773 Y2.3484  
G01 X-2.1724 Y2.3533  
G01 X-2.1666 Y2.3571  
G01 X-2.1602 Y2.3598  
G01 X-2.1535 Y2.3611  
G01 X-2.1465 Y2.3611  
G01 X-2.1398 Y2.3598  
G01 X-2.1334 Y2.3571  
G01 X-2.1276 Y2.3533  
G01 X-2.1227 Y2.3484  
G01 X-2.1189 Y2.3426  
G01 X-2.1162 Y2.3362  
G01 X-2.1149 Y2.3295  
G01 X-2.1149 Y2.2705  
G01 X-2.1162 Y2.2638  
G01 X-2.1189 Y2.2574  
G01 X-2.1227 Y2.2516  
G01 X-2.1276 Y2.2467  
G01 X-2.1334 Y2.2429  
G01 X-2.1398 Y2.2402  
G01 X-2.1465 Y2.2389  
G01 X-2.1535 Y2.2389  
G01 X-2.1602 Y2.2402  
G01 X-2.1666 Y2.2429  
G01 X-2.1722 Y2.2466  
G01 X-2.1779 Y2.2408  
G01 X-2.1779 Y2.1775  
